;FLAVOR:Marlin
;TIME:6666
;Filament used: 0m
;Layer height: 0.15

;Generated with Cura_SteamEngine 4.0.0
M140 S60
M105
M190 S60
M104 S200
M105
M109 S200
M82 ;absolute extrusion mode
M140 S60
M105
M190 S60
M104 S200
M105
M109 S200
G28 ; Home all axes
G92 E0 ; Reset Extruder
G1 Z2.0 F3000 ; Move Z Axis up little to prevent scratching of Heat Bed
G1 F1000 E10 ; extrude filament 10 mm
G92 E0
G1 F2400 E-5
;LAYER_COUNT:2
;LAYER:0
M107
M204 S5000
M205 X30 Y30
;MESH:bottom-left.stl
G0 F3600 X53.4 Y203.4 Z0.2
M204 S500
M205 X20 Y20
;TYPE:WALL-INNER
G1 F2400 E0
G1 F1800 X34.6 Y203.4 E0.62529
G1 X34.6 Y184.6 E1.25058
G1 X53.4 Y184.6 E1.87587
G1 X53.4 Y203.4 E2.50116
M204 S5000
M205 X30 Y30
G0 F3600 X53.8 Y203.8
M204 S500
M205 X20 Y20
;TYPE:WALL-OUTER
G1 F1800 X34.2 Y203.8 E3.15306
G1 X34.2 Y184.2 E3.80496
G1 X53.8 Y184.2 E4.45686
G1 X53.8 Y203.8 E5.10876
M204 S5000
M205 X30 Y30
G0 F3600 X53.6 Y203.8
G0 X53.01 Y203.01
M204 S500
M205 X20 Y20
;TYPE:SKIN
G1 F1800 X34.99 Y203.01 E5.7081
G1 X34.99 Y184.99 E6.30745
G1 X53.01 Y184.99 E6.9068
G1 X53.01 Y203.01 E7.50615
M204 S5000
M205 X30 Y30
G0 F3600 X52.83 Y185.766
M204 S500
M205 X20 Y20
G1 F1800 X52.233 Y185.169 E7.53423
M204 S5000
M205 X30 Y30
G0 F3600 X51.667 Y185.169
M204 S500
M205 X20 Y20
G1 F1800 X52.83 Y186.331 E7.58891
M204 S5000
M205 X30 Y30
G0 F3600 X52.83 Y186.897
M204 S500
M205 X20 Y20
G1 F1800 X51.101 Y185.169 E7.67021
M204 S5000
M205 X30 Y30
G0 F3600 X50.536 Y185.169
M204 S500
M205 X20 Y20
G1 F1800 X52.83 Y187.463 E7.77811
M204 S5000
M205 X30 Y30
G0 F3600 X52.83 Y188.028
M204 S500
M205 X20 Y20
G1 F1800 X49.97 Y185.169 E7.91262
M204 S5000
M205 X30 Y30
G0 F3600 X49.404 Y185.169
M204 S500
M205 X20 Y20
G1 F1800 X52.83 Y188.594 E8.07374
M204 S5000
M205 X30 Y30
G0 F3600 X52.83 Y189.16
M204 S500
M205 X20 Y20
G1 F1800 X48.839 Y185.169 E8.26147
M204 S5000
M205 X30 Y30
G0 F3600 X48.273 Y185.169
M204 S500
M205 X20 Y20
G1 F1800 X52.83 Y189.725 E8.47579
M204 S5000
M205 X30 Y30
G0 F3600 X52.83 Y190.291
M204 S500
M205 X20 Y20
G1 F1800 X47.707 Y185.169 E8.71674
M204 S5000
M205 X30 Y30
G0 F3600 X47.142 Y185.169
M204 S500
M205 X20 Y20
G1 F1800 X52.83 Y190.857 E8.98428
M204 S5000
M205 X30 Y30
G0 F3600 X52.83 Y191.422
M204 S500
M205 X20 Y20
G1 F1800 X46.576 Y185.169 E9.27843
M204 S5000
M205 X30 Y30
G0 F3600 X46.01 Y185.169
M204 S500
M205 X20 Y20
G1 F1800 X52.83 Y191.988 E9.5992
M204 S5000
M205 X30 Y30
G0 F3600 X52.83 Y192.554
M204 S500
M205 X20 Y20
G1 F1800 X45.445 Y185.169 E9.94656
M204 S5000
M205 X30 Y30
G0 F3600 X44.879 Y185.169
M204 S500
M205 X20 Y20
G1 F1800 X52.83 Y193.12 E10.32056
M204 S5000
M205 X30 Y30
G0 F3600 X52.83 Y193.685
M204 S500
M205 X20 Y20
G1 F1800 X44.313 Y185.169 E10.72115
M204 S5000
M205 X30 Y30
G0 F3600 X43.747 Y185.169
M204 S500
M205 X20 Y20
G1 F1800 X52.83 Y194.251 E11.14836
M204 S5000
M205 X30 Y30
G0 F3600 X52.83 Y194.817
M204 S500
M205 X20 Y20
G1 F1800 X43.182 Y185.169 E11.60217
M204 S5000
M205 X30 Y30
G0 F3600 X42.616 Y185.169
M204 S500
M205 X20 Y20
G1 F1800 X52.83 Y195.382 E12.08258
M204 S5000
M205 X30 Y30
G0 F3600 X52.83 Y195.948
M204 S500
M205 X20 Y20
G1 F1800 X42.05 Y185.169 E12.58962
M204 S5000
M205 X30 Y30
G0 F3600 X41.485 Y185.169
M204 S500
M205 X20 Y20
G1 F1800 X52.83 Y196.514 E13.12325
M204 S5000
M205 X30 Y30
G0 F3600 X52.83 Y197.079
M204 S500
M205 X20 Y20
G1 F1800 X40.919 Y185.169 E13.68348
M204 S5000
M205 X30 Y30
G0 F3600 X40.353 Y185.169
M204 S500
M205 X20 Y20
G1 F1800 X52.83 Y197.645 E14.27034
M204 S5000
M205 X30 Y30
G0 F3600 X52.83 Y198.211
M204 S500
M205 X20 Y20
G1 F1800 X39.788 Y185.169 E14.8838
M204 S5000
M205 X30 Y30
G0 F3600 X39.222 Y185.169
M204 S500
M205 X20 Y20
G1 F1800 X52.83 Y198.776 E15.52385
M204 S5000
M205 X30 Y30
G0 F3600 X52.83 Y199.342
M204 S500
M205 X20 Y20
G1 F1800 X38.656 Y185.169 E16.19053
M204 S5000
M205 X30 Y30
G0 F3600 X38.091 Y185.169
M204 S500
M205 X20 Y20
G1 F1800 X52.83 Y199.908 E16.88381
M204 S5000
M205 X30 Y30
G0 F3600 X52.83 Y200.473
M204 S500
M205 X20 Y20
G1 F1800 X37.525 Y185.169 E17.60368
M204 S5000
M205 X30 Y30
G0 F3600 X36.959 Y185.169
M204 S500
M205 X20 Y20
G1 F1800 X52.83 Y201.039 E18.35018
M204 S5000
M205 X30 Y30
G0 F3600 X52.83 Y201.605
M204 S500
M205 X20 Y20
G1 F1800 X36.394 Y185.169 E19.12328
M204 S5000
M205 X30 Y30
G0 F3600 X35.828 Y185.169
M204 S500
M205 X20 Y20
G1 F1800 X52.83 Y202.171 E19.923
M204 S5000
M205 X30 Y30
G0 F3600 X52.83 Y202.736
M204 S500
M205 X20 Y20
G1 F1800 X35.262 Y185.169 E20.74933
M204 S5000
M205 X30 Y30
G0 F3600 X35.169 Y185.641
M204 S500
M205 X20 Y20
G1 F1800 X52.357 Y202.829 E21.5578
M204 S5000
M205 X30 Y30
G0 F3600 X51.791 Y202.829
M204 S500
M205 X20 Y20
G1 F1800 X35.169 Y186.207 E22.33964
M204 S5000
M205 X30 Y30
G0 F3600 X35.169 Y186.773
M204 S500
M205 X20 Y20
G1 F1800 X51.225 Y202.829 E23.09487
M204 S5000
M205 X30 Y30
G0 F3600 X50.659 Y202.829
M204 S500
M205 X20 Y20
G1 F1800 X35.169 Y187.338 E23.82349
M204 S5000
M205 X30 Y30
G0 F3600 X35.169 Y187.904
M204 S500
M205 X20 Y20
G1 F1800 X50.094 Y202.829 E24.52552
M204 S5000
M205 X30 Y30
G0 F3600 X49.528 Y202.829
M204 S500
M205 X20 Y20
G1 F1800 X35.169 Y188.47 E25.20092
M204 S5000
M205 X30 Y30
G0 F3600 X35.169 Y189.035
M204 S500
M205 X20 Y20
G1 F1800 X48.962 Y202.829 E25.84973
M204 S5000
M205 X30 Y30
G0 F3600 X48.397 Y202.829
M204 S500
M205 X20 Y20
G1 F1800 X35.169 Y189.601 E26.47193
M204 S5000
M205 X30 Y30
G0 F3600 X35.169 Y190.167
M204 S500
M205 X20 Y20
G1 F1800 X47.831 Y202.829 E27.06751
M204 S5000
M205 X30 Y30
G0 F3600 X47.265 Y202.829
M204 S500
M205 X20 Y20
G1 F1800 X35.169 Y190.732 E27.6365
M204 S5000
M205 X30 Y30
G0 F3600 X35.169 Y191.298
M204 S500
M205 X20 Y20
G1 F1800 X46.7 Y202.829 E28.17888
M204 S5000
M205 X30 Y30
G0 F3600 X46.134 Y202.829
M204 S500
M205 X20 Y20
G1 F1800 X35.169 Y191.864 E28.69464
M204 S5000
M205 X30 Y30
G0 F3600 X35.169 Y192.429
M204 S500
M205 X20 Y20
G1 F1800 X45.568 Y202.829 E29.1838
M204 S5000
M205 X30 Y30
G0 F3600 X45.003 Y202.829
M204 S500
M205 X20 Y20
G1 F1800 X35.169 Y192.995 E29.64636
M204 S5000
M205 X30 Y30
G0 F3600 X35.169 Y193.561
M204 S500
M205 X20 Y20
G1 F1800 X44.437 Y202.829 E30.0823
M204 S5000
M205 X30 Y30
G0 F3600 X43.871 Y202.829
M204 S500
M205 X20 Y20
G1 F1800 X35.169 Y194.126 E30.49164
M204 S5000
M205 X30 Y30
G0 F3600 X35.169 Y194.692
M204 S500
M205 X20 Y20
G1 F1800 X43.306 Y202.829 E30.87438
M204 S5000
M205 X30 Y30
G0 F3600 X42.74 Y202.829
M204 S500
M205 X20 Y20
G1 F1800 X35.169 Y195.258 E31.23049
M204 S5000
M205 X30 Y30
G0 F3600 X35.169 Y195.824
M204 S500
M205 X20 Y20
G1 F1800 X42.174 Y202.829 E31.55999
M204 S5000
M205 X30 Y30
G0 F3600 X41.608 Y202.829
M204 S500
M205 X20 Y20
G1 F1800 X35.169 Y196.389 E31.86288
M204 S5000
M205 X30 Y30
G0 F3600 X35.169 Y196.955
M204 S500
M205 X20 Y20
G1 F1800 X41.043 Y202.829 E32.13918
M204 S5000
M205 X30 Y30
G0 F3600 X40.477 Y202.829
M204 S500
M205 X20 Y20
G1 F1800 X35.169 Y197.521 E32.38885
M204 S5000
M205 X30 Y30
G0 F3600 X35.169 Y198.086
M204 S500
M205 X20 Y20
G1 F1800 X39.911 Y202.829 E32.61192
M204 S5000
M205 X30 Y30
G0 F3600 X39.346 Y202.829
M204 S500
M205 X20 Y20
G1 F1800 X35.169 Y198.652 E32.8084
M204 S5000
M205 X30 Y30
G0 F3600 X35.169 Y199.218
M204 S500
M205 X20 Y20
G1 F1800 X38.78 Y202.829 E32.97825
M204 S5000
M205 X30 Y30
G0 F3600 X38.214 Y202.829
M204 S500
M205 X20 Y20
G1 F1800 X35.169 Y199.783 E33.1215
M204 S5000
M205 X30 Y30
G0 F3600 X35.169 Y200.349
M204 S500
M205 X20 Y20
G1 F1800 X37.649 Y202.829 E33.23815
M204 S5000
M205 X30 Y30
G0 F3600 X37.083 Y202.829
M204 S500
M205 X20 Y20
G1 F1800 X35.169 Y200.915 E33.32818
M204 S5000
M205 X30 Y30
G0 F3600 X35.169 Y201.48
M204 S500
M205 X20 Y20
G1 F1800 X36.517 Y202.829 E33.39161
M204 S5000
M205 X30 Y30
G0 F3600 X35.952 Y202.829
M204 S500
M205 X20 Y20
G1 F1800 X35.169 Y202.046 E33.42844
M204 S5000
M205 X30 Y30
G0 F3600 X35.169 Y202.612
M204 S500
M205 X20 Y20
G1 F1800 X35.386 Y202.829 E33.43864
;TIME_ELAPSED:44.565128
G1 F2400 E28.43864
M204 S4000
; Ender 3 Custom End G-code
G4 ; Wait
M220 S100 ; Reset Speed factor override percentage to default (100%)
M221 S100 ; Reset Extrude factor override percentage to default (100%)
G91 ; Set coordinates to relative
G1 F1800 E-3 ; Retract filament 3 mm to prevent oozing
G1 F3000 Z20 ; Move Z Axis up 20 mm to allow filament ooze freely
G90 ; Set coordinates to absolute
G1 X0 Y235 F1000 ; Move Heat Bed to the front for easy print removal
M84 ; Disable stepper motors
; End of custom end GCode
M82 ;absolute extrusion mode
;End of Gcode
