;FLAVOR:Marlin
;TIME:6666
;Filament used: 0m
;Layer height: 0.15

;Generated with Cura_SteamEngine 4.0.0
M140 S60
M105
M190 S60
M104 S200
M105
M109 S200
M82 ;absolute extrusion mode
M140 S60
M105
M190 S60
M104 S200
M105
M109 S200
G28 ; Home all axes
G92 E0 ; Reset Extruder
G1 Z2.0 F3000 ; Move Z Axis up little to prevent scratching of Heat Bed
G1 F1000 E10 ; extrude filament 10 mm
G92 E0
G1 F2400 E-5
;LAYER_COUNT:2
;LAYER:0
M107
M204 S5000
M205 X30 Y30
;MESH:bottom-right.stl
G0 F3600 X203.4 Y203.4 Z0.2
M204 S500
M205 X20 Y20
;TYPE:WALL-INNER
G1 F2400 E0
G1 F1800 X184.6 Y203.4 E0.62529
G1 X184.6 Y184.6 E1.25058
G1 X203.4 Y184.6 E1.87587
G1 X203.4 Y203.4 E2.50116
M204 S5000
M205 X30 Y30
G0 F3600 X203.8 Y203.8
M204 S500
M205 X20 Y20
;TYPE:WALL-OUTER
G1 F1800 X184.2 Y203.8 E3.15306
G1 X184.2 Y184.2 E3.80496
G1 X203.8 Y184.2 E4.45686
G1 X203.8 Y203.8 E5.10876
M204 S5000
M205 X30 Y30
G0 F3600 X203.6 Y203.8
G0 X203.01 Y203.01
M204 S500
M205 X20 Y20
;TYPE:SKIN
G1 F1800 X184.99 Y203.01 E5.7081
G1 X184.99 Y184.99 E6.30745
G1 X203.01 Y184.99 E6.9068
G1 X203.01 Y203.01 E7.50615
M204 S5000
M205 X30 Y30
G0 F3600 X202.829 Y185.293
M204 S500
M205 X20 Y20
G1 F1800 X202.706 Y185.17 E7.51193
M204 S5000
M205 X30 Y30
G0 F3600 X202.14 Y185.17
M204 S500
M205 X20 Y20
G1 F1800 X202.829 Y185.858 E7.54432
M204 S5000
M205 X30 Y30
G0 F3600 X202.829 Y186.424
M204 S500
M205 X20 Y20
G1 F1800 X201.574 Y185.17 E7.60333
M204 S5000
M205 X30 Y30
G0 F3600 X201.009 Y185.17
M204 S500
M205 X20 Y20
G1 F1800 X202.829 Y186.99 E7.68893
M204 S5000
M205 X30 Y30
G0 F3600 X202.829 Y187.555
M204 S500
M205 X20 Y20
G1 F1800 X200.443 Y185.17 E7.80114
M204 S5000
M205 X30 Y30
G0 F3600 X199.877 Y185.17
M204 S500
M205 X20 Y20
G1 F1800 X202.829 Y188.121 E7.93997
M204 S5000
M205 X30 Y30
G0 F3600 X202.829 Y188.687
M204 S500
M205 X20 Y20
G1 F1800 X199.312 Y185.17 E8.1054
M204 S5000
M205 X30 Y30
G0 F3600 X198.746 Y185.17
M204 S500
M205 X20 Y20
G1 F1800 X202.829 Y189.252 E8.29743
M204 S5000
M205 X30 Y30
G0 F3600 X202.829 Y189.818
M204 S500
M205 X20 Y20
G1 F1800 X198.18 Y185.17 E8.51608
M204 S5000
M205 X30 Y30
G0 F3600 X197.615 Y185.17
M204 S500
M205 X20 Y20
G1 F1800 X202.829 Y190.384 E8.76133
M204 S5000
M205 X30 Y30
G0 F3600 X202.829 Y190.949
M204 S500
M205 X20 Y20
G1 F1800 X197.049 Y185.17 E9.03318
M204 S5000
M205 X30 Y30
G0 F3600 X196.483 Y185.17
M204 S500
M205 X20 Y20
G1 F1800 X202.829 Y191.515 E9.33165
M204 S5000
M205 X30 Y30
G0 F3600 X202.829 Y192.081
M204 S500
M205 X20 Y20
G1 F1800 X195.918 Y185.17 E9.65672
M204 S5000
M205 X30 Y30
G0 F3600 X195.352 Y185.17
M204 S500
M205 X20 Y20
G1 F1800 X202.829 Y192.646 E10.00839
M204 S5000
M205 X30 Y30
G0 F3600 X202.829 Y193.212
M204 S500
M205 X20 Y20
G1 F1800 X194.786 Y185.17 E10.38669
M204 S5000
M205 X30 Y30
G0 F3600 X194.221 Y185.17
M204 S500
M205 X20 Y20
G1 F1800 X202.829 Y193.778 E10.79158
M204 S5000
M205 X30 Y30
G0 F3600 X202.829 Y194.344
M204 S500
M205 X20 Y20
G1 F1800 X193.655 Y185.17 E11.2231
M204 S5000
M205 X30 Y30
G0 F3600 X193.089 Y185.17
M204 S500
M205 X20 Y20
G1 F1800 X202.829 Y194.909 E11.68122
M204 S5000
M205 X30 Y30
G0 F3600 X202.829 Y195.475
M204 S500
M205 X20 Y20
G1 F1800 X192.523 Y185.17 E12.16596
M204 S5000
M205 X30 Y30
G0 F3600 X191.958 Y185.17
M204 S500
M205 X20 Y20
G1 F1800 X202.829 Y196.041 E12.67729
M204 S5000
M205 X30 Y30
G0 F3600 X202.829 Y196.606
M204 S500
M205 X20 Y20
G1 F1800 X191.392 Y185.17 E13.21523
M204 S5000
M205 X30 Y30
G0 F3600 X190.826 Y185.17
M204 S500
M205 X20 Y20
G1 F1800 X202.829 Y197.172 E13.77979
M204 S5000
M205 X30 Y30
G0 F3600 X202.829 Y197.738
M204 S500
M205 X20 Y20
G1 F1800 X190.261 Y185.17 E14.37095
M204 S5000
M205 X30 Y30
G0 F3600 X189.695 Y185.17
M204 S500
M205 X20 Y20
G1 F1800 X202.829 Y198.303 E14.98871
M204 S5000
M205 X30 Y30
G0 F3600 X202.829 Y198.869
M204 S500
M205 X20 Y20
G1 F1800 X189.129 Y185.17 E15.63309
M204 S5000
M205 X30 Y30
G0 F3600 X188.564 Y185.17
M204 S500
M205 X20 Y20
G1 F1800 X202.829 Y199.435 E16.30408
M204 S5000
M205 X30 Y30
G0 F3600 X202.829 Y200
M204 S500
M205 X20 Y20
G1 F1800 X187.998 Y185.17 E17.00166
M204 S5000
M205 X30 Y30
G0 F3600 X187.432 Y185.17
M204 S500
M205 X20 Y20
G1 F1800 X202.829 Y200.566 E17.72586
M204 S5000
M205 X30 Y30
G0 F3600 X202.829 Y201.132
M204 S500
M205 X20 Y20
G1 F1800 X186.867 Y185.17 E18.47667
M204 S5000
M205 X30 Y30
G0 F3600 X186.301 Y185.17
M204 S500
M205 X20 Y20
G1 F1800 X202.829 Y201.697 E19.25407
M204 S5000
M205 X30 Y30
G0 F3600 X202.829 Y202.263
M204 S500
M205 X20 Y20
G1 F1800 X185.735 Y185.17 E20.05809
M204 S5000
M205 X30 Y30
G0 F3600 X185.169 Y185.169
M204 S500
M205 X20 Y20
G1 F1800 X202.829 Y202.829 E20.88877
M204 S5000
M205 X30 Y30
G0 F3600 X202.263 Y202.829
M204 S500
M205 X20 Y20
G1 F1800 X185.169 Y185.735 E21.69282
M204 S5000
M205 X30 Y30
G0 F3600 X185.169 Y186.3
M204 S500
M205 X20 Y20
G1 F1800 X201.697 Y202.829 E22.47027
M204 S5000
M205 X30 Y30
G0 F3600 X201.132 Y202.829
M204 S500
M205 X20 Y20
G1 F1800 X185.169 Y186.866 E23.22112
M204 S5000
M205 X30 Y30
G0 F3600 X185.169 Y187.432
M204 S500
M205 X20 Y20
G1 F1800 X200.566 Y202.829 E23.94534
M204 S5000
M205 X30 Y30
G0 F3600 X200 Y202.829
M204 S500
M205 X20 Y20
G1 F1800 X185.169 Y187.997 E24.64297
M204 S5000
M205 X30 Y30
G0 F3600 X185.169 Y188.563
M204 S500
M205 X20 Y20
G1 F1800 X199.435 Y202.829 E25.314
M204 S5000
M205 X30 Y30
G0 F3600 X198.869 Y202.829
M204 S500
M205 X20 Y20
G1 F1800 X185.169 Y189.129 E25.95841
M204 S5000
M205 X30 Y30
G0 F3600 X185.169 Y189.694
M204 S500
M205 X20 Y20
G1 F1800 X198.303 Y202.829 E26.57621
M204 S5000
M205 X30 Y30
G0 F3600 X197.738 Y202.829
M204 S500
M205 X20 Y20
G1 F1800 X185.169 Y190.26 E27.16742
M204 S5000
M205 X30 Y30
G0 F3600 X185.169 Y190.826
M204 S500
M205 X20 Y20
G1 F1800 X197.172 Y202.829 E27.73201
M204 S5000
M205 X30 Y30
G0 F3600 X196.606 Y202.829
M204 S500
M205 X20 Y20
G1 F1800 X185.169 Y191.391 E28.26999
M204 S5000
M205 X30 Y30
G0 F3600 X185.169 Y191.957
M204 S500
M205 X20 Y20
G1 F1800 X196.041 Y202.829 E28.78138
M204 S5000
M205 X30 Y30
G0 F3600 X195.475 Y202.829
M204 S500
M205 X20 Y20
G1 F1800 X185.169 Y192.523 E29.26614
M204 S5000
M205 X30 Y30
G0 F3600 X185.169 Y193.088
M204 S500
M205 X20 Y20
G1 F1800 X194.909 Y202.829 E29.7243
M204 S5000
M205 X30 Y30
G0 F3600 X194.344 Y202.829
M204 S500
M205 X20 Y20
G1 F1800 X185.169 Y193.654 E30.15587
M204 S5000
M205 X30 Y30
G0 F3600 X185.169 Y194.22
M204 S500
M205 X20 Y20
G1 F1800 X193.778 Y202.829 E30.56081
M204 S5000
M205 X30 Y30
G0 F3600 X193.212 Y202.829
M204 S500
M205 X20 Y20
G1 F1800 X185.169 Y194.785 E30.93915
M204 S5000
M205 X30 Y30
G0 F3600 X185.169 Y195.351
M204 S500
M205 X20 Y20
G1 F1800 X192.646 Y202.829 E31.29087
M204 S5000
M205 X30 Y30
G0 F3600 X192.081 Y202.829
M204 S500
M205 X20 Y20
G1 F1800 X185.169 Y195.917 E31.61599
M204 S5000
M205 X30 Y30
G0 F3600 X185.169 Y196.483
M204 S500
M205 X20 Y20
G1 F1800 X191.515 Y202.829 E31.91448
M204 S5000
M205 X30 Y30
G0 F3600 X190.949 Y202.829
M204 S500
M205 X20 Y20
G1 F1800 X185.169 Y197.048 E32.18638
M204 S5000
M205 X30 Y30
G0 F3600 X185.169 Y197.614
M204 S500
M205 X20 Y20
G1 F1800 X190.384 Y202.829 E32.43168
M204 S5000
M205 X30 Y30
G0 F3600 X189.818 Y202.829
M204 S500
M205 X20 Y20
G1 F1800 X185.169 Y198.18 E32.65035
M204 S5000
M205 X30 Y30
G0 F3600 X185.169 Y198.745
M204 S500
M205 X20 Y20
G1 F1800 X189.252 Y202.829 E32.84243
M204 S5000
M205 X30 Y30
G0 F3600 X188.687 Y202.829
M204 S500
M205 X20 Y20
G1 F1800 X185.169 Y199.311 E33.0079
M204 S5000
M205 X30 Y30
G0 F3600 X185.169 Y199.877
M204 S500
M205 X20 Y20
G1 F1800 X188.121 Y202.829 E33.14676
M204 S5000
M205 X30 Y30
G0 F3600 X187.555 Y202.829
M204 S500
M205 X20 Y20
G1 F1800 X185.169 Y200.442 E33.25901
M204 S5000
M205 X30 Y30
G0 F3600 X185.169 Y201.008
M204 S500
M205 X20 Y20
G1 F1800 X186.99 Y202.829 E33.34466
M204 S5000
M205 X30 Y30
G0 F3600 X186.424 Y202.829
M204 S500
M205 X20 Y20
G1 F1800 X185.169 Y201.574 E33.4037
M204 S5000
M205 X30 Y30
G0 F3600 X185.169 Y202.139
M204 S500
M205 X20 Y20
G1 F1800 X185.858 Y202.829 E33.43613
M204 S5000
M205 X30 Y30
G0 F3600 X185.293 Y202.829
M204 S500
M205 X20 Y20
G1 F1800 X185.169 Y202.705 E33.44196
;TIME_ELAPSED:45.498750
G1 F2400 E28.44196
M204 S4000
; Ender 3 Custom End G-code
G4 ; Wait
M220 S100 ; Reset Speed factor override percentage to default (100%)
M221 S100 ; Reset Extrude factor override percentage to default (100%)
G91 ; Set coordinates to relative
G1 F1800 E-3 ; Retract filament 3 mm to prevent oozing
G1 F3000 Z20 ; Move Z Axis up 20 mm to allow filament ooze freely
G90 ; Set coordinates to absolute
G1 X0 Y235 F1000 ; Move Heat Bed to the front for easy print removal
M84 ; Disable stepper motors
; End of custom end GCode
M82 ;absolute extrusion mode
;End of Gcode
