;FLAVOR:Marlin
;TIME:6666
;Filament used: 0m
;Layer height: 0.15

;Generated with Cura_SteamEngine 4.0.0
M140 S60
M105
M190 S60
M104 S200
M105
M109 S200
M82 ;absolute extrusion mode
M140 S60
M105
M190 S60
M104 S200
M105
M109 S200
G28 ; Home all axes
G92 E0 ; Reset Extruder
G1 Z2.0 F3000 ; Move Z Axis up little to prevent scratching of Heat Bed
G1 F1000 E10 ; extrude filament 10 mm
G92 E0
G1 F2400 E-5
;LAYER_COUNT:2
;LAYER:0
M107
M204 S5000
M205 X30 Y30
;MESH:bottom-mid.stl
G0 F3600 X128.4 Y203.4 Z0.2
M204 S500
M205 X20 Y20
;TYPE:WALL-INNER
G1 F2400 E0
G1 F1800 X109.6 Y203.4 E0.62529
G1 X109.6 Y184.6 E1.25058
G1 X128.4 Y184.6 E1.87587
G1 X128.4 Y203.4 E2.50116
M204 S5000
M205 X30 Y30
G0 F3600 X128.8 Y203.8
M204 S500
M205 X20 Y20
;TYPE:WALL-OUTER
G1 F1800 X109.2 Y203.8 E3.15306
G1 X109.2 Y184.2 E3.80496
G1 X128.8 Y184.2 E4.45686
G1 X128.8 Y203.8 E5.10876
M204 S5000
M205 X30 Y30
G0 F3600 X128.6 Y203.8
G0 X128.01 Y203.01
M204 S500
M205 X20 Y20
;TYPE:SKIN
G1 F1800 X109.99 Y203.01 E5.7081
G1 X109.99 Y184.99 E6.30745
G1 X128.01 Y184.99 E6.9068
G1 X128.01 Y203.01 E7.50615
M204 S5000
M205 X30 Y30
G0 F3600 X127.83 Y185.529
M204 S500
M205 X20 Y20
G1 F1800 X127.469 Y185.169 E7.5231
M204 S5000
M205 X30 Y30
G0 F3600 X126.903 Y185.169
M204 S500
M205 X20 Y20
G1 F1800 X127.83 Y186.095 E7.56668
M204 S5000
M205 X30 Y30
G0 F3600 X127.83 Y186.661
M204 S500
M205 X20 Y20
G1 F1800 X126.338 Y185.169 E7.63686
M204 S5000
M205 X30 Y30
G0 F3600 X125.772 Y185.169
M204 S500
M205 X20 Y20
G1 F1800 X127.83 Y187.227 E7.73366
M204 S5000
M205 X30 Y30
G0 F3600 X127.83 Y187.792
M204 S500
M205 X20 Y20
G1 F1800 X125.206 Y185.169 E7.85707
M204 S5000
M205 X30 Y30
G0 F3600 X124.641 Y185.169
M204 S500
M205 X20 Y20
G1 F1800 X127.83 Y188.358 E8.00707
M204 S5000
M205 X30 Y30
G0 F3600 X127.83 Y188.924
M204 S500
M205 X20 Y20
G1 F1800 X124.075 Y185.169 E8.18369
M204 S5000
M205 X30 Y30
G0 F3600 X123.509 Y185.169
M204 S500
M205 X20 Y20
G1 F1800 X127.83 Y189.489 E8.38691
M204 S5000
M205 X30 Y30
G0 F3600 X127.83 Y190.055
M204 S500
M205 X20 Y20
G1 F1800 X122.943 Y185.169 E8.61676
M204 S5000
M205 X30 Y30
G0 F3600 X122.378 Y185.169
M204 S500
M205 X20 Y20
G1 F1800 X127.83 Y190.621 E8.87321
M204 S5000
M205 X30 Y30
G0 F3600 X127.83 Y191.186
M204 S500
M205 X20 Y20
G1 F1800 X121.812 Y185.169 E9.15625
M204 S5000
M205 X30 Y30
G0 F3600 X121.246 Y185.169
M204 S500
M205 X20 Y20
G1 F1800 X127.83 Y191.752 E9.46592
M204 S5000
M205 X30 Y30
G0 F3600 X127.83 Y192.318
M204 S500
M205 X20 Y20
G1 F1800 X120.681 Y185.169 E9.80218
M204 S5000
M205 X30 Y30
G0 F3600 X120.115 Y185.169
M204 S500
M205 X20 Y20
G1 F1800 X127.83 Y192.883 E10.16505
M204 S5000
M205 X30 Y30
G0 F3600 X127.83 Y193.449
M204 S500
M205 X20 Y20
G1 F1800 X119.549 Y185.169 E10.55454
M204 S5000
M205 X30 Y30
G0 F3600 X118.984 Y185.169
M204 S500
M205 X20 Y20
G1 F1800 X127.83 Y194.015 E10.97063
M204 S5000
M205 X30 Y30
G0 F3600 X127.83 Y194.58
M204 S500
M205 X20 Y20
G1 F1800 X118.418 Y185.169 E11.41332
M204 S5000
M205 X30 Y30
G0 F3600 X117.852 Y185.169
M204 S500
M205 X20 Y20
G1 F1800 X127.83 Y195.146 E11.88263
M204 S5000
M205 X30 Y30
G0 F3600 X127.83 Y195.712
M204 S500
M205 X20 Y20
G1 F1800 X117.287 Y185.169 E12.37854
M204 S5000
M205 X30 Y30
G0 F3600 X116.721 Y185.169
M204 S500
M205 X20 Y20
G1 F1800 X127.83 Y196.277 E12.90105
M204 S5000
M205 X30 Y30
G0 F3600 X127.83 Y196.843
M204 S500
M205 X20 Y20
G1 F1800 X116.155 Y185.169 E13.45018
M204 S5000
M205 X30 Y30
G0 F3600 X115.59 Y185.169
M204 S500
M205 X20 Y20
G1 F1800 X127.83 Y197.409 E14.02591
M204 S5000
M205 X30 Y30
G0 F3600 X127.83 Y197.975
M204 S500
M205 X20 Y20
G1 F1800 X115.024 Y185.169 E14.62827
M204 S5000
M205 X30 Y30
G0 F3600 X114.458 Y185.169
M204 S500
M205 X20 Y20
G1 F1800 X127.83 Y198.54 E15.25722
M204 S5000
M205 X30 Y30
G0 F3600 X127.83 Y199.106
M204 S500
M205 X20 Y20
G1 F1800 X113.892 Y185.169 E15.9128
M204 S5000
M205 X30 Y30
G0 F3600 X113.327 Y185.169
M204 S500
M205 X20 Y20
G1 F1800 X127.83 Y199.672 E16.59498
M204 S5000
M205 X30 Y30
G0 F3600 X127.83 Y200.237
M204 S500
M205 X20 Y20
G1 F1800 X112.761 Y185.169 E17.30375
M204 S5000
M205 X30 Y30
G0 F3600 X112.195 Y185.169
M204 S500
M205 X20 Y20
G1 F1800 X127.83 Y200.803 E18.03915
M204 S5000
M205 X30 Y30
G0 F3600 X127.83 Y201.369
M204 S500
M205 X20 Y20
G1 F1800 X111.63 Y185.169 E18.80115
M204 S5000
M205 X30 Y30
G0 F3600 X111.064 Y185.169
M204 S500
M205 X20 Y20
G1 F1800 X127.83 Y201.934 E19.58975
M204 S5000
M205 X30 Y30
G0 F3600 X127.83 Y202.5
M204 S500
M205 X20 Y20
G1 F1800 X110.498 Y185.169 E20.40497
M204 S5000
M205 X30 Y30
G0 F3600 X110.169 Y185.405
M204 S500
M205 X20 Y20
G1 F1800 X127.593 Y202.829 E21.22454
M204 S5000
M205 X30 Y30
G0 F3600 X127.027 Y202.829
M204 S500
M205 X20 Y20
G1 F1800 X110.169 Y185.971 E22.01749
M204 S5000
M205 X30 Y30
G0 F3600 X110.169 Y186.536
M204 S500
M205 X20 Y20
G1 F1800 X126.461 Y202.829 E22.78384
M204 S5000
M205 X30 Y30
G0 F3600 X125.896 Y202.829
M204 S500
M205 X20 Y20
G1 F1800 X110.169 Y187.102 E23.52359
M204 S5000
M205 X30 Y30
G0 F3600 X110.169 Y187.668
M204 S500
M205 X20 Y20
G1 F1800 X125.33 Y202.829 E24.23671
M204 S5000
M205 X30 Y30
G0 F3600 X124.764 Y202.829
M204 S500
M205 X20 Y20
G1 F1800 X110.169 Y188.233 E24.92324
M204 S5000
M205 X30 Y30
G0 F3600 X110.169 Y188.799
M204 S500
M205 X20 Y20
G1 F1800 X124.199 Y202.829 E25.58317
M204 S5000
M205 X30 Y30
G0 F3600 X123.633 Y202.829
M204 S500
M205 X20 Y20
G1 F1800 X110.169 Y189.365 E26.21648
M204 S5000
M205 X30 Y30
G0 F3600 X110.169 Y189.931
M204 S500
M205 X20 Y20
G1 F1800 X123.067 Y202.829 E26.82316
M204 S5000
M205 X30 Y30
G0 F3600 X122.502 Y202.829
M204 S500
M205 X20 Y20
G1 F1800 X110.169 Y190.496 E27.40326
M204 S5000
M205 X30 Y30
G0 F3600 X110.169 Y191.062
M204 S500
M205 X20 Y20
G1 F1800 X121.936 Y202.829 E27.95675
M204 S5000
M205 X30 Y30
G0 F3600 X121.37 Y202.829
M204 S500
M205 X20 Y20
G1 F1800 X110.169 Y191.628 E28.48361
M204 S5000
M205 X30 Y30
G0 F3600 X110.169 Y192.193
M204 S500
M205 X20 Y20
G1 F1800 X120.804 Y202.829 E28.98387
M204 S5000
M205 X30 Y30
G0 F3600 X120.239 Y202.829
M204 S500
M205 X20 Y20
G1 F1800 X110.169 Y192.759 E29.45753
M204 S5000
M205 X30 Y30
G0 F3600 X110.169 Y193.325
M204 S500
M205 X20 Y20
G1 F1800 X119.673 Y202.829 E29.90457
M204 S5000
M205 X30 Y30
G0 F3600 X119.107 Y202.829
M204 S500
M205 X20 Y20
G1 F1800 X110.169 Y193.89 E30.32501
M204 S5000
M205 X30 Y30
G0 F3600 X110.169 Y194.456
M204 S500
M205 X20 Y20
G1 F1800 X118.542 Y202.829 E30.71885
M204 S5000
M205 X30 Y30
G0 F3600 X117.976 Y202.829
M204 S500
M205 X20 Y20
G1 F1800 X110.169 Y195.022 E31.08607
M204 S5000
M205 X30 Y30
G0 F3600 X110.169 Y195.587
M204 S500
M205 X20 Y20
G1 F1800 X117.41 Y202.829 E31.42669
M204 S5000
M205 X30 Y30
G0 F3600 X116.845 Y202.829
M204 S500
M205 X20 Y20
G1 F1800 X110.169 Y196.153 E31.7407
M204 S5000
M205 X30 Y30
G0 F3600 X110.169 Y196.719
M204 S500
M205 X20 Y20
G1 F1800 X116.279 Y202.829 E32.0281
M204 S5000
M205 X30 Y30
G0 F3600 X115.713 Y202.829
M204 S500
M205 X20 Y20
G1 F1800 X110.169 Y197.284 E32.2889
M204 S5000
M205 X30 Y30
G0 F3600 X110.169 Y197.85
M204 S500
M205 X20 Y20
G1 F1800 X115.148 Y202.829 E32.52309
M204 S5000
M205 X30 Y30
G0 F3600 X114.582 Y202.829
M204 S500
M205 X20 Y20
G1 F1800 X110.169 Y198.416 E32.73067
M204 S5000
M205 X30 Y30
G0 F3600 X110.169 Y198.981
M204 S500
M205 X20 Y20
G1 F1800 X114.016 Y202.829 E32.91164
M204 S5000
M205 X30 Y30
G0 F3600 X113.451 Y202.829
M204 S500
M205 X20 Y20
G1 F1800 X110.169 Y199.547 E33.06602
M204 S5000
M205 X30 Y30
G0 F3600 X110.169 Y200.113
M204 S500
M205 X20 Y20
G1 F1800 X112.885 Y202.829 E33.19377
M204 S5000
M205 X30 Y30
G0 F3600 X112.319 Y202.829
M204 S500
M205 X20 Y20
G1 F1800 X110.169 Y200.679 E33.2949
M204 S5000
M205 X30 Y30
G0 F3600 X110.169 Y201.244
M204 S500
M205 X20 Y20
G1 F1800 X111.753 Y202.829 E33.36943
M204 S5000
M205 X30 Y30
G0 F3600 X111.188 Y202.829
M204 S500
M205 X20 Y20
G1 F1800 X110.169 Y201.81 E33.41736
M204 S5000
M205 X30 Y30
G0 F3600 X110.169 Y202.376
M204 S500
M205 X20 Y20
G1 F1800 X110.622 Y202.829 E33.43867
;TIME_ELAPSED:44.701814
G1 F2400 E28.43867
M204 S4000
; Ender 3 Custom End G-code
G4 ; Wait
M220 S100 ; Reset Speed factor override percentage to default (100%)
M221 S100 ; Reset Extrude factor override percentage to default (100%)
G91 ; Set coordinates to relative
G1 F1800 E-3 ; Retract filament 3 mm to prevent oozing
G1 F3000 Z20 ; Move Z Axis up 20 mm to allow filament ooze freely
G90 ; Set coordinates to absolute
G1 X0 Y235 F1000 ; Move Heat Bed to the front for easy print removal
M84 ; Disable stepper motors
; End of custom end GCode
M82 ;absolute extrusion mode
;End of Gcode
