;FLAVOR:Marlin
;TIME:6666
;Filament used: 0m
;Layer height: 0.15

;Generated with Cura_SteamEngine 4.0.0
M140 S60
M105
M190 S60
M104 S200
M105
M109 S200
M82 ;absolute extrusion mode
M140 S60
M105
M190 S60
M104 S200
M105
M109 S200
G28 ; Home all axes
G92 E0 ; Reset Extruder
G1 Z2.0 F3000 ; Move Z Axis up little to prevent scratching of Heat Bed
G1 F1000 E10 ; extrude filament 10 mm
G92 E0
G1 F2400 E-5
;LAYER_COUNT:2
;LAYER:0
M107
M204 S5000
M205 X30 Y30
;MESH:bottom-col.stl
G0 F3600 X53.4 Y203.4 Z0.2
M204 S500
M205 X20 Y20
;TYPE:WALL-INNER
G1 F2400 E0
G1 F1800 X34.6 Y203.4 E0.62529
G1 X34.6 Y184.6 E1.25058
G1 X53.4 Y184.6 E1.87587
G1 X53.4 Y203.4 E2.50116
M204 S5000
M205 X30 Y30
G0 F3600 X53.8 Y203.8
M204 S500
M205 X20 Y20
;TYPE:WALL-OUTER
G1 F1800 X34.2 Y203.8 E3.15306
G1 X34.2 Y184.2 E3.80496
G1 X53.8 Y184.2 E4.45686
G1 X53.8 Y203.8 E5.10876
M204 S5000
M205 X30 Y30
G0 F3600 X53.6 Y203.8
G0 X53.01 Y203.01
M204 S500
M205 X20 Y20
;TYPE:SKIN
G1 F1800 X34.99 Y203.01 E5.7081
G1 X34.99 Y184.99 E6.30745
G1 X53.01 Y184.99 E6.9068
G1 X53.01 Y203.01 E7.50615
M204 S5000
M205 X30 Y30
G0 F3600 X52.83 Y185.766
M204 S500
M205 X20 Y20
G1 F1800 X52.233 Y185.169 E7.53423
M204 S5000
M205 X30 Y30
G0 F3600 X51.667 Y185.169
M204 S500
M205 X20 Y20
G1 F1800 X52.83 Y186.331 E7.58891
M204 S5000
M205 X30 Y30
G0 F3600 X52.83 Y186.897
M204 S500
M205 X20 Y20
G1 F1800 X51.101 Y185.169 E7.67021
M204 S5000
M205 X30 Y30
G0 F3600 X50.536 Y185.169
M204 S500
M205 X20 Y20
G1 F1800 X52.83 Y187.463 E7.77811
M204 S5000
M205 X30 Y30
G0 F3600 X52.83 Y188.028
M204 S500
M205 X20 Y20
G1 F1800 X49.97 Y185.169 E7.91262
M204 S5000
M205 X30 Y30
G0 F3600 X49.404 Y185.169
M204 S500
M205 X20 Y20
G1 F1800 X52.83 Y188.594 E8.07374
M204 S5000
M205 X30 Y30
G0 F3600 X52.83 Y189.16
M204 S500
M205 X20 Y20
G1 F1800 X48.839 Y185.169 E8.26147
M204 S5000
M205 X30 Y30
G0 F3600 X48.273 Y185.169
M204 S500
M205 X20 Y20
G1 F1800 X52.83 Y189.725 E8.47579
M204 S5000
M205 X30 Y30
G0 F3600 X52.83 Y190.291
M204 S500
M205 X20 Y20
G1 F1800 X47.707 Y185.169 E8.71674
M204 S5000
M205 X30 Y30
G0 F3600 X47.142 Y185.169
M204 S500
M205 X20 Y20
G1 F1800 X52.83 Y190.857 E8.98428
M204 S5000
M205 X30 Y30
G0 F3600 X52.83 Y191.422
M204 S500
M205 X20 Y20
G1 F1800 X46.576 Y185.169 E9.27843
M204 S5000
M205 X30 Y30
G0 F3600 X46.01 Y185.169
M204 S500
M205 X20 Y20
G1 F1800 X52.83 Y191.988 E9.5992
M204 S5000
M205 X30 Y30
G0 F3600 X52.83 Y192.554
M204 S500
M205 X20 Y20
G1 F1800 X45.445 Y185.169 E9.94656
M204 S5000
M205 X30 Y30
G0 F3600 X44.879 Y185.169
M204 S500
M205 X20 Y20
G1 F1800 X52.83 Y193.12 E10.32056
M204 S5000
M205 X30 Y30
G0 F3600 X52.83 Y193.685
M204 S500
M205 X20 Y20
G1 F1800 X44.313 Y185.169 E10.72115
M204 S5000
M205 X30 Y30
G0 F3600 X43.747 Y185.169
M204 S500
M205 X20 Y20
G1 F1800 X52.83 Y194.251 E11.14836
M204 S5000
M205 X30 Y30
G0 F3600 X52.83 Y194.817
M204 S500
M205 X20 Y20
G1 F1800 X43.182 Y185.169 E11.60217
M204 S5000
M205 X30 Y30
G0 F3600 X42.616 Y185.169
M204 S500
M205 X20 Y20
G1 F1800 X52.83 Y195.382 E12.08258
M204 S5000
M205 X30 Y30
G0 F3600 X52.83 Y195.948
M204 S500
M205 X20 Y20
G1 F1800 X42.05 Y185.169 E12.58962
M204 S5000
M205 X30 Y30
G0 F3600 X41.485 Y185.169
M204 S500
M205 X20 Y20
G1 F1800 X52.83 Y196.514 E13.12325
M204 S5000
M205 X30 Y30
G0 F3600 X52.83 Y197.079
M204 S500
M205 X20 Y20
G1 F1800 X40.919 Y185.169 E13.68348
M204 S5000
M205 X30 Y30
G0 F3600 X40.353 Y185.169
M204 S500
M205 X20 Y20
G1 F1800 X52.83 Y197.645 E14.27034
M204 S5000
M205 X30 Y30
G0 F3600 X52.83 Y198.211
M204 S500
M205 X20 Y20
G1 F1800 X39.788 Y185.169 E14.8838
M204 S5000
M205 X30 Y30
G0 F3600 X39.222 Y185.169
M204 S500
M205 X20 Y20
G1 F1800 X52.83 Y198.776 E15.52385
M204 S5000
M205 X30 Y30
G0 F3600 X52.83 Y199.342
M204 S500
M205 X20 Y20
G1 F1800 X38.656 Y185.169 E16.19053
M204 S5000
M205 X30 Y30
G0 F3600 X38.091 Y185.169
M204 S500
M205 X20 Y20
G1 F1800 X52.83 Y199.908 E16.88381
M204 S5000
M205 X30 Y30
G0 F3600 X52.83 Y200.473
M204 S500
M205 X20 Y20
G1 F1800 X37.525 Y185.169 E17.60368
M204 S5000
M205 X30 Y30
G0 F3600 X36.959 Y185.169
M204 S500
M205 X20 Y20
G1 F1800 X52.83 Y201.039 E18.35018
M204 S5000
M205 X30 Y30
G0 F3600 X52.83 Y201.605
M204 S500
M205 X20 Y20
G1 F1800 X36.394 Y185.169 E19.12328
M204 S5000
M205 X30 Y30
G0 F3600 X35.828 Y185.169
M204 S500
M205 X20 Y20
G1 F1800 X52.83 Y202.171 E19.923
M204 S5000
M205 X30 Y30
G0 F3600 X52.83 Y202.736
M204 S500
M205 X20 Y20
G1 F1800 X35.262 Y185.169 E20.74933
M204 S5000
M205 X30 Y30
G0 F3600 X35.169 Y185.641
M204 S500
M205 X20 Y20
G1 F1800 X52.357 Y202.829 E21.5578
M204 S5000
M205 X30 Y30
G0 F3600 X51.791 Y202.829
M204 S500
M205 X20 Y20
G1 F1800 X35.169 Y186.207 E22.33964
M204 S5000
M205 X30 Y30
G0 F3600 X35.169 Y186.773
M204 S500
M205 X20 Y20
G1 F1800 X51.225 Y202.829 E23.09487
M204 S5000
M205 X30 Y30
G0 F3600 X50.659 Y202.829
M204 S500
M205 X20 Y20
G1 F1800 X35.169 Y187.338 E23.82349
M204 S5000
M205 X30 Y30
G0 F3600 X35.169 Y187.904
M204 S500
M205 X20 Y20
G1 F1800 X50.094 Y202.829 E24.52552
M204 S5000
M205 X30 Y30
G0 F3600 X49.528 Y202.829
M204 S500
M205 X20 Y20
G1 F1800 X35.169 Y188.47 E25.20092
M204 S5000
M205 X30 Y30
G0 F3600 X35.169 Y189.035
M204 S500
M205 X20 Y20
G1 F1800 X48.962 Y202.829 E25.84973
M204 S5000
M205 X30 Y30
G0 F3600 X48.397 Y202.829
M204 S500
M205 X20 Y20
G1 F1800 X35.169 Y189.601 E26.47193
M204 S5000
M205 X30 Y30
G0 F3600 X35.169 Y190.167
M204 S500
M205 X20 Y20
G1 F1800 X47.831 Y202.829 E27.06751
M204 S5000
M205 X30 Y30
G0 F3600 X47.265 Y202.829
M204 S500
M205 X20 Y20
G1 F1800 X35.169 Y190.732 E27.6365
M204 S5000
M205 X30 Y30
G0 F3600 X35.169 Y191.298
M204 S500
M205 X20 Y20
G1 F1800 X46.7 Y202.829 E28.17888
M204 S5000
M205 X30 Y30
G0 F3600 X46.134 Y202.829
M204 S500
M205 X20 Y20
G1 F1800 X35.169 Y191.864 E28.69464
M204 S5000
M205 X30 Y30
G0 F3600 X35.169 Y192.429
M204 S500
M205 X20 Y20
G1 F1800 X45.568 Y202.829 E29.1838
M204 S5000
M205 X30 Y30
G0 F3600 X45.003 Y202.829
M204 S500
M205 X20 Y20
G1 F1800 X35.169 Y192.995 E29.64636
M204 S5000
M205 X30 Y30
G0 F3600 X35.169 Y193.561
M204 S500
M205 X20 Y20
G1 F1800 X44.437 Y202.829 E30.0823
M204 S5000
M205 X30 Y30
G0 F3600 X43.871 Y202.829
M204 S500
M205 X20 Y20
G1 F1800 X35.169 Y194.126 E30.49164
M204 S5000
M205 X30 Y30
G0 F3600 X35.169 Y194.692
M204 S500
M205 X20 Y20
G1 F1800 X43.306 Y202.829 E30.87438
M204 S5000
M205 X30 Y30
G0 F3600 X42.74 Y202.829
M204 S500
M205 X20 Y20
G1 F1800 X35.169 Y195.258 E31.23049
M204 S5000
M205 X30 Y30
G0 F3600 X35.169 Y195.824
M204 S500
M205 X20 Y20
G1 F1800 X42.174 Y202.829 E31.55999
M204 S5000
M205 X30 Y30
G0 F3600 X41.608 Y202.829
M204 S500
M205 X20 Y20
G1 F1800 X35.169 Y196.389 E31.86288
M204 S5000
M205 X30 Y30
G0 F3600 X35.169 Y196.955
M204 S500
M205 X20 Y20
G1 F1800 X41.043 Y202.829 E32.13918
M204 S5000
M205 X30 Y30
G0 F3600 X40.477 Y202.829
M204 S500
M205 X20 Y20
G1 F1800 X35.169 Y197.521 E32.38885
M204 S5000
M205 X30 Y30
G0 F3600 X35.169 Y198.086
M204 S500
M205 X20 Y20
G1 F1800 X39.911 Y202.829 E32.61192
M204 S5000
M205 X30 Y30
G0 F3600 X39.346 Y202.829
M204 S500
M205 X20 Y20
G1 F1800 X35.169 Y198.652 E32.8084
M204 S5000
M205 X30 Y30
G0 F3600 X35.169 Y199.218
M204 S500
M205 X20 Y20
G1 F1800 X38.78 Y202.829 E32.97825
M204 S5000
M205 X30 Y30
G0 F3600 X38.214 Y202.829
M204 S500
M205 X20 Y20
G1 F1800 X35.169 Y199.783 E33.1215
M204 S5000
M205 X30 Y30
G0 F3600 X35.169 Y200.349
M204 S500
M205 X20 Y20
G1 F1800 X37.649 Y202.829 E33.23815
M204 S5000
M205 X30 Y30
G0 F3600 X37.083 Y202.829
M204 S500
M205 X20 Y20
G1 F1800 X35.169 Y200.915 E33.32818
M204 S5000
M205 X30 Y30
G0 F3600 X35.169 Y201.48
M204 S500
M205 X20 Y20
G1 F1800 X36.517 Y202.829 E33.39161
M204 S5000
M205 X30 Y30
G0 F3600 X35.952 Y202.829
M204 S500
M205 X20 Y20
G1 F1800 X35.169 Y202.046 E33.42844
M204 S5000
M205 X30 Y30
G0 F3600 X35.169 Y202.612
M204 S500
M205 X20 Y20
G1 F1800 X35.386 Y202.829 E33.43864
M204 S5000
M205 X30 Y30
G1 F2400 E28.43864
G0 F3600 X53.38 Y203.33
G0 X54.665 Y203.33
G0 X108.335 Y203.33
G0 X109.62 Y203.33
G0 X128.33 Y203.33
G0 X128.4 Y203.4
M204 S500
M205 X20 Y20
;TYPE:WALL-INNER
G1 F2400 E33.43864
G1 F1800 X109.6 Y203.4 E34.06393
G1 X109.6 Y184.6 E34.68922
G1 X128.4 Y184.6 E35.31452
G1 X128.4 Y203.4 E35.93981
M204 S5000
M205 X30 Y30
G0 F3600 X128.8 Y203.8
M204 S500
M205 X20 Y20
;TYPE:WALL-OUTER
G1 F1800 X109.2 Y203.8 E36.5917
G1 X109.2 Y184.2 E37.2436
G1 X128.8 Y184.2 E37.8955
G1 X128.8 Y203.8 E38.5474
M204 S5000
M205 X30 Y30
G0 F3600 X128.6 Y203.8
G0 X128.01 Y203.01
M204 S500
M205 X20 Y20
;TYPE:SKIN
G1 F1800 X109.99 Y203.01 E39.14675
G1 X109.99 Y184.99 E39.7461
G1 X128.01 Y184.99 E40.34544
G1 X128.01 Y203.01 E40.94479
M204 S5000
M205 X30 Y30
G0 F3600 X127.83 Y185.529
M204 S500
M205 X20 Y20
G1 F1800 X127.469 Y185.169 E40.96175
M204 S5000
M205 X30 Y30
G0 F3600 X126.903 Y185.169
M204 S500
M205 X20 Y20
G1 F1800 X127.83 Y186.095 E41.00533
M204 S5000
M205 X30 Y30
G0 F3600 X127.83 Y186.661
M204 S500
M205 X20 Y20
G1 F1800 X126.338 Y185.169 E41.07551
M204 S5000
M205 X30 Y30
G0 F3600 X125.772 Y185.169
M204 S500
M205 X20 Y20
G1 F1800 X127.83 Y187.227 E41.17231
M204 S5000
M205 X30 Y30
G0 F3600 X127.83 Y187.792
M204 S500
M205 X20 Y20
G1 F1800 X125.206 Y185.169 E41.29571
M204 S5000
M205 X30 Y30
G0 F3600 X124.641 Y185.169
M204 S500
M205 X20 Y20
G1 F1800 X127.83 Y188.358 E41.44571
M204 S5000
M205 X30 Y30
G0 F3600 X127.83 Y188.924
M204 S500
M205 X20 Y20
G1 F1800 X124.075 Y185.169 E41.62233
M204 S5000
M205 X30 Y30
G0 F3600 X123.509 Y185.169
M204 S500
M205 X20 Y20
G1 F1800 X127.83 Y189.489 E41.82556
M204 S5000
M205 X30 Y30
G0 F3600 X127.83 Y190.055
M204 S500
M205 X20 Y20
G1 F1800 X122.943 Y185.169 E42.0554
M204 S5000
M205 X30 Y30
G0 F3600 X122.378 Y185.169
M204 S500
M205 X20 Y20
G1 F1800 X127.83 Y190.621 E42.31185
M204 S5000
M205 X30 Y30
G0 F3600 X127.83 Y191.186
M204 S500
M205 X20 Y20
G1 F1800 X121.812 Y185.169 E42.59489
M204 S5000
M205 X30 Y30
G0 F3600 X121.246 Y185.169
M204 S500
M205 X20 Y20
G1 F1800 X127.83 Y191.752 E42.90456
M204 S5000
M205 X30 Y30
G0 F3600 X127.83 Y192.318
M204 S500
M205 X20 Y20
G1 F1800 X120.681 Y185.169 E43.24083
M204 S5000
M205 X30 Y30
G0 F3600 X120.115 Y185.169
M204 S500
M205 X20 Y20
G1 F1800 X127.83 Y192.883 E43.60369
M204 S5000
M205 X30 Y30
G0 F3600 X127.83 Y193.449
M204 S500
M205 X20 Y20
G1 F1800 X119.549 Y185.169 E43.99318
M204 S5000
M205 X30 Y30
G0 F3600 X118.984 Y185.169
M204 S500
M205 X20 Y20
G1 F1800 X127.83 Y194.015 E44.40927
M204 S5000
M205 X30 Y30
G0 F3600 X127.83 Y194.58
M204 S500
M205 X20 Y20
G1 F1800 X118.418 Y185.169 E44.85196
M204 S5000
M205 X30 Y30
G0 F3600 X117.852 Y185.169
M204 S500
M205 X20 Y20
G1 F1800 X127.83 Y195.146 E45.32127
M204 S5000
M205 X30 Y30
G0 F3600 X127.83 Y195.712
M204 S500
M205 X20 Y20
G1 F1800 X117.287 Y185.169 E45.81718
M204 S5000
M205 X30 Y30
G0 F3600 X116.721 Y185.169
M204 S500
M205 X20 Y20
G1 F1800 X127.83 Y196.277 E46.33969
M204 S5000
M205 X30 Y30
G0 F3600 X127.83 Y196.843
M204 S500
M205 X20 Y20
G1 F1800 X116.155 Y185.169 E46.88883
M204 S5000
M205 X30 Y30
G0 F3600 X115.59 Y185.169
M204 S500
M205 X20 Y20
G1 F1800 X127.83 Y197.409 E47.46456
M204 S5000
M205 X30 Y30
G0 F3600 X127.83 Y197.975
M204 S500
M205 X20 Y20
G1 F1800 X115.024 Y185.169 E48.06691
M204 S5000
M205 X30 Y30
G0 F3600 X114.458 Y185.169
M204 S500
M205 X20 Y20
G1 F1800 X127.83 Y198.54 E48.69587
M204 S5000
M205 X30 Y30
G0 F3600 X127.83 Y199.106
M204 S500
M205 X20 Y20
G1 F1800 X113.892 Y185.169 E49.35144
M204 S5000
M205 X30 Y30
G0 F3600 X113.327 Y185.169
M204 S500
M205 X20 Y20
G1 F1800 X127.83 Y199.672 E50.03362
M204 S5000
M205 X30 Y30
G0 F3600 X127.83 Y200.237
M204 S500
M205 X20 Y20
G1 F1800 X112.761 Y185.169 E50.7424
M204 S5000
M205 X30 Y30
G0 F3600 X112.195 Y185.169
M204 S500
M205 X20 Y20
G1 F1800 X127.83 Y200.803 E51.4778
M204 S5000
M205 X30 Y30
G0 F3600 X127.83 Y201.369
M204 S500
M205 X20 Y20
G1 F1800 X111.63 Y185.169 E52.23979
M204 S5000
M205 X30 Y30
G0 F3600 X111.064 Y185.169
M204 S500
M205 X20 Y20
G1 F1800 X127.83 Y201.934 E53.02839
M204 S5000
M205 X30 Y30
G0 F3600 X127.83 Y202.5
M204 S500
M205 X20 Y20
G1 F1800 X110.498 Y185.169 E53.84361
M204 S5000
M205 X30 Y30
G0 F3600 X110.169 Y185.405
M204 S500
M205 X20 Y20
G1 F1800 X127.593 Y202.829 E54.66318
M204 S5000
M205 X30 Y30
G0 F3600 X127.027 Y202.829
M204 S500
M205 X20 Y20
G1 F1800 X110.169 Y185.971 E55.45613
M204 S5000
M205 X30 Y30
G0 F3600 X110.169 Y186.536
M204 S500
M205 X20 Y20
G1 F1800 X126.461 Y202.829 E56.22248
M204 S5000
M205 X30 Y30
G0 F3600 X125.896 Y202.829
M204 S500
M205 X20 Y20
G1 F1800 X110.169 Y187.102 E56.96223
M204 S5000
M205 X30 Y30
G0 F3600 X110.169 Y187.668
M204 S500
M205 X20 Y20
G1 F1800 X125.33 Y202.829 E57.67536
M204 S5000
M205 X30 Y30
G0 F3600 X124.764 Y202.829
M204 S500
M205 X20 Y20
G1 F1800 X110.169 Y188.233 E58.36189
M204 S5000
M205 X30 Y30
G0 F3600 X110.169 Y188.799
M204 S500
M205 X20 Y20
G1 F1800 X124.199 Y202.829 E59.02181
M204 S5000
M205 X30 Y30
G0 F3600 X123.633 Y202.829
M204 S500
M205 X20 Y20
G1 F1800 X110.169 Y189.365 E59.65512
M204 S5000
M205 X30 Y30
G0 F3600 X110.169 Y189.931
M204 S500
M205 X20 Y20
G1 F1800 X123.067 Y202.829 E60.2618
M204 S5000
M205 X30 Y30
G0 F3600 X122.502 Y202.829
M204 S500
M205 X20 Y20
G1 F1800 X110.169 Y190.496 E60.84191
M204 S5000
M205 X30 Y30
G0 F3600 X110.169 Y191.062
M204 S500
M205 X20 Y20
G1 F1800 X121.936 Y202.829 E61.39539
M204 S5000
M205 X30 Y30
G0 F3600 X121.37 Y202.829
M204 S500
M205 X20 Y20
G1 F1800 X110.169 Y191.628 E61.92225
M204 S5000
M205 X30 Y30
G0 F3600 X110.169 Y192.193
M204 S500
M205 X20 Y20
G1 F1800 X120.804 Y202.829 E62.42251
M204 S5000
M205 X30 Y30
G0 F3600 X120.239 Y202.829
M204 S500
M205 X20 Y20
G1 F1800 X110.169 Y192.759 E62.89618
M204 S5000
M205 X30 Y30
G0 F3600 X110.169 Y193.325
M204 S500
M205 X20 Y20
G1 F1800 X119.673 Y202.829 E63.34321
M204 S5000
M205 X30 Y30
G0 F3600 X119.107 Y202.829
M204 S500
M205 X20 Y20
G1 F1800 X110.169 Y193.89 E63.76365
M204 S5000
M205 X30 Y30
G0 F3600 X110.169 Y194.456
M204 S500
M205 X20 Y20
G1 F1800 X118.542 Y202.829 E64.15749
M204 S5000
M205 X30 Y30
G0 F3600 X117.976 Y202.829
M204 S500
M205 X20 Y20
G1 F1800 X110.169 Y195.022 E64.52471
M204 S5000
M205 X30 Y30
G0 F3600 X110.169 Y195.587
M204 S500
M205 X20 Y20
G1 F1800 X117.41 Y202.829 E64.86533
M204 S5000
M205 X30 Y30
G0 F3600 X116.845 Y202.829
M204 S500
M205 X20 Y20
G1 F1800 X110.169 Y196.153 E65.17935
M204 S5000
M205 X30 Y30
G0 F3600 X110.169 Y196.719
M204 S500
M205 X20 Y20
G1 F1800 X116.279 Y202.829 E65.46674
M204 S5000
M205 X30 Y30
G0 F3600 X115.713 Y202.829
M204 S500
M205 X20 Y20
G1 F1800 X110.169 Y197.284 E65.72754
M204 S5000
M205 X30 Y30
G0 F3600 X110.169 Y197.85
M204 S500
M205 X20 Y20
G1 F1800 X115.148 Y202.829 E65.96174
M204 S5000
M205 X30 Y30
G0 F3600 X114.582 Y202.829
M204 S500
M205 X20 Y20
G1 F1800 X110.169 Y198.416 E66.16931
M204 S5000
M205 X30 Y30
G0 F3600 X110.169 Y198.981
M204 S500
M205 X20 Y20
G1 F1800 X114.016 Y202.829 E66.35029
M204 S5000
M205 X30 Y30
G0 F3600 X113.451 Y202.829
M204 S500
M205 X20 Y20
G1 F1800 X110.169 Y199.547 E66.50466
M204 S5000
M205 X30 Y30
G0 F3600 X110.169 Y200.113
M204 S500
M205 X20 Y20
G1 F1800 X112.885 Y202.829 E66.63241
M204 S5000
M205 X30 Y30
G0 F3600 X112.319 Y202.829
M204 S500
M205 X20 Y20
G1 F1800 X110.169 Y200.679 E66.73354
M204 S5000
M205 X30 Y30
G0 F3600 X110.169 Y201.244
M204 S500
M205 X20 Y20
G1 F1800 X111.753 Y202.829 E66.80807
M204 S5000
M205 X30 Y30
G0 F3600 X111.188 Y202.829
M204 S500
M205 X20 Y20
G1 F1800 X110.169 Y201.81 E66.856
M204 S5000
M205 X30 Y30
G0 F3600 X110.169 Y202.376
M204 S500
M205 X20 Y20
G1 F1800 X110.622 Y202.829 E66.87731
M204 S5000
M205 X30 Y30
G1 F2400 E61.87731
G0 F3600 X128.38 Y203.33
G0 X129.665 Y203.33
G0 X183.335 Y203.33
G0 X184.62 Y203.33
G0 X203.33 Y203.33
G0 X203.4 Y203.4
M204 S500
M205 X20 Y20
;TYPE:WALL-INNER
G1 F2400 E66.87731
G1 F1800 X184.6 Y203.4 E67.5026
G1 X184.6 Y184.6 E68.12789
G1 X203.4 Y184.6 E68.75318
G1 X203.4 Y203.4 E69.37847
M204 S5000
M205 X30 Y30
G0 F3600 X203.8 Y203.8
M204 S500
M205 X20 Y20
;TYPE:WALL-OUTER
G1 F1800 X184.2 Y203.8 E70.03037
G1 X184.2 Y184.2 E70.68227
G1 X203.8 Y184.2 E71.33417
G1 X203.8 Y203.8 E71.98607
M204 S5000
M205 X30 Y30
G0 F3600 X203.6 Y203.8
G0 X203.01 Y203.01
M204 S500
M205 X20 Y20
;TYPE:SKIN
