;FLAVOR:Marlin
;TIME:6666
;Filament used: 0m
;Layer height: 0.15

;Generated with Cura_SteamEngine 4.0.0
M140 S60
M105
M190 S60
M104 S200
M105
M109 S200
M82 ;absolute extrusion mode
M140 S60
M105
M190 S60
M104 S200
M105
M109 S200
G28 ; Home all axes
G92 E0 ; Reset Extruder
G1 Z2.0 F3000 ; Move Z Axis up little to prevent scratching of Heat Bed
G1 F1000 E10 ; extrude filament 10 mm
G92 E0
G1 F2400 E-5
;LAYER_COUNT:2
;LAYER:0
M107
M204 S5000
M205 X30 Y30
;MESH:middle-left.stl
G0 F3600 X53.4 Y128.4 Z0.2
M204 S500
M205 X20 Y20
;TYPE:WALL-INNER
G1 F2400 E0
G1 F1800 X34.6 Y128.4 E0.62529
G1 X34.6 Y109.6 E1.25058
G1 X53.4 Y109.6 E1.87587
G1 X53.4 Y128.4 E2.50116
M204 S5000
M205 X30 Y30
G0 F3600 X53.8 Y128.8
M204 S500
M205 X20 Y20
;TYPE:WALL-OUTER
G1 F1800 X34.2 Y128.8 E3.15306
G1 X34.2 Y109.2 E3.80496
G1 X53.8 Y109.2 E4.45686
G1 X53.8 Y128.8 E5.10876
M204 S5000
M205 X30 Y30
G0 F3600 X53.6 Y128.8
G0 X53.01 Y128.01
M204 S500
M205 X20 Y20
;TYPE:SKIN
G1 F1800 X34.99 Y128.01 E5.7081
G1 X34.99 Y109.99 E6.30745
G1 X53.01 Y109.99 E6.9068
G1 X53.01 Y128.01 E7.50615
M204 S5000
M205 X30 Y30
G0 F3600 X52.83 Y110.529
M204 S500
M205 X20 Y20
G1 F1800 X52.469 Y110.169 E7.5231
M204 S5000
M205 X30 Y30
G0 F3600 X51.903 Y110.169
M204 S500
M205 X20 Y20
G1 F1800 X52.83 Y111.095 E7.56668
M204 S5000
M205 X30 Y30
G0 F3600 X52.83 Y111.661
M204 S500
M205 X20 Y20
G1 F1800 X51.338 Y110.169 E7.63686
M204 S5000
M205 X30 Y30
G0 F3600 X50.772 Y110.169
M204 S500
M205 X20 Y20
G1 F1800 X52.83 Y112.227 E7.73366
M204 S5000
M205 X30 Y30
G0 F3600 X52.83 Y112.792
M204 S500
M205 X20 Y20
G1 F1800 X50.206 Y110.169 E7.85707
M204 S5000
M205 X30 Y30
G0 F3600 X49.641 Y110.169
M204 S500
M205 X20 Y20
G1 F1800 X52.83 Y113.358 E8.00707
M204 S5000
M205 X30 Y30
G0 F3600 X52.83 Y113.924
M204 S500
M205 X20 Y20
G1 F1800 X49.075 Y110.169 E8.18369
M204 S5000
M205 X30 Y30
G0 F3600 X48.509 Y110.169
M204 S500
M205 X20 Y20
G1 F1800 X52.83 Y114.489 E8.38691
M204 S5000
M205 X30 Y30
G0 F3600 X52.83 Y115.055
M204 S500
M205 X20 Y20
G1 F1800 X47.943 Y110.169 E8.61676
M204 S5000
M205 X30 Y30
G0 F3600 X47.378 Y110.169
M204 S500
M205 X20 Y20
G1 F1800 X52.83 Y115.621 E8.87321
M204 S5000
M205 X30 Y30
G0 F3600 X52.83 Y116.186
M204 S500
M205 X20 Y20
G1 F1800 X46.812 Y110.169 E9.15625
M204 S5000
M205 X30 Y30
G0 F3600 X46.246 Y110.169
M204 S500
M205 X20 Y20
G1 F1800 X52.83 Y116.752 E9.46592
M204 S5000
M205 X30 Y30
G0 F3600 X52.83 Y117.318
M204 S500
M205 X20 Y20
G1 F1800 X45.681 Y110.169 E9.80218
M204 S5000
M205 X30 Y30
G0 F3600 X45.115 Y110.169
M204 S500
M205 X20 Y20
G1 F1800 X52.83 Y117.883 E10.16505
M204 S5000
M205 X30 Y30
G0 F3600 X52.83 Y118.449
M204 S500
M205 X20 Y20
G1 F1800 X44.549 Y110.169 E10.55454
M204 S5000
M205 X30 Y30
G0 F3600 X43.984 Y110.169
M204 S500
M205 X20 Y20
G1 F1800 X52.83 Y119.015 E10.97063
M204 S5000
M205 X30 Y30
G0 F3600 X52.83 Y119.58
M204 S500
M205 X20 Y20
G1 F1800 X43.418 Y110.169 E11.41332
M204 S5000
M205 X30 Y30
G0 F3600 X42.852 Y110.169
M204 S500
M205 X20 Y20
G1 F1800 X52.83 Y120.146 E11.88263
M204 S5000
M205 X30 Y30
G0 F3600 X52.83 Y120.712
M204 S500
M205 X20 Y20
G1 F1800 X42.287 Y110.169 E12.37854
M204 S5000
M205 X30 Y30
G0 F3600 X41.721 Y110.169
M204 S500
M205 X20 Y20
G1 F1800 X52.83 Y121.278 E12.90107
M204 S5000
M205 X30 Y30
G0 F3600 X52.83 Y121.843
M204 S500
M205 X20 Y20
G1 F1800 X41.155 Y110.169 E13.4502
M204 S5000
M205 X30 Y30
G0 F3600 X40.59 Y110.169
M204 S500
M205 X20 Y20
G1 F1800 X52.83 Y122.409 E14.02594
M204 S5000
M205 X30 Y30
G0 F3600 X52.83 Y122.975
M204 S500
M205 X20 Y20
G1 F1800 X40.024 Y110.169 E14.62829
M204 S5000
M205 X30 Y30
G0 F3600 X39.458 Y110.169
M204 S500
M205 X20 Y20
G1 F1800 X52.83 Y123.54 E15.25725
M204 S5000
M205 X30 Y30
G0 F3600 X52.83 Y124.106
M204 S500
M205 X20 Y20
G1 F1800 X38.892 Y110.169 E15.91282
M204 S5000
M205 X30 Y30
G0 F3600 X38.327 Y110.169
M204 S500
M205 X20 Y20
G1 F1800 X52.83 Y124.672 E16.595
M204 S5000
M205 X30 Y30
G0 F3600 X52.83 Y125.237
M204 S500
M205 X20 Y20
G1 F1800 X37.761 Y110.169 E17.30378
M204 S5000
M205 X30 Y30
G0 F3600 X37.195 Y110.169
M204 S500
M205 X20 Y20
G1 F1800 X52.83 Y125.803 E18.03917
M204 S5000
M205 X30 Y30
G0 F3600 X52.83 Y126.369
M204 S500
M205 X20 Y20
G1 F1800 X36.63 Y110.169 E18.80117
M204 S5000
M205 X30 Y30
G0 F3600 X36.064 Y110.169
M204 S500
M205 X20 Y20
G1 F1800 X52.83 Y126.934 E19.58977
M204 S5000
M205 X30 Y30
G0 F3600 X52.83 Y127.5
M204 S500
M205 X20 Y20
G1 F1800 X35.498 Y110.169 E20.40499
M204 S5000
M205 X30 Y30
G0 F3600 X35.169 Y110.405
M204 S500
M205 X20 Y20
G1 F1800 X52.593 Y127.829 E21.22456
M204 S5000
M205 X30 Y30
G0 F3600 X52.027 Y127.829
M204 S500
M205 X20 Y20
G1 F1800 X35.169 Y110.971 E22.01751
M204 S5000
M205 X30 Y30
G0 F3600 X35.169 Y111.536
M204 S500
M205 X20 Y20
G1 F1800 X51.461 Y127.829 E22.78386
M204 S5000
M205 X30 Y30
G0 F3600 X50.896 Y127.829
M204 S500
M205 X20 Y20
G1 F1800 X35.169 Y112.102 E23.52361
M204 S5000
M205 X30 Y30
G0 F3600 X35.169 Y112.668
M204 S500
M205 X20 Y20
G1 F1800 X50.33 Y127.829 E24.23674
M204 S5000
M205 X30 Y30
G0 F3600 X49.764 Y127.829
M204 S500
M205 X20 Y20
G1 F1800 X35.169 Y113.233 E24.92327
M204 S5000
M205 X30 Y30
G0 F3600 X35.169 Y113.799
M204 S500
M205 X20 Y20
G1 F1800 X49.199 Y127.829 E25.58319
M204 S5000
M205 X30 Y30
G0 F3600 X48.633 Y127.829
M204 S500
M205 X20 Y20
G1 F1800 X35.169 Y114.365 E26.2165
M204 S5000
M205 X30 Y30
G0 F3600 X35.169 Y114.931
M204 S500
M205 X20 Y20
G1 F1800 X48.067 Y127.829 E26.82318
M204 S5000
M205 X30 Y30
G0 F3600 X47.502 Y127.829
M204 S500
M205 X20 Y20
G1 F1800 X35.169 Y115.496 E27.40329
M204 S5000
M205 X30 Y30
G0 F3600 X35.169 Y116.062
M204 S500
M205 X20 Y20
G1 F1800 X46.936 Y127.829 E27.95677
M204 S5000
M205 X30 Y30
G0 F3600 X46.37 Y127.829
M204 S500
M205 X20 Y20
G1 F1800 X35.169 Y116.628 E28.48363
M204 S5000
M205 X30 Y30
G0 F3600 X35.169 Y117.193
M204 S500
M205 X20 Y20
G1 F1800 X45.804 Y127.829 E28.98389
M204 S5000
M205 X30 Y30
G0 F3600 X45.239 Y127.829
M204 S500
M205 X20 Y20
G1 F1800 X35.169 Y117.759 E29.45756
M204 S5000
M205 X30 Y30
G0 F3600 X35.169 Y118.325
M204 S500
M205 X20 Y20
G1 F1800 X44.673 Y127.829 E29.90459
M204 S5000
M205 X30 Y30
G0 F3600 X44.107 Y127.829
M204 S500
M205 X20 Y20
G1 F1800 X35.169 Y118.89 E30.32503
M204 S5000
M205 X30 Y30
G0 F3600 X35.169 Y119.456
M204 S500
M205 X20 Y20
G1 F1800 X43.542 Y127.829 E30.71887
M204 S5000
M205 X30 Y30
G0 F3600 X42.976 Y127.829
M204 S500
M205 X20 Y20
G1 F1800 X35.169 Y120.022 E31.08609
M204 S5000
M205 X30 Y30
G0 F3600 X35.169 Y120.587
M204 S500
M205 X20 Y20
G1 F1800 X42.41 Y127.829 E31.42671
M204 S5000
M205 X30 Y30
G0 F3600 X41.845 Y127.829
M204 S500
M205 X20 Y20
G1 F1800 X35.169 Y121.153 E31.74073
M204 S5000
M205 X30 Y30
G0 F3600 X35.169 Y121.719
M204 S500
M205 X20 Y20
G1 F1800 X41.279 Y127.829 E32.02812
M204 S5000
M205 X30 Y30
G0 F3600 X40.713 Y127.829
M204 S500
M205 X20 Y20
G1 F1800 X35.169 Y122.284 E32.28892
M204 S5000
M205 X30 Y30
G0 F3600 X35.169 Y122.85
M204 S500
M205 X20 Y20
G1 F1800 X40.148 Y127.829 E32.52312
M204 S5000
M205 X30 Y30
G0 F3600 X39.582 Y127.829
M204 S500
M205 X20 Y20
G1 F1800 X35.169 Y123.416 E32.73069
M204 S5000
M205 X30 Y30
G0 F3600 X35.169 Y123.981
M204 S500
M205 X20 Y20
G1 F1800 X39.016 Y127.829 E32.91167
M204 S5000
M205 X30 Y30
G0 F3600 X38.451 Y127.829
M204 S500
M205 X20 Y20
G1 F1800 X35.169 Y124.547 E33.06604
M204 S5000
M205 X30 Y30
G0 F3600 X35.169 Y125.113
M204 S500
M205 X20 Y20
G1 F1800 X37.885 Y127.829 E33.19379
M204 S5000
M205 X30 Y30
G0 F3600 X37.319 Y127.829
M204 S500
M205 X20 Y20
G1 F1800 X35.169 Y125.679 E33.29492
M204 S5000
M205 X30 Y30
G0 F3600 X35.169 Y126.244
M204 S500
M205 X20 Y20
G1 F1800 X36.753 Y127.829 E33.36945
M204 S5000
M205 X30 Y30
G0 F3600 X36.188 Y127.829
M204 S500
M205 X20 Y20
G1 F1800 X35.169 Y126.81 E33.41738
M204 S5000
M205 X30 Y30
G0 F3600 X35.169 Y127.376
M204 S500
M205 X20 Y20
G1 F1800 X35.622 Y127.829 E33.43869
;TIME_ELAPSED:44.411135
G1 F2400 E28.43869
M204 S4000
; Ender 3 Custom End G-code
G4 ; Wait
M220 S100 ; Reset Speed factor override percentage to default (100%)
M221 S100 ; Reset Extrude factor override percentage to default (100%)
G91 ; Set coordinates to relative
G1 F1800 E-3 ; Retract filament 3 mm to prevent oozing
G1 F3000 Z20 ; Move Z Axis up 20 mm to allow filament ooze freely
G90 ; Set coordinates to absolute
G1 X0 Y235 F1000 ; Move Heat Bed to the front for easy print removal
M84 ; Disable stepper motors
; End of custom end GCode
M82 ;absolute extrusion mode
;End of Gcode
