;FLAVOR:Marlin
;TIME:6666
;Filament used: 0m
;Layer height: 0.15

;Generated with Cura_SteamEngine 4.0.0
M140 S60
M105
M190 S60
M104 S200
M105
M109 S200
M82 ;absolute extrusion mode
M140 S60
M105
M190 S60
M104 S200
M105
M109 S200
G28 ; Home all axes
G92 E0 ; Reset Extruder
G1 Z2.0 F3000 ; Move Z Axis up little to prevent scratching of Heat Bed
G1 F1000 E10 ; extrude filament 10 mm
G92 E0
G1 F2400 E-5
;LAYER_COUNT:2
;LAYER:0
M107
M204 S5000
M205 X30 Y30
;MESH:middle-col.stl
G0 F3600 X53.4 Y128.4 Z0.2
M204 S500
M205 X20 Y20
;TYPE:WALL-INNER
G1 F2400 E0
G1 F1800 X34.6 Y128.4 E0.62529
G1 X34.6 Y109.6 E1.25058
G1 X53.4 Y109.6 E1.87587
G1 X53.4 Y128.4 E2.50116
M204 S5000
M205 X30 Y30
G0 F3600 X53.8 Y128.8
M204 S500
M205 X20 Y20
;TYPE:WALL-OUTER
G1 F1800 X34.2 Y128.8 E3.15306
G1 X34.2 Y109.2 E3.80496
G1 X53.8 Y109.2 E4.45686
G1 X53.8 Y128.8 E5.10876
M204 S5000
M205 X30 Y30
G0 F3600 X53.6 Y128.8
G0 X53.01 Y128.01
M204 S500
M205 X20 Y20
;TYPE:SKIN
G1 F1800 X34.99 Y128.01 E5.7081
G1 X34.99 Y109.99 E6.30745
G1 X53.01 Y109.99 E6.9068
G1 X53.01 Y128.01 E7.50615
M204 S5000
M205 X30 Y30
G0 F3600 X52.83 Y110.529
M204 S500
M205 X20 Y20
G1 F1800 X52.469 Y110.169 E7.5231
M204 S5000
M205 X30 Y30
G0 F3600 X51.903 Y110.169
M204 S500
M205 X20 Y20
G1 F1800 X52.83 Y111.095 E7.56668
M204 S5000
M205 X30 Y30
G0 F3600 X52.83 Y111.661
M204 S500
M205 X20 Y20
G1 F1800 X51.338 Y110.169 E7.63686
M204 S5000
M205 X30 Y30
G0 F3600 X50.772 Y110.169
M204 S500
M205 X20 Y20
G1 F1800 X52.83 Y112.227 E7.73366
M204 S5000
M205 X30 Y30
G0 F3600 X52.83 Y112.792
M204 S500
M205 X20 Y20
G1 F1800 X50.206 Y110.169 E7.85707
M204 S5000
M205 X30 Y30
G0 F3600 X49.641 Y110.169
M204 S500
M205 X20 Y20
G1 F1800 X52.83 Y113.358 E8.00707
M204 S5000
M205 X30 Y30
G0 F3600 X52.83 Y113.924
M204 S500
M205 X20 Y20
G1 F1800 X49.075 Y110.169 E8.18369
M204 S5000
M205 X30 Y30
G0 F3600 X48.509 Y110.169
M204 S500
M205 X20 Y20
G1 F1800 X52.83 Y114.489 E8.38691
M204 S5000
M205 X30 Y30
G0 F3600 X52.83 Y115.055
M204 S500
M205 X20 Y20
G1 F1800 X47.943 Y110.169 E8.61676
M204 S5000
M205 X30 Y30
G0 F3600 X47.378 Y110.169
M204 S500
M205 X20 Y20
G1 F1800 X52.83 Y115.621 E8.87321
M204 S5000
M205 X30 Y30
G0 F3600 X52.83 Y116.186
M204 S500
M205 X20 Y20
G1 F1800 X46.812 Y110.169 E9.15625
M204 S5000
M205 X30 Y30
G0 F3600 X46.246 Y110.169
M204 S500
M205 X20 Y20
G1 F1800 X52.83 Y116.752 E9.46592
M204 S5000
M205 X30 Y30
G0 F3600 X52.83 Y117.318
M204 S500
M205 X20 Y20
G1 F1800 X45.681 Y110.169 E9.80218
M204 S5000
M205 X30 Y30
G0 F3600 X45.115 Y110.169
M204 S500
M205 X20 Y20
G1 F1800 X52.83 Y117.883 E10.16505
M204 S5000
M205 X30 Y30
G0 F3600 X52.83 Y118.449
M204 S500
M205 X20 Y20
G1 F1800 X44.549 Y110.169 E10.55454
M204 S5000
M205 X30 Y30
G0 F3600 X43.984 Y110.169
M204 S500
M205 X20 Y20
G1 F1800 X52.83 Y119.015 E10.97063
M204 S5000
M205 X30 Y30
G0 F3600 X52.83 Y119.58
M204 S500
M205 X20 Y20
G1 F1800 X43.418 Y110.169 E11.41332
M204 S5000
M205 X30 Y30
G0 F3600 X42.852 Y110.169
M204 S500
M205 X20 Y20
G1 F1800 X52.83 Y120.146 E11.88263
M204 S5000
M205 X30 Y30
G0 F3600 X52.83 Y120.712
M204 S500
M205 X20 Y20
G1 F1800 X42.287 Y110.169 E12.37854
M204 S5000
M205 X30 Y30
G0 F3600 X41.721 Y110.169
M204 S500
M205 X20 Y20
G1 F1800 X52.83 Y121.278 E12.90107
M204 S5000
M205 X30 Y30
G0 F3600 X52.83 Y121.843
M204 S500
M205 X20 Y20
G1 F1800 X41.155 Y110.169 E13.4502
M204 S5000
M205 X30 Y30
G0 F3600 X40.59 Y110.169
M204 S500
M205 X20 Y20
G1 F1800 X52.83 Y122.409 E14.02594
M204 S5000
M205 X30 Y30
G0 F3600 X52.83 Y122.975
M204 S500
M205 X20 Y20
G1 F1800 X40.024 Y110.169 E14.62829
M204 S5000
M205 X30 Y30
G0 F3600 X39.458 Y110.169
M204 S500
M205 X20 Y20
G1 F1800 X52.83 Y123.54 E15.25725
M204 S5000
M205 X30 Y30
G0 F3600 X52.83 Y124.106
M204 S500
M205 X20 Y20
G1 F1800 X38.892 Y110.169 E15.91282
M204 S5000
M205 X30 Y30
G0 F3600 X38.327 Y110.169
M204 S500
M205 X20 Y20
G1 F1800 X52.83 Y124.672 E16.595
M204 S5000
M205 X30 Y30
G0 F3600 X52.83 Y125.237
M204 S500
M205 X20 Y20
G1 F1800 X37.761 Y110.169 E17.30378
M204 S5000
M205 X30 Y30
G0 F3600 X37.195 Y110.169
M204 S500
M205 X20 Y20
G1 F1800 X52.83 Y125.803 E18.03917
M204 S5000
M205 X30 Y30
G0 F3600 X52.83 Y126.369
M204 S500
M205 X20 Y20
G1 F1800 X36.63 Y110.169 E18.80117
M204 S5000
M205 X30 Y30
G0 F3600 X36.064 Y110.169
M204 S500
M205 X20 Y20
G1 F1800 X52.83 Y126.934 E19.58977
M204 S5000
M205 X30 Y30
G0 F3600 X52.83 Y127.5
M204 S500
M205 X20 Y20
G1 F1800 X35.498 Y110.169 E20.40499
M204 S5000
M205 X30 Y30
G0 F3600 X35.169 Y110.405
M204 S500
M205 X20 Y20
G1 F1800 X52.593 Y127.829 E21.22456
M204 S5000
M205 X30 Y30
G0 F3600 X52.027 Y127.829
M204 S500
M205 X20 Y20
G1 F1800 X35.169 Y110.971 E22.01751
M204 S5000
M205 X30 Y30
G0 F3600 X35.169 Y111.536
M204 S500
M205 X20 Y20
G1 F1800 X51.461 Y127.829 E22.78386
M204 S5000
M205 X30 Y30
G0 F3600 X50.896 Y127.829
M204 S500
M205 X20 Y20
G1 F1800 X35.169 Y112.102 E23.52361
M204 S5000
M205 X30 Y30
G0 F3600 X35.169 Y112.668
M204 S500
M205 X20 Y20
G1 F1800 X50.33 Y127.829 E24.23674
M204 S5000
M205 X30 Y30
G0 F3600 X49.764 Y127.829
M204 S500
M205 X20 Y20
G1 F1800 X35.169 Y113.233 E24.92327
M204 S5000
M205 X30 Y30
G0 F3600 X35.169 Y113.799
M204 S500
M205 X20 Y20
G1 F1800 X49.199 Y127.829 E25.58319
M204 S5000
M205 X30 Y30
G0 F3600 X48.633 Y127.829
M204 S500
M205 X20 Y20
G1 F1800 X35.169 Y114.365 E26.2165
M204 S5000
M205 X30 Y30
G0 F3600 X35.169 Y114.931
M204 S500
M205 X20 Y20
G1 F1800 X48.067 Y127.829 E26.82318
M204 S5000
M205 X30 Y30
G0 F3600 X47.502 Y127.829
M204 S500
M205 X20 Y20
G1 F1800 X35.169 Y115.496 E27.40329
M204 S5000
M205 X30 Y30
G0 F3600 X35.169 Y116.062
M204 S500
M205 X20 Y20
G1 F1800 X46.936 Y127.829 E27.95677
M204 S5000
M205 X30 Y30
G0 F3600 X46.37 Y127.829
M204 S500
M205 X20 Y20
G1 F1800 X35.169 Y116.628 E28.48363
M204 S5000
M205 X30 Y30
G0 F3600 X35.169 Y117.193
M204 S500
M205 X20 Y20
G1 F1800 X45.804 Y127.829 E28.98389
M204 S5000
M205 X30 Y30
G0 F3600 X45.239 Y127.829
M204 S500
M205 X20 Y20
G1 F1800 X35.169 Y117.759 E29.45756
M204 S5000
M205 X30 Y30
G0 F3600 X35.169 Y118.325
M204 S500
M205 X20 Y20
G1 F1800 X44.673 Y127.829 E29.90459
M204 S5000
M205 X30 Y30
G0 F3600 X44.107 Y127.829
M204 S500
M205 X20 Y20
G1 F1800 X35.169 Y118.89 E30.32503
M204 S5000
M205 X30 Y30
G0 F3600 X35.169 Y119.456
M204 S500
M205 X20 Y20
G1 F1800 X43.542 Y127.829 E30.71887
M204 S5000
M205 X30 Y30
G0 F3600 X42.976 Y127.829
M204 S500
M205 X20 Y20
G1 F1800 X35.169 Y120.022 E31.08609
M204 S5000
M205 X30 Y30
G0 F3600 X35.169 Y120.587
M204 S500
M205 X20 Y20
G1 F1800 X42.41 Y127.829 E31.42671
M204 S5000
M205 X30 Y30
G0 F3600 X41.845 Y127.829
M204 S500
M205 X20 Y20
G1 F1800 X35.169 Y121.153 E31.74073
M204 S5000
M205 X30 Y30
G0 F3600 X35.169 Y121.719
M204 S500
M205 X20 Y20
G1 F1800 X41.279 Y127.829 E32.02812
M204 S5000
M205 X30 Y30
G0 F3600 X40.713 Y127.829
M204 S500
M205 X20 Y20
G1 F1800 X35.169 Y122.284 E32.28892
M204 S5000
M205 X30 Y30
G0 F3600 X35.169 Y122.85
M204 S500
M205 X20 Y20
G1 F1800 X40.148 Y127.829 E32.52312
M204 S5000
M205 X30 Y30
G0 F3600 X39.582 Y127.829
M204 S500
M205 X20 Y20
G1 F1800 X35.169 Y123.416 E32.73069
M204 S5000
M205 X30 Y30
G0 F3600 X35.169 Y123.981
M204 S500
M205 X20 Y20
G1 F1800 X39.016 Y127.829 E32.91167
M204 S5000
M205 X30 Y30
G0 F3600 X38.451 Y127.829
M204 S500
M205 X20 Y20
G1 F1800 X35.169 Y124.547 E33.06604
M204 S5000
M205 X30 Y30
G0 F3600 X35.169 Y125.113
M204 S500
M205 X20 Y20
G1 F1800 X37.885 Y127.829 E33.19379
M204 S5000
M205 X30 Y30
G0 F3600 X37.319 Y127.829
M204 S500
M205 X20 Y20
G1 F1800 X35.169 Y125.679 E33.29492
M204 S5000
M205 X30 Y30
G0 F3600 X35.169 Y126.244
M204 S500
M205 X20 Y20
G1 F1800 X36.753 Y127.829 E33.36945
M204 S5000
M205 X30 Y30
G0 F3600 X36.188 Y127.829
M204 S500
M205 X20 Y20
G1 F1800 X35.169 Y126.81 E33.41738
M204 S5000
M205 X30 Y30
G0 F3600 X35.169 Y127.376
M204 S500
M205 X20 Y20
G1 F1800 X35.622 Y127.829 E33.43869
M204 S5000
M205 X30 Y30
G1 F2400 E28.43869
G0 F3600 X53.38 Y128.33
G0 X54.665 Y128.33
G0 X108.335 Y128.33
G0 X109.62 Y128.33
G0 X128.33 Y128.33
G0 X128.4 Y128.4
M204 S500
M205 X20 Y20
;TYPE:WALL-INNER
G1 F2400 E33.43869
G1 F1800 X109.6 Y128.4 E34.06398
G1 X109.6 Y109.6 E34.68927
G1 X128.4 Y109.6 E35.31456
G1 X128.4 Y128.4 E35.93985
M204 S5000
M205 X30 Y30
G0 F3600 X128.8 Y128.8
M204 S500
M205 X20 Y20
;TYPE:WALL-OUTER
G1 F1800 X109.2 Y128.8 E36.59175
G1 X109.2 Y109.2 E37.24365
G1 X128.8 Y109.2 E37.89555
G1 X128.8 Y128.8 E38.54745
M204 S5000
M205 X30 Y30
G0 F3600 X128.6 Y128.8
G0 X128.01 Y128.01
M204 S500
M205 X20 Y20
;TYPE:SKIN
G1 F1800 X109.99 Y128.01 E39.1468
G1 X109.99 Y109.99 E39.74614
G1 X128.01 Y109.99 E40.34549
G1 X128.01 Y128.01 E40.94484
M204 S5000
M205 X30 Y30
G0 F3600 X127.829 Y110.293
M204 S500
M205 X20 Y20
G1 F1800 X127.706 Y110.17 E40.95062
M204 S5000
M205 X30 Y30
G0 F3600 X127.14 Y110.17
M204 S500
M205 X20 Y20
G1 F1800 X127.829 Y110.858 E40.98301
M204 S5000
M205 X30 Y30
G0 F3600 X127.829 Y111.424
M204 S500
M205 X20 Y20
G1 F1800 X126.574 Y110.17 E41.04202
M204 S5000
M205 X30 Y30
G0 F3600 X126.009 Y110.17
M204 S500
M205 X20 Y20
G1 F1800 X127.829 Y111.99 E41.12762
M204 S5000
M205 X30 Y30
G0 F3600 X127.829 Y112.555
M204 S500
M205 X20 Y20
G1 F1800 X125.443 Y110.17 E41.23983
M204 S5000
M205 X30 Y30
G0 F3600 X124.877 Y110.17
M204 S500
M205 X20 Y20
G1 F1800 X127.829 Y113.121 E41.37866
M204 S5000
M205 X30 Y30
G0 F3600 X127.829 Y113.687
M204 S500
M205 X20 Y20
G1 F1800 X124.312 Y110.17 E41.54409
M204 S5000
M205 X30 Y30
G0 F3600 X123.746 Y110.17
M204 S500
M205 X20 Y20
G1 F1800 X127.829 Y114.252 E41.73612
M204 S5000
M205 X30 Y30
G0 F3600 X127.829 Y114.818
M204 S500
M205 X20 Y20
G1 F1800 X123.18 Y110.17 E41.95477
M204 S5000
M205 X30 Y30
G0 F3600 X122.615 Y110.17
M204 S500
M205 X20 Y20
G1 F1800 X127.829 Y115.384 E42.20002
M204 S5000
M205 X30 Y30
G0 F3600 X127.829 Y115.949
M204 S500
M205 X20 Y20
G1 F1800 X122.049 Y110.17 E42.47187
M204 S5000
M205 X30 Y30
G0 F3600 X121.483 Y110.17
M204 S500
M205 X20 Y20
G1 F1800 X127.829 Y116.515 E42.77034
M204 S5000
M205 X30 Y30
G0 F3600 X127.829 Y117.081
M204 S500
M205 X20 Y20
G1 F1800 X120.918 Y110.17 E43.09541
M204 S5000
M205 X30 Y30
G0 F3600 X120.352 Y110.17
M204 S500
M205 X20 Y20
G1 F1800 X127.829 Y117.647 E43.44711
M204 S5000
M205 X30 Y30
G0 F3600 X127.829 Y118.212
M204 S500
M205 X20 Y20
G1 F1800 X119.786 Y110.17 E43.8254
M204 S5000
M205 X30 Y30
G0 F3600 X119.221 Y110.17
M204 S500
M205 X20 Y20
G1 F1800 X127.829 Y118.778 E44.2303
M204 S5000
M205 X30 Y30
G0 F3600 X127.829 Y119.344
M204 S500
M205 X20 Y20
G1 F1800 X118.655 Y110.17 E44.66181
M204 S5000
M205 X30 Y30
G0 F3600 X118.089 Y110.17
M204 S500
M205 X20 Y20
G1 F1800 X127.829 Y119.909 E45.11993
M204 S5000
M205 X30 Y30
G0 F3600 X127.829 Y120.475
M204 S500
M205 X20 Y20
G1 F1800 X117.523 Y110.17 E45.60467
M204 S5000
M205 X30 Y30
G0 F3600 X116.958 Y110.17
M204 S500
M205 X20 Y20
G1 F1800 X127.829 Y121.041 E46.11601
M204 S5000
M205 X30 Y30
G0 F3600 X127.829 Y121.606
M204 S500
M205 X20 Y20
G1 F1800 X116.392 Y110.17 E46.65395
M204 S5000
M205 X30 Y30
G0 F3600 X115.826 Y110.17
M204 S500
M205 X20 Y20
G1 F1800 X127.829 Y122.172 E47.21851
M204 S5000
M205 X30 Y30
G0 F3600 X127.829 Y122.738
M204 S500
M205 X20 Y20
G1 F1800 X115.261 Y110.17 E47.80967
M204 S5000
M205 X30 Y30
G0 F3600 X114.695 Y110.17
M204 S500
M205 X20 Y20
G1 F1800 X127.829 Y123.303 E48.42743
M204 S5000
M205 X30 Y30
G0 F3600 X127.829 Y123.869
M204 S500
M205 X20 Y20
G1 F1800 X114.129 Y110.17 E49.07181
M204 S5000
M205 X30 Y30
G0 F3600 X113.564 Y110.17
M204 S500
M205 X20 Y20
G1 F1800 X127.829 Y124.435 E49.74279
M204 S5000
M205 X30 Y30
G0 F3600 X127.829 Y125
M204 S500
M205 X20 Y20
G1 F1800 X112.998 Y110.17 E50.44037
M204 S5000
M205 X30 Y30
G0 F3600 X112.432 Y110.17
M204 S500
M205 X20 Y20
G1 F1800 X127.829 Y125.566 E51.16458
M204 S5000
M205 X30 Y30
G0 F3600 X127.829 Y126.132
M204 S500
M205 X20 Y20
G1 F1800 X111.867 Y110.17 E51.91538
M204 S5000
M205 X30 Y30
G0 F3600 X111.301 Y110.17
M204 S500
M205 X20 Y20
G1 F1800 X127.829 Y126.697 E52.69278
M204 S5000
M205 X30 Y30
G0 F3600 X127.829 Y127.263
M204 S500
M205 X20 Y20
G1 F1800 X110.735 Y110.17 E53.49681
M204 S5000
M205 X30 Y30
G0 F3600 X110.169 Y110.169
M204 S500
M205 X20 Y20
G1 F1800 X127.829 Y127.829 E54.32748
M204 S5000
M205 X30 Y30
G0 F3600 X127.263 Y127.829
M204 S500
M205 X20 Y20
G1 F1800 X110.169 Y110.735 E55.13153
M204 S5000
M205 X30 Y30
G0 F3600 X110.169 Y111.3
M204 S500
M205 X20 Y20
G1 F1800 X126.697 Y127.829 E55.90898
M204 S5000
M205 X30 Y30
G0 F3600 X126.132 Y127.829
M204 S500
M205 X20 Y20
G1 F1800 X110.169 Y111.866 E56.65983
M204 S5000
M205 X30 Y30
G0 F3600 X110.169 Y112.432
M204 S500
M205 X20 Y20
G1 F1800 X125.566 Y127.829 E57.38406
M204 S5000
M205 X30 Y30
G0 F3600 X125 Y127.829
M204 S500
M205 X20 Y20
G1 F1800 X110.169 Y112.997 E58.08169
M204 S5000
M205 X30 Y30
G0 F3600 X110.169 Y113.563
M204 S500
M205 X20 Y20
G1 F1800 X124.435 Y127.829 E58.75272
M204 S5000
M205 X30 Y30
G0 F3600 X123.869 Y127.829
M204 S500
M205 X20 Y20
G1 F1800 X110.169 Y114.129 E59.39712
M204 S5000
M205 X30 Y30
G0 F3600 X110.169 Y114.694
M204 S500
M205 X20 Y20
G1 F1800 X123.303 Y127.829 E60.01493
M204 S5000
M205 X30 Y30
G0 F3600 X122.738 Y127.829
M204 S500
M205 X20 Y20
G1 F1800 X110.169 Y115.26 E60.60614
M204 S5000
M205 X30 Y30
G0 F3600 X110.169 Y115.826
M204 S500
M205 X20 Y20
G1 F1800 X122.172 Y127.829 E61.17072
M204 S5000
M205 X30 Y30
G0 F3600 X121.606 Y127.829
M204 S500
M205 X20 Y20
G1 F1800 X110.169 Y116.391 E61.7087
M204 S5000
M205 X30 Y30
G0 F3600 X110.169 Y116.957
M204 S500
M205 X20 Y20
G1 F1800 X121.041 Y127.829 E62.22009
M204 S5000
M205 X30 Y30
G0 F3600 X120.475 Y127.829
M204 S500
M205 X20 Y20
G1 F1800 X110.169 Y117.523 E62.70485
M204 S5000
M205 X30 Y30
G0 F3600 X110.169 Y118.088
M204 S500
M205 X20 Y20
G1 F1800 X119.909 Y127.829 E63.16302
M204 S5000
M205 X30 Y30
G0 F3600 X119.344 Y127.829
M204 S500
M205 X20 Y20
G1 F1800 X110.169 Y118.654 E63.59458
M204 S5000
M205 X30 Y30
G0 F3600 X110.169 Y119.22
M204 S500
M205 X20 Y20
G1 F1800 X118.778 Y127.829 E63.99952
M204 S5000
M205 X30 Y30
G0 F3600 X118.212 Y127.829
M204 S500
M205 X20 Y20
G1 F1800 X110.169 Y119.786 E64.37784
M204 S5000
M205 X30 Y30
G0 F3600 X110.169 Y120.351
M204 S500
M205 X20 Y20
G1 F1800 X117.647 Y127.829 E64.72958
M204 S5000
M205 X30 Y30
G0 F3600 X117.081 Y127.829
M204 S500
M205 X20 Y20
G1 F1800 X110.169 Y120.917 E65.0547
M204 S5000
M205 X30 Y30
G0 F3600 X110.169 Y121.483
M204 S500
M205 X20 Y20
G1 F1800 X116.515 Y127.829 E65.3532
M204 S5000
M205 X30 Y30
G0 F3600 X115.949 Y127.829
M204 S500
M205 X20 Y20
G1 F1800 X110.169 Y122.048 E65.62509
M204 S5000
M205 X30 Y30
G0 F3600 X110.169 Y122.614
M204 S500
M205 X20 Y20
G1 F1800 X115.384 Y127.829 E65.87039
M204 S5000
M205 X30 Y30
G0 F3600 X114.818 Y127.829
M204 S500
M205 X20 Y20
G1 F1800 X110.169 Y123.18 E66.08907
M204 S5000
M205 X30 Y30
G0 F3600 X110.169 Y123.745
M204 S500
M205 X20 Y20
G1 F1800 X114.252 Y127.829 E66.28114
M204 S5000
M205 X30 Y30
G0 F3600 X113.687 Y127.829
M204 S500
M205 X20 Y20
G1 F1800 X110.169 Y124.311 E66.44662
M204 S5000
M205 X30 Y30
G0 F3600 X110.169 Y124.877
M204 S500
M205 X20 Y20
G1 F1800 X113.121 Y127.829 E66.58547
M204 S5000
M205 X30 Y30
G0 F3600 X112.555 Y127.829
M204 S500
M205 X20 Y20
G1 F1800 X110.169 Y125.442 E66.69772
M204 S5000
M205 X30 Y30
G0 F3600 X110.169 Y126.008
M204 S500
M205 X20 Y20
G1 F1800 X111.99 Y127.829 E66.78338
M204 S5000
M205 X30 Y30
G0 F3600 X111.424 Y127.829
M204 S500
M205 X20 Y20
G1 F1800 X110.169 Y126.574 E66.84241
M204 S5000
M205 X30 Y30
G0 F3600 X110.169 Y127.139
M204 S500
M205 X20 Y20
G1 F1800 X110.858 Y127.829 E66.87484
M204 S5000
M205 X30 Y30
G0 F3600 X110.293 Y127.829
M204 S500
M205 X20 Y20
G1 F1800 X110.169 Y127.705 E66.88067
M204 S5000
M205 X30 Y30
G1 F2400 E61.88067
G0 F3600 X128.38 Y128.33
G0 X129.665 Y128.33
G0 X183.335 Y128.33
G0 X184.62 Y128.33
G0 X203.33 Y128.33
G0 X203.4 Y128.4
M204 S500
M205 X20 Y20
;TYPE:WALL-INNER
G1 F2400 E66.88067
G1 F1800 X184.6 Y128.4 E67.50596
G1 X184.6 Y109.6 E68.13126
G1 X203.4 Y109.6 E68.75655
G1 X203.4 Y128.4 E69.38184
M204 S5000
M205 X30 Y30
G0 F3600 X203.8 Y128.8
M204 S500
M205 X20 Y20
;TYPE:WALL-OUTER
G1 F1800 X184.2 Y128.8 E70.03374
G1 X184.2 Y109.2 E70.68563
G1 X203.8 Y109.2 E71.33753
G1 X203.8 Y128.8 E71.98943
