;FLAVOR:Marlin
;TIME:6666
;Filament used: 0m
;Layer height: 0.15

;Generated with Cura_SteamEngine 4.0.0
M140 S60
M105
M190 S60
M104 S200
M105
M109 S200
M82 ;absolute extrusion mode
M140 S60
M105
M190 S60
M104 S200
M105
M109 S200
G28 ; Home all axes
G92 E0 ; Reset Extruder
G1 Z2.0 F3000 ; Move Z Axis up little to prevent scratching of Heat Bed
G1 F1000 E10 ; extrude filament 10 mm
G92 E0
G1 F2400 E-5
;LAYER_COUNT:2
;LAYER:0
M107
M204 S5000
M205 X30 Y30
;MESH:middle-right.stl
G0 F3600 X203.4 Y128.4 Z0.2
M204 S500
M205 X20 Y20
;TYPE:WALL-INNER
G1 F2400 E0
G1 F1800 X184.6 Y128.4 E0.62529
G1 X184.6 Y109.6 E1.25058
G1 X203.4 Y109.6 E1.87587
G1 X203.4 Y128.4 E2.50116
M204 S5000
M205 X30 Y30
G0 F3600 X203.8 Y128.8
M204 S500
M205 X20 Y20
;TYPE:WALL-OUTER
G1 F1800 X184.2 Y128.8 E3.15306
G1 X184.2 Y109.2 E3.80496
G1 X203.8 Y109.2 E4.45686
G1 X203.8 Y128.8 E5.10876
M204 S5000
M205 X30 Y30
G0 F3600 X203.6 Y128.8
G0 X203.01 Y128.01
M204 S500
M205 X20 Y20
;TYPE:SKIN
G1 F1800 X184.99 Y128.01 E5.7081
G1 X184.99 Y109.99 E6.30745
G1 X203.01 Y109.99 E6.9068
G1 X203.01 Y128.01 E7.50615
M204 S5000
M205 X30 Y30
G0 F3600 X202.829 Y110.622
M204 S500
M205 X20 Y20
G1 F1800 X202.376 Y110.17 E7.52743
M204 S5000
M205 X30 Y30
G0 F3600 X201.811 Y110.17
M204 S500
M205 X20 Y20
G1 F1800 X202.829 Y111.188 E7.57532
M204 S5000
M205 X30 Y30
G0 F3600 X202.829 Y111.753
M204 S500
M205 X20 Y20
G1 F1800 X201.245 Y110.17 E7.6498
M204 S5000
M205 X30 Y30
G0 F3600 X200.679 Y110.17
M204 S500
M205 X20 Y20
G1 F1800 X202.829 Y112.319 E7.7509
M204 S5000
M205 X30 Y30
G0 F3600 X202.829 Y112.885
M204 S500
M205 X20 Y20
G1 F1800 X200.114 Y110.17 E7.87861
M204 S5000
M205 X30 Y30
G0 F3600 X199.548 Y110.17
M204 S500
M205 X20 Y20
G1 F1800 X202.829 Y113.451 E8.03294
M204 S5000
M205 X30 Y30
G0 F3600 X202.829 Y114.016
M204 S500
M205 X20 Y20
G1 F1800 X198.982 Y110.17 E8.21387
M204 S5000
M205 X30 Y30
G0 F3600 X198.416 Y110.17
M204 S500
M205 X20 Y20
G1 F1800 X202.829 Y114.582 E8.42142
M204 S5000
M205 X30 Y30
G0 F3600 X202.829 Y115.148
M204 S500
M205 X20 Y20
G1 F1800 X197.851 Y110.17 E8.65557
M204 S5000
M205 X30 Y30
G0 F3600 X197.285 Y110.17
M204 S500
M205 X20 Y20
G1 F1800 X202.829 Y115.713 E8.91631
M204 S5000
M205 X30 Y30
G0 F3600 X202.829 Y116.279
M204 S500
M205 X20 Y20
G1 F1800 X196.719 Y110.17 E9.20369
M204 S5000
M205 X30 Y30
G0 F3600 X196.154 Y110.17
M204 S500
M205 X20 Y20
G1 F1800 X202.829 Y116.845 E9.51766
M204 S5000
M205 X30 Y30
G0 F3600 X202.829 Y117.41
M204 S500
M205 X20 Y20
G1 F1800 X195.588 Y110.17 E9.85823
M204 S5000
M205 X30 Y30
G0 F3600 X195.022 Y110.17
M204 S500
M205 X20 Y20
G1 F1800 X202.829 Y117.976 E10.22542
M204 S5000
M205 X30 Y30
G0 F3600 X202.829 Y118.542
M204 S500
M205 X20 Y20
G1 F1800 X194.457 Y110.17 E10.61922
M204 S5000
M205 X30 Y30
G0 F3600 X193.891 Y110.17
M204 S500
M205 X20 Y20
G1 F1800 X202.829 Y119.107 E11.03961
M204 S5000
M205 X30 Y30
G0 F3600 X202.829 Y119.673
M204 S500
M205 X20 Y20
G1 F1800 X193.325 Y110.17 E11.48662
M204 S5000
M205 X30 Y30
G0 F3600 X192.76 Y110.17
M204 S500
M205 X20 Y20
G1 F1800 X202.829 Y120.239 E11.96024
M204 S5000
M205 X30 Y30
G0 F3600 X202.829 Y120.804
M204 S500
M205 X20 Y20
G1 F1800 X192.194 Y110.17 E12.46045
M204 S5000
M205 X30 Y30
G0 F3600 X191.628 Y110.17
M204 S500
M205 X20 Y20
G1 F1800 X202.829 Y121.37 E12.98729
M204 S5000
M205 X30 Y30
G0 F3600 X202.829 Y121.936
M204 S500
M205 X20 Y20
G1 F1800 X191.063 Y110.17 E13.54073
M204 S5000
M205 X30 Y30
G0 F3600 X190.497 Y110.17
M204 S500
M205 X20 Y20
G1 F1800 X202.829 Y122.502 E14.12079
M204 S5000
M205 X30 Y30
G0 F3600 X202.829 Y123.067
M204 S500
M205 X20 Y20
G1 F1800 X189.931 Y110.17 E14.72745
M204 S5000
M205 X30 Y30
G0 F3600 X189.366 Y110.17
M204 S500
M205 X20 Y20
G1 F1800 X202.829 Y123.633 E15.3607
M204 S5000
M205 X30 Y30
G0 F3600 X202.829 Y124.199
M204 S500
M205 X20 Y20
G1 F1800 X188.8 Y110.17 E16.02058
M204 S5000
M205 X30 Y30
G0 F3600 X188.234 Y110.17
M204 S500
M205 X20 Y20
G1 F1800 X202.829 Y124.764 E16.70707
M204 S5000
M205 X30 Y30
G0 F3600 X202.829 Y125.33
M204 S500
M205 X20 Y20
G1 F1800 X187.668 Y110.17 E17.42017
M204 S5000
M205 X30 Y30
G0 F3600 X187.103 Y110.17
M204 S500
M205 X20 Y20
G1 F1800 X202.829 Y125.896 E18.15987
M204 S5000
M205 X30 Y30
G0 F3600 X202.829 Y126.461
M204 S500
M205 X20 Y20
G1 F1800 X186.537 Y110.17 E18.92617
M204 S5000
M205 X30 Y30
G0 F3600 X185.971 Y110.17
M204 S500
M205 X20 Y20
G1 F1800 X202.829 Y127.027 E19.7191
M204 S5000
M205 X30 Y30
G0 F3600 X202.829 Y127.593
M204 S500
M205 X20 Y20
G1 F1800 X185.406 Y110.17 E20.53862
M204 S5000
M205 X30 Y30
G0 F3600 X185.169 Y110.498
M204 S500
M205 X20 Y20
G1 F1800 X202.499 Y127.829 E21.3538
M204 S5000
M205 X30 Y30
G0 F3600 X201.934 Y127.829
M204 S500
M205 X20 Y20
G1 F1800 X185.169 Y111.064 E22.14237
M204 S5000
M205 X30 Y30
G0 F3600 X185.169 Y111.63
M204 S500
M205 X20 Y20
G1 F1800 X201.368 Y127.829 E22.90432
M204 S5000
M205 X30 Y30
G0 F3600 X200.802 Y127.829
M204 S500
M205 X20 Y20
G1 F1800 X185.169 Y112.195 E23.63967
M204 S5000
M205 X30 Y30
G0 F3600 X185.169 Y112.761
M204 S500
M205 X20 Y20
G1 F1800 X200.237 Y127.829 E24.34843
M204 S5000
M205 X30 Y30
G0 F3600 X199.671 Y127.829
M204 S500
M205 X20 Y20
G1 F1800 X185.169 Y113.327 E25.03056
M204 S5000
M205 X30 Y30
G0 F3600 X185.169 Y113.892
M204 S500
M205 X20 Y20
G1 F1800 X199.105 Y127.829 E25.68609
M204 S5000
M205 X30 Y30
G0 F3600 X198.54 Y127.829
M204 S500
M205 X20 Y20
G1 F1800 X185.169 Y114.458 E26.31502
M204 S5000
M205 X30 Y30
G0 F3600 X185.169 Y115.024
M204 S500
M205 X20 Y20
G1 F1800 X197.974 Y127.829 E26.91733
M204 S5000
M205 X30 Y30
G0 F3600 X197.408 Y127.829
M204 S500
M205 X20 Y20
G1 F1800 X185.169 Y115.59 E27.49301
M204 S5000
M205 X30 Y30
G0 F3600 X185.169 Y116.155
M204 S500
M205 X20 Y20
G1 F1800 X196.842 Y127.829 E28.0421
M204 S5000
M205 X30 Y30
G0 F3600 X196.277 Y127.829
M204 S500
M205 X20 Y20
G1 F1800 X185.169 Y116.721 E28.56458
M204 S5000
M205 X30 Y30
G0 F3600 X185.169 Y117.287
M204 S500
M205 X20 Y20
G1 F1800 X195.711 Y127.829 E29.06045
M204 S5000
M205 X30 Y30
G0 F3600 X195.145 Y127.829
M204 S500
M205 X20 Y20
G1 F1800 X185.169 Y117.852 E29.52971
M204 S5000
M205 X30 Y30
G0 F3600 X185.169 Y118.418
M204 S500
M205 X20 Y20
G1 F1800 X194.58 Y127.829 E29.97237
M204 S5000
M205 X30 Y30
G0 F3600 X194.014 Y127.829
M204 S500
M205 X20 Y20
G1 F1800 X185.169 Y118.984 E30.38842
M204 S5000
M205 X30 Y30
G0 F3600 X185.169 Y119.549
M204 S500
M205 X20 Y20
G1 F1800 X193.448 Y127.829 E30.77786
M204 S5000
M205 X30 Y30
G0 F3600 X192.883 Y127.829
M204 S500
M205 X20 Y20
G1 F1800 X185.169 Y120.115 E31.1407
M204 S5000
M205 X30 Y30
G0 F3600 X185.169 Y120.681
M204 S500
M205 X20 Y20
G1 F1800 X192.317 Y127.829 E31.47692
M204 S5000
M205 X30 Y30
G0 F3600 X191.751 Y127.829
M204 S500
M205 X20 Y20
G1 F1800 X185.169 Y121.246 E31.78654
M204 S5000
M205 X30 Y30
G0 F3600 X185.169 Y121.812
M204 S500
M205 X20 Y20
G1 F1800 X191.186 Y127.829 E32.06956
M204 S5000
M205 X30 Y30
G0 F3600 X190.62 Y127.829
M204 S500
M205 X20 Y20
G1 F1800 X185.169 Y122.378 E32.32596
M204 S5000
M205 X30 Y30
G0 F3600 X185.169 Y122.943
M204 S500
M205 X20 Y20
G1 F1800 X190.054 Y127.829 E32.55576
M204 S5000
M205 X30 Y30
G0 F3600 X189.489 Y127.829
M204 S500
M205 X20 Y20
G1 F1800 X185.169 Y123.509 E32.75896
M204 S5000
M205 X30 Y30
G0 F3600 X185.169 Y124.075
M204 S500
M205 X20 Y20
G1 F1800 X188.923 Y127.829 E32.93554
M204 S5000
M205 X30 Y30
G0 F3600 X188.357 Y127.829
M204 S500
M205 X20 Y20
G1 F1800 X185.169 Y124.641 E33.08549
M204 S5000
M205 X30 Y30
G0 F3600 X185.169 Y125.206
M204 S500
M205 X20 Y20
G1 F1800 X187.792 Y127.829 E33.20887
M204 S5000
M205 X30 Y30
G0 F3600 X187.226 Y127.829
M204 S500
M205 X20 Y20
G1 F1800 X185.169 Y125.772 E33.30562
M204 S5000
M205 X30 Y30
G0 F3600 X185.169 Y126.338
M204 S500
M205 X20 Y20
G1 F1800 X186.66 Y127.829 E33.37576
M204 S5000
M205 X30 Y30
G0 F3600 X186.094 Y127.829
M204 S500
M205 X20 Y20
G1 F1800 X185.169 Y126.903 E33.41929
M204 S5000
M205 X30 Y30
G0 F3600 X185.169 Y127.469
M204 S500
M205 X20 Y20
G1 F1800 X185.529 Y127.829 E33.43622
;TIME_ELAPSED:44.694760
G1 F2400 E28.43622
M204 S4000
; Ender 3 Custom End G-code
G4 ; Wait
M220 S100 ; Reset Speed factor override percentage to default (100%)
M221 S100 ; Reset Extrude factor override percentage to default (100%)
G91 ; Set coordinates to relative
G1 F1800 E-3 ; Retract filament 3 mm to prevent oozing
G1 F3000 Z20 ; Move Z Axis up 20 mm to allow filament ooze freely
G90 ; Set coordinates to absolute
G1 X0 Y235 F1000 ; Move Heat Bed to the front for easy print removal
M84 ; Disable stepper motors
; End of custom end GCode
M82 ;absolute extrusion mode
;End of Gcode
