;FLAVOR:Marlin
;TIME:6666
;Filament used: 0m
;Layer height: 0.15

;Generated with Cura_SteamEngine 4.0.0
M140 S60
M105
M190 S60
M104 S200
M105
M109 S200
M82 ;absolute extrusion mode
M140 S60
M105
M190 S60
M104 S200
M105
M109 S200
G28 ; Home all axes
G92 E0 ; Reset Extruder
G1 Z2.0 F3000 ; Move Z Axis up little to prevent scratching of Heat Bed
G1 F1000 E10 ; extrude filament 10 mm
G92 E0
G1 F2400 E-5
;LAYER_COUNT:2
;LAYER:0
M107
M204 S5000
M205 X30 Y30
;MESH:middle-mid.stl
G0 F3600 X128.4 Y128.4 Z0.2
M204 S500
M205 X20 Y20
;TYPE:WALL-INNER
G1 F2400 E0
G1 F1800 X109.6 Y128.4 E0.62529
G1 X109.6 Y109.6 E1.25058
G1 X128.4 Y109.6 E1.87587
G1 X128.4 Y128.4 E2.50116
M204 S5000
M205 X30 Y30
G0 F3600 X128.8 Y128.8
M204 S500
M205 X20 Y20
;TYPE:WALL-OUTER
G1 F1800 X109.2 Y128.8 E3.15306
G1 X109.2 Y109.2 E3.80496
G1 X128.8 Y109.2 E4.45686
G1 X128.8 Y128.8 E5.10876
M204 S5000
M205 X30 Y30
G0 F3600 X128.6 Y128.8
G0 X128.01 Y128.01
M204 S500
M205 X20 Y20
;TYPE:SKIN
G1 F1800 X109.99 Y128.01 E5.7081
G1 X109.99 Y109.99 E6.30745
G1 X128.01 Y109.99 E6.9068
G1 X128.01 Y128.01 E7.50615
M204 S5000
M205 X30 Y30
G0 F3600 X127.829 Y110.293
M204 S500
M205 X20 Y20
G1 F1800 X127.706 Y110.17 E7.51193
M204 S5000
M205 X30 Y30
G0 F3600 X127.14 Y110.17
M204 S500
M205 X20 Y20
G1 F1800 X127.829 Y110.858 E7.54432
M204 S5000
M205 X30 Y30
G0 F3600 X127.829 Y111.424
M204 S500
M205 X20 Y20
G1 F1800 X126.574 Y110.17 E7.60333
M204 S5000
M205 X30 Y30
G0 F3600 X126.009 Y110.17
M204 S500
M205 X20 Y20
G1 F1800 X127.829 Y111.99 E7.68893
M204 S5000
M205 X30 Y30
G0 F3600 X127.829 Y112.555
M204 S500
M205 X20 Y20
G1 F1800 X125.443 Y110.17 E7.80114
M204 S5000
M205 X30 Y30
G0 F3600 X124.877 Y110.17
M204 S500
M205 X20 Y20
G1 F1800 X127.829 Y113.121 E7.93997
M204 S5000
M205 X30 Y30
G0 F3600 X127.829 Y113.687
M204 S500
M205 X20 Y20
G1 F1800 X124.312 Y110.17 E8.1054
M204 S5000
M205 X30 Y30
G0 F3600 X123.746 Y110.17
M204 S500
M205 X20 Y20
G1 F1800 X127.829 Y114.252 E8.29743
M204 S5000
M205 X30 Y30
G0 F3600 X127.829 Y114.818
M204 S500
M205 X20 Y20
G1 F1800 X123.18 Y110.17 E8.51608
M204 S5000
M205 X30 Y30
G0 F3600 X122.615 Y110.17
M204 S500
M205 X20 Y20
G1 F1800 X127.829 Y115.384 E8.76133
M204 S5000
M205 X30 Y30
G0 F3600 X127.829 Y115.949
M204 S500
M205 X20 Y20
G1 F1800 X122.049 Y110.17 E9.03318
M204 S5000
M205 X30 Y30
G0 F3600 X121.483 Y110.17
M204 S500
M205 X20 Y20
G1 F1800 X127.829 Y116.515 E9.33165
M204 S5000
M205 X30 Y30
G0 F3600 X127.829 Y117.081
M204 S500
M205 X20 Y20
G1 F1800 X120.918 Y110.17 E9.65672
M204 S5000
M205 X30 Y30
G0 F3600 X120.352 Y110.17
M204 S500
M205 X20 Y20
G1 F1800 X127.829 Y117.647 E10.00842
M204 S5000
M205 X30 Y30
G0 F3600 X127.829 Y118.212
M204 S500
M205 X20 Y20
G1 F1800 X119.786 Y110.17 E10.38671
M204 S5000
M205 X30 Y30
G0 F3600 X119.221 Y110.17
M204 S500
M205 X20 Y20
G1 F1800 X127.829 Y118.778 E10.79161
M204 S5000
M205 X30 Y30
G0 F3600 X127.829 Y119.344
M204 S500
M205 X20 Y20
G1 F1800 X118.655 Y110.17 E11.22312
M204 S5000
M205 X30 Y30
G0 F3600 X118.089 Y110.17
M204 S500
M205 X20 Y20
G1 F1800 X127.829 Y119.909 E11.68124
M204 S5000
M205 X30 Y30
G0 F3600 X127.829 Y120.475
M204 S500
M205 X20 Y20
G1 F1800 X117.523 Y110.17 E12.16598
M204 S5000
M205 X30 Y30
G0 F3600 X116.958 Y110.17
M204 S500
M205 X20 Y20
G1 F1800 X127.829 Y121.041 E12.67732
M204 S5000
M205 X30 Y30
G0 F3600 X127.829 Y121.606
M204 S500
M205 X20 Y20
G1 F1800 X116.392 Y110.17 E13.21526
M204 S5000
M205 X30 Y30
G0 F3600 X115.826 Y110.17
M204 S500
M205 X20 Y20
G1 F1800 X127.829 Y122.172 E13.77982
M204 S5000
M205 X30 Y30
G0 F3600 X127.829 Y122.738
M204 S500
M205 X20 Y20
G1 F1800 X115.261 Y110.17 E14.37098
M204 S5000
M205 X30 Y30
G0 F3600 X114.695 Y110.17
M204 S500
M205 X20 Y20
G1 F1800 X127.829 Y123.303 E14.98874
M204 S5000
M205 X30 Y30
G0 F3600 X127.829 Y123.869
M204 S500
M205 X20 Y20
G1 F1800 X114.129 Y110.17 E15.63312
M204 S5000
M205 X30 Y30
G0 F3600 X113.564 Y110.17
M204 S500
M205 X20 Y20
G1 F1800 X127.829 Y124.435 E16.3041
M204 S5000
M205 X30 Y30
G0 F3600 X127.829 Y125
M204 S500
M205 X20 Y20
G1 F1800 X112.998 Y110.17 E17.00168
M204 S5000
M205 X30 Y30
G0 F3600 X112.432 Y110.17
M204 S500
M205 X20 Y20
G1 F1800 X127.829 Y125.566 E17.72589
M204 S5000
M205 X30 Y30
G0 F3600 X127.829 Y126.132
M204 S500
M205 X20 Y20
G1 F1800 X111.867 Y110.17 E18.47669
M204 S5000
M205 X30 Y30
G0 F3600 X111.301 Y110.17
M204 S500
M205 X20 Y20
G1 F1800 X127.829 Y126.697 E19.25409
M204 S5000
M205 X30 Y30
G0 F3600 X127.829 Y127.263
M204 S500
M205 X20 Y20
G1 F1800 X110.735 Y110.17 E20.05812
M204 S5000
M205 X30 Y30
G0 F3600 X110.169 Y110.169
M204 S500
M205 X20 Y20
G1 F1800 X127.829 Y127.829 E20.88879
M204 S5000
M205 X30 Y30
G0 F3600 X127.263 Y127.829
M204 S500
M205 X20 Y20
G1 F1800 X110.169 Y110.735 E21.69284
M204 S5000
M205 X30 Y30
G0 F3600 X110.169 Y111.3
M204 S500
M205 X20 Y20
G1 F1800 X126.697 Y127.829 E22.47029
M204 S5000
M205 X30 Y30
G0 F3600 X126.132 Y127.829
M204 S500
M205 X20 Y20
G1 F1800 X110.169 Y111.866 E23.22114
M204 S5000
M205 X30 Y30
G0 F3600 X110.169 Y112.432
M204 S500
M205 X20 Y20
G1 F1800 X125.566 Y127.829 E23.94537
M204 S5000
M205 X30 Y30
G0 F3600 X125 Y127.829
M204 S500
M205 X20 Y20
G1 F1800 X110.169 Y112.997 E24.643
M204 S5000
M205 X30 Y30
G0 F3600 X110.169 Y113.563
M204 S500
M205 X20 Y20
G1 F1800 X124.435 Y127.829 E25.31402
M204 S5000
M205 X30 Y30
G0 F3600 X123.869 Y127.829
M204 S500
M205 X20 Y20
G1 F1800 X110.169 Y114.129 E25.95843
M204 S5000
M205 X30 Y30
G0 F3600 X110.169 Y114.694
M204 S500
M205 X20 Y20
G1 F1800 X123.303 Y127.829 E26.57624
M204 S5000
M205 X30 Y30
G0 F3600 X122.738 Y127.829
M204 S500
M205 X20 Y20
G1 F1800 X110.169 Y115.26 E27.16744
M204 S5000
M205 X30 Y30
G0 F3600 X110.169 Y115.826
M204 S500
M205 X20 Y20
G1 F1800 X122.172 Y127.829 E27.73203
M204 S5000
M205 X30 Y30
G0 F3600 X121.606 Y127.829
M204 S500
M205 X20 Y20
G1 F1800 X110.169 Y116.391 E28.27001
M204 S5000
M205 X30 Y30
G0 F3600 X110.169 Y116.957
M204 S500
M205 X20 Y20
G1 F1800 X121.041 Y127.829 E28.7814
M204 S5000
M205 X30 Y30
G0 F3600 X120.475 Y127.829
M204 S500
M205 X20 Y20
G1 F1800 X110.169 Y117.523 E29.26616
M204 S5000
M205 X30 Y30
G0 F3600 X110.169 Y118.088
M204 S500
M205 X20 Y20
G1 F1800 X119.909 Y127.829 E29.72433
M204 S5000
M205 X30 Y30
G0 F3600 X119.344 Y127.829
M204 S500
M205 X20 Y20
G1 F1800 X110.169 Y118.654 E30.15589
M204 S5000
M205 X30 Y30
G0 F3600 X110.169 Y119.22
M204 S500
M205 X20 Y20
G1 F1800 X118.778 Y127.829 E30.56083
M204 S5000
M205 X30 Y30
G0 F3600 X118.212 Y127.829
M204 S500
M205 X20 Y20
G1 F1800 X110.169 Y119.786 E30.93915
M204 S5000
M205 X30 Y30
G0 F3600 X110.169 Y120.351
M204 S500
M205 X20 Y20
G1 F1800 X117.647 Y127.829 E31.29089
M204 S5000
M205 X30 Y30
G0 F3600 X117.081 Y127.829
M204 S500
M205 X20 Y20
G1 F1800 X110.169 Y120.917 E31.61601
M204 S5000
M205 X30 Y30
G0 F3600 X110.169 Y121.483
M204 S500
M205 X20 Y20
G1 F1800 X116.515 Y127.829 E31.91451
M204 S5000
M205 X30 Y30
G0 F3600 X115.949 Y127.829
M204 S500
M205 X20 Y20
G1 F1800 X110.169 Y122.048 E32.1864
M204 S5000
M205 X30 Y30
G0 F3600 X110.169 Y122.614
M204 S500
M205 X20 Y20
G1 F1800 X115.384 Y127.829 E32.4317
M204 S5000
M205 X30 Y30
G0 F3600 X114.818 Y127.829
M204 S500
M205 X20 Y20
G1 F1800 X110.169 Y123.18 E32.65038
M204 S5000
M205 X30 Y30
G0 F3600 X110.169 Y123.745
M204 S500
M205 X20 Y20
G1 F1800 X114.252 Y127.829 E32.84245
M204 S5000
M205 X30 Y30
G0 F3600 X113.687 Y127.829
M204 S500
M205 X20 Y20
G1 F1800 X110.169 Y124.311 E33.00793
M204 S5000
M205 X30 Y30
G0 F3600 X110.169 Y124.877
M204 S500
M205 X20 Y20
G1 F1800 X113.121 Y127.829 E33.14678
M204 S5000
M205 X30 Y30
G0 F3600 X112.555 Y127.829
M204 S500
M205 X20 Y20
G1 F1800 X110.169 Y125.442 E33.25903
M204 S5000
M205 X30 Y30
G0 F3600 X110.169 Y126.008
M204 S500
M205 X20 Y20
G1 F1800 X111.99 Y127.829 E33.34469
M204 S5000
M205 X30 Y30
G0 F3600 X111.424 Y127.829
M204 S500
M205 X20 Y20
G1 F1800 X110.169 Y126.574 E33.40372
M204 S5000
M205 X30 Y30
G0 F3600 X110.169 Y127.139
M204 S500
M205 X20 Y20
G1 F1800 X110.858 Y127.829 E33.43615
M204 S5000
M205 X30 Y30
G0 F3600 X110.293 Y127.829
M204 S500
M205 X20 Y20
G1 F1800 X110.169 Y127.705 E33.44198
;TIME_ELAPSED:44.534426
G1 F2400 E28.44198
M204 S4000
; Ender 3 Custom End G-code
G4 ; Wait
M220 S100 ; Reset Speed factor override percentage to default (100%)
M221 S100 ; Reset Extrude factor override percentage to default (100%)
G91 ; Set coordinates to relative
G1 F1800 E-3 ; Retract filament 3 mm to prevent oozing
G1 F3000 Z20 ; Move Z Axis up 20 mm to allow filament ooze freely
G90 ; Set coordinates to absolute
G1 X0 Y235 F1000 ; Move Heat Bed to the front for easy print removal
M84 ; Disable stepper motors
; End of custom end GCode
M82 ;absolute extrusion mode
;End of Gcode
