;FLAVOR:Marlin
;TIME:6666
;Filament used: 0m
;Layer height: 0.15

;Generated with Cura_SteamEngine 4.0.0
M140 S60
M105
M190 S60
M104 S200
M105
M109 S200
M82 ;absolute extrusion mode
M140 S60
M105
M190 S60
M104 S200
M105
M109 S200
G28 ; Home all axes
G92 E0 ; Reset Extruder
G1 Z2.0 F3000 ; Move Z Axis up little to prevent scratching of Heat Bed
G1 F1000 E10 ; extrude filament 10 mm
G92 E0
G1 F2400 E-5
;LAYER_COUNT:2
;LAYER:0
M107
M204 S5000
M205 X30 Y30
;MESH:row-right.stl
G0 F3600 X203.4 Y53.4 Z0.2
M204 S500
M205 X20 Y20
;TYPE:WALL-INNER
G1 F2400 E0
G1 F1800 X184.6 Y53.4 E0.62529
G1 X184.6 Y34.6 E1.25058
G1 X203.4 Y34.6 E1.87587
G1 X203.4 Y53.4 E2.50116
M204 S5000
M205 X30 Y30
G0 F3600 X203.8 Y53.8
M204 S500
M205 X20 Y20
;TYPE:WALL-OUTER
G1 F1800 X184.2 Y53.8 E3.15306
G1 X184.2 Y34.2 E3.80496
G1 X203.8 Y34.2 E4.45686
G1 X203.8 Y53.8 E5.10876
M204 S5000
M205 X30 Y30
G0 F3600 X203.6 Y53.8
G0 X203.01 Y53.01
M204 S500
M205 X20 Y20
;TYPE:SKIN
G1 F1800 X184.99 Y53.01 E5.7081
G1 X184.99 Y34.99 E6.30745
G1 X203.01 Y34.99 E6.9068
G1 X203.01 Y53.01 E7.50615
M204 S5000
M205 X30 Y30
G0 F3600 X202.829 Y35.386
M204 S500
M205 X20 Y20
G1 F1800 X202.612 Y35.17 E7.51633
M204 S5000
M205 X30 Y30
G0 F3600 X202.047 Y35.17
M204 S500
M205 X20 Y20
G1 F1800 X202.829 Y35.952 E7.55311
M204 S5000
M205 X30 Y30
G0 F3600 X202.829 Y36.517
M204 S500
M205 X20 Y20
G1 F1800 X201.481 Y35.17 E7.6165
M204 S5000
M205 X30 Y30
G0 F3600 X200.915 Y35.17
M204 S500
M205 X20 Y20
G1 F1800 X202.829 Y37.083 E7.7065
M204 S5000
M205 X30 Y30
G0 F3600 X202.829 Y37.649
M204 S500
M205 X20 Y20
G1 F1800 X200.35 Y35.17 E7.82311
M204 S5000
M205 X30 Y30
G0 F3600 X199.784 Y35.17
M204 S500
M205 X20 Y20
G1 F1800 X202.829 Y38.214 E7.96631
M204 S5000
M205 X30 Y30
G0 F3600 X202.829 Y38.78
M204 S500
M205 X20 Y20
G1 F1800 X199.218 Y35.17 E8.13614
M204 S5000
M205 X30 Y30
G0 F3600 X198.653 Y35.17
M204 S500
M205 X20 Y20
G1 F1800 X202.829 Y39.346 E8.33256
M204 S5000
M205 X30 Y30
G0 F3600 X202.829 Y39.911
M204 S500
M205 X20 Y20
G1 F1800 X198.087 Y35.17 E8.55559
M204 S5000
M205 X30 Y30
G0 F3600 X197.521 Y35.17
M204 S500
M205 X20 Y20
G1 F1800 X202.829 Y40.477 E8.80524
M204 S5000
M205 X30 Y30
G0 F3600 X202.829 Y41.043
M204 S500
M205 X20 Y20
G1 F1800 X196.956 Y35.17 E9.08148
M204 S5000
M205 X30 Y30
G0 F3600 X196.39 Y35.17
M204 S500
M205 X20 Y20
G1 F1800 X202.829 Y41.608 E9.38433
M204 S5000
M205 X30 Y30
G0 F3600 X202.829 Y42.174
M204 S500
M205 X20 Y20
G1 F1800 X195.824 Y35.17 E9.7138
M204 S5000
M205 X30 Y30
G0 F3600 X195.259 Y35.17
M204 S500
M205 X20 Y20
G1 F1800 X202.829 Y42.74 E10.06987
M204 S5000
M205 X30 Y30
G0 F3600 X202.829 Y43.306
M204 S500
M205 X20 Y20
G1 F1800 X194.693 Y35.17 E10.45256
M204 S5000
M205 X30 Y30
G0 F3600 X194.127 Y35.17
M204 S500
M205 X20 Y20
G1 F1800 X202.829 Y43.871 E10.86186
M204 S5000
M205 X30 Y30
G0 F3600 X202.829 Y44.437
M204 S500
M205 X20 Y20
G1 F1800 X193.561 Y35.17 E11.29777
M204 S5000
M205 X30 Y30
G0 F3600 X192.996 Y35.17
M204 S500
M205 X20 Y20
G1 F1800 X202.829 Y45.003 E11.76029
M204 S5000
M205 X30 Y30
G0 F3600 X202.829 Y45.568
M204 S500
M205 X20 Y20
G1 F1800 X192.43 Y35.17 E12.2494
M204 S5000
M205 X30 Y30
G0 F3600 X191.864 Y35.17
M204 S500
M205 X20 Y20
G1 F1800 X202.829 Y46.134 E12.76514
M204 S5000
M205 X30 Y30
G0 F3600 X202.829 Y46.7
M204 S500
M205 X20 Y20
G1 F1800 X191.299 Y35.17 E13.30747
M204 S5000
M205 X30 Y30
G0 F3600 X190.733 Y35.17
M204 S500
M205 X20 Y20
G1 F1800 X202.829 Y47.265 E13.87641
M204 S5000
M205 X30 Y30
G0 F3600 X202.829 Y47.831
M204 S500
M205 X20 Y20
G1 F1800 X190.167 Y35.17 E14.47196
M204 S5000
M205 X30 Y30
G0 F3600 X189.602 Y35.17
M204 S500
M205 X20 Y20
G1 F1800 X202.829 Y48.397 E15.09412
M204 S5000
M205 X30 Y30
G0 F3600 X202.829 Y48.962
M204 S500
M205 X20 Y20
G1 F1800 X189.036 Y35.17 E15.74288
M204 S5000
M205 X30 Y30
G0 F3600 X188.47 Y35.17
M204 S500
M205 X20 Y20
G1 F1800 X202.829 Y49.528 E16.41826
M204 S5000
M205 X30 Y30
G0 F3600 X202.829 Y50.094
M204 S500
M205 X20 Y20
G1 F1800 X187.905 Y35.17 E17.12024
M204 S5000
M205 X30 Y30
G0 F3600 X187.339 Y35.17
M204 S500
M205 X20 Y20
G1 F1800 X202.829 Y50.659 E17.84882
M204 S5000
M205 X30 Y30
G0 F3600 X202.829 Y51.225
M204 S500
M205 X20 Y20
G1 F1800 X186.773 Y35.17 E18.60402
M204 S5000
M205 X30 Y30
G0 F3600 X186.208 Y35.17
M204 S500
M205 X20 Y20
G1 F1800 X202.829 Y51.791 E19.38582
M204 S5000
M205 X30 Y30
G0 F3600 X202.829 Y52.357
M204 S500
M205 X20 Y20
G1 F1800 X185.642 Y35.17 E20.19424
M204 S5000
M205 X30 Y30
G0 F3600 X185.169 Y35.262
M204 S500
M205 X20 Y20
G1 F1800 X202.735 Y52.829 E21.02052
M204 S5000
M205 X30 Y30
G0 F3600 X202.17 Y52.829
M204 S500
M205 X20 Y20
G1 F1800 X185.169 Y35.828 E21.82019
M204 S5000
M205 X30 Y30
G0 F3600 X185.169 Y36.394
M204 S500
M205 X20 Y20
G1 F1800 X201.604 Y52.829 E22.59324
M204 S5000
M205 X30 Y30
G0 F3600 X201.038 Y52.829
M204 S500
M205 X20 Y20
G1 F1800 X185.169 Y36.959 E23.3397
M204 S5000
M205 X30 Y30
G0 F3600 X185.169 Y37.525
M204 S500
M205 X20 Y20
G1 F1800 X200.473 Y52.829 E24.05955
M204 S5000
M205 X30 Y30
G0 F3600 X199.907 Y52.829
M204 S500
M205 X20 Y20
G1 F1800 X185.169 Y38.091 E24.75278
M204 S5000
M205 X30 Y30
G0 F3600 X185.169 Y38.656
M204 S500
M205 X20 Y20
G1 F1800 X199.341 Y52.829 E25.41941
M204 S5000
M205 X30 Y30
G0 F3600 X198.776 Y52.829
M204 S500
M205 X20 Y20
G1 F1800 X185.169 Y39.222 E26.05944
M204 S5000
M205 X30 Y30
G0 F3600 X185.169 Y39.788
M204 S500
M205 X20 Y20
G1 F1800 X198.21 Y52.829 E26.67285
M204 S5000
M205 X30 Y30
G0 F3600 X197.644 Y52.829
M204 S500
M205 X20 Y20
G1 F1800 X185.169 Y40.353 E27.25966
M204 S5000
M205 X30 Y30
G0 F3600 X185.169 Y40.919
M204 S500
M205 X20 Y20
G1 F1800 X197.079 Y52.829 E27.81987
M204 S5000
M205 X30 Y30
G0 F3600 X196.513 Y52.829
M204 S500
M205 X20 Y20
G1 F1800 X185.169 Y41.485 E28.35346
M204 S5000
M205 X30 Y30
G0 F3600 X185.169 Y42.05
M204 S500
M205 X20 Y20
G1 F1800 X195.947 Y52.829 E28.86045
M204 S5000
M205 X30 Y30
G0 F3600 X195.382 Y52.829
M204 S500
M205 X20 Y20
G1 F1800 X185.169 Y42.616 E29.34083
M204 S5000
M205 X30 Y30
G0 F3600 X185.169 Y43.182
M204 S500
M205 X20 Y20
G1 F1800 X194.816 Y52.829 E29.7946
M204 S5000
M205 X30 Y30
G0 F3600 X194.25 Y52.829
M204 S500
M205 X20 Y20
G1 F1800 X185.169 Y43.747 E30.22176
M204 S5000
M205 X30 Y30
G0 F3600 X185.169 Y44.313
M204 S500
M205 X20 Y20
G1 F1800 X193.685 Y52.829 E30.62233
M204 S5000
M205 X30 Y30
G0 F3600 X193.119 Y52.829
M204 S500
M205 X20 Y20
G1 F1800 X185.169 Y44.879 E30.99627
M204 S5000
M205 X30 Y30
G0 F3600 X185.169 Y45.445
M204 S500
M205 X20 Y20
G1 F1800 X192.553 Y52.829 E31.3436
M204 S5000
M205 X30 Y30
G0 F3600 X191.987 Y52.829
M204 S500
M205 X20 Y20
G1 F1800 X185.169 Y46.01 E31.66432
M204 S5000
M205 X30 Y30
G0 F3600 X185.169 Y46.576
M204 S500
M205 X20 Y20
G1 F1800 X191.422 Y52.829 E31.95844
M204 S5000
M205 X30 Y30
G0 F3600 X190.856 Y52.829
M204 S500
M205 X20 Y20
G1 F1800 X185.169 Y47.142 E32.22594
M204 S5000
M205 X30 Y30
G0 F3600 X185.169 Y47.707
M204 S500
M205 X20 Y20
G1 F1800 X190.29 Y52.829 E32.46684
M204 S5000
M205 X30 Y30
G0 F3600 X189.725 Y52.829
M204 S500
M205 X20 Y20
G1 F1800 X185.169 Y48.273 E32.68114
M204 S5000
M205 X30 Y30
G0 F3600 X185.169 Y48.839
M204 S500
M205 X20 Y20
G1 F1800 X189.159 Y52.829 E32.86881
M204 S5000
M205 X30 Y30
G0 F3600 X188.593 Y52.829
M204 S500
M205 X20 Y20
G1 F1800 X185.169 Y49.404 E33.02989
M204 S5000
M205 X30 Y30
G0 F3600 X185.169 Y49.97
M204 S500
M205 X20 Y20
G1 F1800 X188.028 Y52.829 E33.16437
M204 S5000
M205 X30 Y30
G0 F3600 X187.462 Y52.829
M204 S500
M205 X20 Y20
G1 F1800 X185.169 Y50.536 E33.27223
M204 S5000
M205 X30 Y30
G0 F3600 X185.169 Y51.101
M204 S500
M205 X20 Y20
G1 F1800 X186.896 Y52.829 E33.35348
M204 S5000
M205 X30 Y30
G0 F3600 X186.331 Y52.829
M204 S500
M205 X20 Y20
G1 F1800 X185.169 Y51.667 E33.40814
M204 S5000
M205 X30 Y30
G0 F3600 X185.169 Y52.233
M204 S500
M205 X20 Y20
G1 F1800 X185.765 Y52.829 E33.43617
G1 X185.835 Y52.899
M204 S5000
M205 X30 Y30
G1 F2400 E28.43617
G0 F3600 X203.33 Y53.38
G0 X203.33 Y54.665
G0 X203.33 Y108.335
G0 X203.33 Y109.62
G0 X203.33 Y128.33
G0 X203.4 Y128.4
M204 S500
M205 X20 Y20
;TYPE:WALL-INNER
G1 F2400 E33.43617
G1 F1800 X184.6 Y128.4 E34.06146
G1 X184.6 Y109.6 E34.68676
G1 X203.4 Y109.6 E35.31205
G1 X203.4 Y128.4 E35.93734
M204 S5000
M205 X30 Y30
G0 F3600 X203.8 Y128.8
M204 S500
M205 X20 Y20
;TYPE:WALL-OUTER
G1 F1800 X184.2 Y128.8 E36.58924
G1 X184.2 Y109.2 E37.24113
G1 X203.8 Y109.2 E37.89303
G1 X203.8 Y128.8 E38.54493
M204 S5000
M205 X30 Y30
G0 F3600 X203.6 Y128.8
G0 X203.01 Y128.01
M204 S500
M205 X20 Y20
;TYPE:SKIN
G1 F1800 X184.99 Y128.01 E39.14428
G1 X184.99 Y109.99 E39.74363
G1 X203.01 Y109.99 E40.34297
G1 X203.01 Y128.01 E40.94232
M204 S5000
M205 X30 Y30
G0 F3600 X202.829 Y110.622
M204 S500
M205 X20 Y20
G1 F1800 X202.376 Y110.17 E40.96361
M204 S5000
M205 X30 Y30
G0 F3600 X201.811 Y110.17
M204 S500
M205 X20 Y20
G1 F1800 X202.829 Y111.188 E41.01149
M204 S5000
M205 X30 Y30
G0 F3600 X202.829 Y111.753
M204 S500
M205 X20 Y20
G1 F1800 X201.245 Y110.17 E41.08597
M204 S5000
M205 X30 Y30
G0 F3600 X200.679 Y110.17
M204 S500
M205 X20 Y20
G1 F1800 X202.829 Y112.319 E41.18708
M204 S5000
M205 X30 Y30
G0 F3600 X202.829 Y112.885
M204 S500
M205 X20 Y20
G1 F1800 X200.114 Y110.17 E41.31478
M204 S5000
M205 X30 Y30
G0 F3600 X199.548 Y110.17
M204 S500
M205 X20 Y20
G1 F1800 X202.829 Y113.451 E41.46911
M204 S5000
M205 X30 Y30
G0 F3600 X202.829 Y114.016
M204 S500
M205 X20 Y20
G1 F1800 X198.982 Y110.17 E41.65004
M204 S5000
M205 X30 Y30
G0 F3600 X198.416 Y110.17
M204 S500
M205 X20 Y20
G1 F1800 X202.829 Y114.582 E41.85759
M204 S5000
M205 X30 Y30
G0 F3600 X202.829 Y115.148
M204 S500
M205 X20 Y20
G1 F1800 X197.851 Y110.17 E42.09174
M204 S5000
M205 X30 Y30
G0 F3600 X197.285 Y110.17
M204 S500
M205 X20 Y20
G1 F1800 X202.829 Y115.713 E42.35249
M204 S5000
M205 X30 Y30
G0 F3600 X202.829 Y116.279
M204 S500
M205 X20 Y20
G1 F1800 X196.719 Y110.17 E42.63986
M204 S5000
M205 X30 Y30
G0 F3600 X196.154 Y110.17
M204 S500
M205 X20 Y20
G1 F1800 X202.829 Y116.845 E42.95383
M204 S5000
M205 X30 Y30
G0 F3600 X202.829 Y117.41
M204 S500
M205 X20 Y20
G1 F1800 X195.588 Y110.17 E43.2944
M204 S5000
M205 X30 Y30
G0 F3600 X195.022 Y110.17
M204 S500
M205 X20 Y20
G1 F1800 X202.829 Y117.976 E43.6616
M204 S5000
M205 X30 Y30
G0 F3600 X202.829 Y118.542
M204 S500
M205 X20 Y20
G1 F1800 X194.457 Y110.17 E44.05539
M204 S5000
M205 X30 Y30
G0 F3600 X193.891 Y110.17
M204 S500
M205 X20 Y20
G1 F1800 X202.829 Y119.107 E44.47578
M204 S5000
M205 X30 Y30
G0 F3600 X202.829 Y119.673
M204 S500
M205 X20 Y20
G1 F1800 X193.325 Y110.17 E44.9228
M204 S5000
M205 X30 Y30
G0 F3600 X192.76 Y110.17
M204 S500
M205 X20 Y20
G1 F1800 X202.829 Y120.239 E45.39641
M204 S5000
M205 X30 Y30
G0 F3600 X202.829 Y120.804
M204 S500
M205 X20 Y20
G1 F1800 X192.194 Y110.17 E45.89663
M204 S5000
M205 X30 Y30
G0 F3600 X191.628 Y110.17
M204 S500
M205 X20 Y20
G1 F1800 X202.829 Y121.37 E46.42347
M204 S5000
M205 X30 Y30
G0 F3600 X202.829 Y121.936
M204 S500
M205 X20 Y20
G1 F1800 X191.063 Y110.17 E46.9769
M204 S5000
M205 X30 Y30
G0 F3600 X190.497 Y110.17
M204 S500
M205 X20 Y20
G1 F1800 X202.829 Y122.502 E47.55696
M204 S5000
M205 X30 Y30
G0 F3600 X202.829 Y123.067
M204 S500
M205 X20 Y20
G1 F1800 X189.931 Y110.17 E48.16362
M204 S5000
M205 X30 Y30
G0 F3600 X189.366 Y110.17
M204 S500
M205 X20 Y20
G1 F1800 X202.829 Y123.633 E48.79688
M204 S5000
M205 X30 Y30
G0 F3600 X202.829 Y124.199
M204 S500
M205 X20 Y20
G1 F1800 X188.8 Y110.17 E49.45676
M204 S5000
M205 X30 Y30
G0 F3600 X188.234 Y110.17
M204 S500
M205 X20 Y20
G1 F1800 X202.829 Y124.764 E50.14324
M204 S5000
M205 X30 Y30
G0 F3600 X202.829 Y125.33
M204 S500
M205 X20 Y20
G1 F1800 X187.668 Y110.17 E50.85634
M204 S5000
M205 X30 Y30
G0 F3600 X187.103 Y110.17
M204 S500
M205 X20 Y20
G1 F1800 X202.829 Y125.896 E51.59605
M204 S5000
M205 X30 Y30
G0 F3600 X202.829 Y126.461
M204 S500
M205 X20 Y20
G1 F1800 X186.537 Y110.17 E52.36235
M204 S5000
M205 X30 Y30
G0 F3600 X185.971 Y110.17
M204 S500
M205 X20 Y20
G1 F1800 X202.829 Y127.027 E53.15527
M204 S5000
M205 X30 Y30
G0 F3600 X202.829 Y127.593
M204 S500
M205 X20 Y20
G1 F1800 X185.406 Y110.17 E53.9748
M204 S5000
M205 X30 Y30
G0 F3600 X185.169 Y110.498
M204 S500
M205 X20 Y20
G1 F1800 X202.499 Y127.829 E54.78997
M204 S5000
M205 X30 Y30
G0 F3600 X201.934 Y127.829
M204 S500
M205 X20 Y20
G1 F1800 X185.169 Y111.064 E55.57855
M204 S5000
M205 X30 Y30
G0 F3600 X185.169 Y111.63
M204 S500
M205 X20 Y20
G1 F1800 X201.368 Y127.829 E56.3405
M204 S5000
M205 X30 Y30
G0 F3600 X200.802 Y127.829
M204 S500
M205 X20 Y20
G1 F1800 X185.169 Y112.195 E57.07585
M204 S5000
M205 X30 Y30
G0 F3600 X185.169 Y112.761
M204 S500
M205 X20 Y20
G1 F1800 X200.237 Y127.829 E57.7846
M204 S5000
M205 X30 Y30
G0 F3600 X199.671 Y127.829
M204 S500
M205 X20 Y20
G1 F1800 X185.169 Y113.327 E58.46673
M204 S5000
M205 X30 Y30
G0 F3600 X185.169 Y113.892
M204 S500
M205 X20 Y20
G1 F1800 X199.105 Y127.829 E59.12226
M204 S5000
M205 X30 Y30
G0 F3600 X198.54 Y127.829
M204 S500
M205 X20 Y20
G1 F1800 X185.169 Y114.458 E59.75119
M204 S5000
M205 X30 Y30
G0 F3600 X185.169 Y115.024
M204 S500
M205 X20 Y20
G1 F1800 X197.974 Y127.829 E60.3535
M204 S5000
M205 X30 Y30
G0 F3600 X197.408 Y127.829
M204 S500
M205 X20 Y20
G1 F1800 X185.169 Y115.59 E60.92919
M204 S5000
M205 X30 Y30
G0 F3600 X185.169 Y116.155
M204 S500
M205 X20 Y20
G1 F1800 X196.842 Y127.829 E61.47827
M204 S5000
M205 X30 Y30
G0 F3600 X196.277 Y127.829
M204 S500
M205 X20 Y20
G1 F1800 X185.169 Y116.721 E62.00076
M204 S5000
M205 X30 Y30
G0 F3600 X185.169 Y117.287
M204 S500
M205 X20 Y20
G1 F1800 X195.711 Y127.829 E62.49662
M204 S5000
M205 X30 Y30
G0 F3600 X195.145 Y127.829
M204 S500
M205 X20 Y20
G1 F1800 X185.169 Y117.852 E62.96588
M204 S5000
M205 X30 Y30
G0 F3600 X185.169 Y118.418
M204 S500
M205 X20 Y20
G1 F1800 X194.58 Y127.829 E63.40855
M204 S5000
M205 X30 Y30
G0 F3600 X194.014 Y127.829
M204 S500
M205 X20 Y20
G1 F1800 X185.169 Y118.984 E63.82459
M204 S5000
M205 X30 Y30
G0 F3600 X185.169 Y119.549
M204 S500
M205 X20 Y20
G1 F1800 X193.448 Y127.829 E64.21403
M204 S5000
M205 X30 Y30
G0 F3600 X192.883 Y127.829
M204 S500
M205 X20 Y20
G1 F1800 X185.169 Y120.115 E64.57688
M204 S5000
M205 X30 Y30
G0 F3600 X185.169 Y120.681
M204 S500
M205 X20 Y20
G1 F1800 X192.317 Y127.829 E64.9131
M204 S5000
M205 X30 Y30
G0 F3600 X191.751 Y127.829
M204 S500
M205 X20 Y20
G1 F1800 X185.169 Y121.246 E65.22272
M204 S5000
M205 X30 Y30
G0 F3600 X185.169 Y121.812
M204 S500
M205 X20 Y20
G1 F1800 X191.186 Y127.829 E65.50574
M204 S5000
M205 X30 Y30
G0 F3600 X190.62 Y127.829
M204 S500
M205 X20 Y20
G1 F1800 X185.169 Y122.378 E65.76214
M204 S5000
M205 X30 Y30
G0 F3600 X185.169 Y122.943
M204 S500
M205 X20 Y20
G1 F1800 X190.054 Y127.829 E65.99194
M204 S5000
M205 X30 Y30
G0 F3600 X189.489 Y127.829
M204 S500
M205 X20 Y20
G1 F1800 X185.169 Y123.509 E66.19513
M204 S5000
M205 X30 Y30
G0 F3600 X185.169 Y124.075
M204 S500
M205 X20 Y20
G1 F1800 X188.923 Y127.829 E66.37171
M204 S5000
M205 X30 Y30
G0 F3600 X188.357 Y127.829
M204 S500
M205 X20 Y20
G1 F1800 X185.169 Y124.641 E66.52167
M204 S5000
M205 X30 Y30
G0 F3600 X185.169 Y125.206
M204 S500
M205 X20 Y20
G1 F1800 X187.792 Y127.829 E66.64504
M204 S5000
M205 X30 Y30
G0 F3600 X187.226 Y127.829
M204 S500
M205 X20 Y20
G1 F1800 X185.169 Y125.772 E66.7418
M204 S5000
M205 X30 Y30
G0 F3600 X185.169 Y126.338
M204 S500
M205 X20 Y20
G1 F1800 X186.66 Y127.829 E66.81193
M204 S5000
M205 X30 Y30
G0 F3600 X186.094 Y127.829
M204 S500
M205 X20 Y20
G1 F1800 X185.169 Y126.903 E66.85546
M204 S5000
M205 X30 Y30
G0 F3600 X185.169 Y127.469
M204 S500
M205 X20 Y20
G1 F1800 X185.529 Y127.829 E66.8724
M204 S5000
M205 X30 Y30
G1 F2400 E61.8724
G0 F3600 X203.33 Y128.38
G0 X203.33 Y129.665
G0 X203.33 Y183.335
G0 X203.33 Y184.62
G0 X203.33 Y203.33
G0 X203.4 Y203.4
M204 S500
M205 X20 Y20
;TYPE:WALL-INNER
G1 F2400 E66.8724
G1 F1800 X184.6 Y203.4 E67.49769
G1 X184.6 Y184.6 E68.12298
G1 X203.4 Y184.6 E68.74827
G1 X203.4 Y203.4 E69.37356
M204 S5000
M205 X30 Y30
G0 F3600 X203.8 Y203.8
M204 S500
M205 X20 Y20
;TYPE:WALL-OUTER
G1 F1800 X184.2 Y203.8 E70.02546
G1 X184.2 Y184.2 E70.67736
G1 X203.8 Y184.2 E71.32925
G1 X203.8 Y203.8 E71.98115
M204 S5000
M205 X30 Y30
G0 F3600 X203.6 Y203.8
G0 X203.01 Y203.01
M204 S500
M205 X20 Y20
;TYPE:SKIN
