;FLAVOR:Marlin
;TIME:6666
;Filament used: 0m
;Layer height: 0.15

;Generated with Cura_SteamEngine 4.0.0
M140 S60
M105
M190 S60
M104 S200
M105
M109 S200
M82 ;absolute extrusion mode
M140 S60
M105
M190 S60
M104 S200
M105
M109 S200
G28 ; Home all axes
G92 E0 ; Reset Extruder
G1 Z2.0 F3000 ; Move Z Axis up little to prevent scratching of Heat Bed
G1 F1000 E10 ; extrude filament 10 mm
G92 E0
G1 F2400 E-5
;LAYER_COUNT:2
;LAYER:0
M107
M204 S5000
M205 X30 Y30
;MESH:row-col.stl
G0 F3600 X53.4 Y53.4 Z0.2
M204 S500
M205 X20 Y20
;TYPE:WALL-INNER
G1 F2400 E0
G1 F1800 X34.6 Y53.4 E0.62529
G1 X34.6 Y34.6 E1.25058
G1 X53.4 Y34.6 E1.87587
G1 X53.4 Y53.4 E2.50116
M204 S5000
M205 X30 Y30
G0 F3600 X53.8 Y53.8
M204 S500
M205 X20 Y20
;TYPE:WALL-OUTER
G1 F1800 X34.2 Y53.8 E3.15306
G1 X34.2 Y34.2 E3.80496
G1 X53.8 Y34.2 E4.45686
G1 X53.8 Y53.8 E5.10876
M204 S5000
M205 X30 Y30
G0 F3600 X53.6 Y53.8
G0 X53.01 Y53.01
M204 S500
M205 X20 Y20
;TYPE:SKIN
G1 F1800 X34.99 Y53.01 E5.7081
G1 X34.99 Y34.99 E6.30745
G1 X53.01 Y34.99 E6.9068
G1 X53.01 Y53.01 E7.50615
M204 S5000
M205 X30 Y30
G0 F3600 X52.829 Y35.293
M204 S500
M205 X20 Y20
G1 F1800 X52.706 Y35.17 E7.51193
M204 S5000
M205 X30 Y30
G0 F3600 X52.14 Y35.17
M204 S500
M205 X20 Y20
G1 F1800 X52.829 Y35.858 E7.54432
M204 S5000
M205 X30 Y30
G0 F3600 X52.829 Y36.424
M204 S500
M205 X20 Y20
G1 F1800 X51.574 Y35.17 E7.60333
M204 S5000
M205 X30 Y30
G0 F3600 X51.009 Y35.17
M204 S500
M205 X20 Y20
G1 F1800 X52.829 Y36.99 E7.68893
M204 S5000
M205 X30 Y30
G0 F3600 X52.829 Y37.555
M204 S500
M205 X20 Y20
G1 F1800 X50.443 Y35.17 E7.80114
M204 S5000
M205 X30 Y30
G0 F3600 X49.877 Y35.17
M204 S500
M205 X20 Y20
G1 F1800 X52.829 Y38.121 E7.93997
M204 S5000
M205 X30 Y30
G0 F3600 X52.829 Y38.687
M204 S500
M205 X20 Y20
G1 F1800 X49.312 Y35.17 E8.1054
M204 S5000
M205 X30 Y30
G0 F3600 X48.746 Y35.17
M204 S500
M205 X20 Y20
G1 F1800 X52.829 Y39.252 E8.29743
M204 S5000
M205 X30 Y30
G0 F3600 X52.829 Y39.818
M204 S500
M205 X20 Y20
G1 F1800 X48.18 Y35.17 E8.51608
M204 S5000
M205 X30 Y30
G0 F3600 X47.615 Y35.17
M204 S500
M205 X20 Y20
G1 F1800 X52.829 Y40.384 E8.76133
M204 S5000
M205 X30 Y30
G0 F3600 X52.829 Y40.949
M204 S500
M205 X20 Y20
G1 F1800 X47.049 Y35.17 E9.03318
M204 S5000
M205 X30 Y30
G0 F3600 X46.483 Y35.17
M204 S500
M205 X20 Y20
G1 F1800 X52.829 Y41.515 E9.33165
M204 S5000
M205 X30 Y30
G0 F3600 X52.829 Y42.081
M204 S500
M205 X20 Y20
G1 F1800 X45.918 Y35.17 E9.65672
M204 S5000
M205 X30 Y30
G0 F3600 X45.352 Y35.17
M204 S500
M205 X20 Y20
G1 F1800 X52.829 Y42.647 E10.00842
M204 S5000
M205 X30 Y30
G0 F3600 X52.829 Y43.212
M204 S500
M205 X20 Y20
G1 F1800 X44.786 Y35.17 E10.38671
M204 S5000
M205 X30 Y30
G0 F3600 X44.221 Y35.17
M204 S500
M205 X20 Y20
G1 F1800 X52.829 Y43.778 E10.79161
M204 S5000
M205 X30 Y30
G0 F3600 X52.829 Y44.344
M204 S500
M205 X20 Y20
G1 F1800 X43.655 Y35.17 E11.22312
M204 S5000
M205 X30 Y30
G0 F3600 X43.089 Y35.17
M204 S500
M205 X20 Y20
G1 F1800 X52.829 Y44.909 E11.68124
M204 S5000
M205 X30 Y30
G0 F3600 X52.829 Y45.475
M204 S500
M205 X20 Y20
G1 F1800 X42.523 Y35.17 E12.16598
M204 S5000
M205 X30 Y30
G0 F3600 X41.958 Y35.17
M204 S500
M205 X20 Y20
G1 F1800 X52.829 Y46.041 E12.67732
M204 S5000
M205 X30 Y30
G0 F3600 X52.829 Y46.606
M204 S500
M205 X20 Y20
G1 F1800 X41.392 Y35.17 E13.21526
M204 S5000
M205 X30 Y30
G0 F3600 X40.826 Y35.17
M204 S500
M205 X20 Y20
G1 F1800 X52.829 Y47.172 E13.77982
M204 S5000
M205 X30 Y30
G0 F3600 X52.829 Y47.738
M204 S500
M205 X20 Y20
G1 F1800 X40.261 Y35.17 E14.37098
M204 S5000
M205 X30 Y30
G0 F3600 X39.695 Y35.17
M204 S500
M205 X20 Y20
G1 F1800 X52.829 Y48.303 E14.98874
M204 S5000
M205 X30 Y30
G0 F3600 X52.829 Y48.869
M204 S500
M205 X20 Y20
G1 F1800 X39.129 Y35.17 E15.63312
M204 S5000
M205 X30 Y30
G0 F3600 X38.564 Y35.17
M204 S500
M205 X20 Y20
G1 F1800 X52.829 Y49.435 E16.3041
M204 S5000
M205 X30 Y30
G0 F3600 X52.829 Y50
M204 S500
M205 X20 Y20
G1 F1800 X37.998 Y35.17 E17.00168
M204 S5000
M205 X30 Y30
G0 F3600 X37.432 Y35.17
M204 S500
M205 X20 Y20
G1 F1800 X52.829 Y50.566 E17.72589
M204 S5000
M205 X30 Y30
G0 F3600 X52.829 Y51.132
M204 S500
M205 X20 Y20
G1 F1800 X36.867 Y35.17 E18.47669
M204 S5000
M205 X30 Y30
G0 F3600 X36.301 Y35.17
M204 S500
M205 X20 Y20
G1 F1800 X52.829 Y51.697 E19.25409
M204 S5000
M205 X30 Y30
G0 F3600 X52.829 Y52.263
M204 S500
M205 X20 Y20
G1 F1800 X35.735 Y35.17 E20.05812
M204 S5000
M205 X30 Y30
G0 F3600 X35.169 Y35.169
M204 S500
M205 X20 Y20
G1 F1800 X52.829 Y52.829 E20.88879
M204 S5000
M205 X30 Y30
G0 F3600 X52.263 Y52.829
M204 S500
M205 X20 Y20
G1 F1800 X35.169 Y35.735 E21.69284
M204 S5000
M205 X30 Y30
G0 F3600 X35.169 Y36.3
M204 S500
M205 X20 Y20
G1 F1800 X51.697 Y52.829 E22.47029
M204 S5000
M205 X30 Y30
G0 F3600 X51.132 Y52.829
M204 S500
M205 X20 Y20
G1 F1800 X35.169 Y36.866 E23.22114
M204 S5000
M205 X30 Y30
G0 F3600 X35.169 Y37.432
M204 S500
M205 X20 Y20
G1 F1800 X50.566 Y52.829 E23.94537
M204 S5000
M205 X30 Y30
G0 F3600 X50 Y52.829
M204 S500
M205 X20 Y20
G1 F1800 X35.169 Y37.997 E24.643
M204 S5000
M205 X30 Y30
G0 F3600 X35.169 Y38.563
M204 S500
M205 X20 Y20
G1 F1800 X49.435 Y52.829 E25.31402
M204 S5000
M205 X30 Y30
G0 F3600 X48.869 Y52.829
M204 S500
M205 X20 Y20
G1 F1800 X35.169 Y39.129 E25.95843
M204 S5000
M205 X30 Y30
G0 F3600 X35.169 Y39.694
M204 S500
M205 X20 Y20
G1 F1800 X48.303 Y52.829 E26.57624
M204 S5000
M205 X30 Y30
G0 F3600 X47.738 Y52.829
M204 S500
M205 X20 Y20
G1 F1800 X35.169 Y40.26 E27.16744
M204 S5000
M205 X30 Y30
G0 F3600 X35.169 Y40.826
M204 S500
M205 X20 Y20
G1 F1800 X47.172 Y52.829 E27.73203
M204 S5000
M205 X30 Y30
G0 F3600 X46.606 Y52.829
M204 S500
M205 X20 Y20
G1 F1800 X35.169 Y41.391 E28.27001
M204 S5000
M205 X30 Y30
G0 F3600 X35.169 Y41.957
M204 S500
M205 X20 Y20
G1 F1800 X46.041 Y52.829 E28.7814
M204 S5000
M205 X30 Y30
G0 F3600 X45.475 Y52.829
M204 S500
M205 X20 Y20
G1 F1800 X35.169 Y42.523 E29.26616
M204 S5000
M205 X30 Y30
G0 F3600 X35.169 Y43.088
M204 S500
M205 X20 Y20
G1 F1800 X44.909 Y52.829 E29.72433
M204 S5000
M205 X30 Y30
G0 F3600 X44.344 Y52.829
M204 S500
M205 X20 Y20
G1 F1800 X35.169 Y43.654 E30.15589
M204 S5000
M205 X30 Y30
G0 F3600 X35.169 Y44.22
M204 S500
M205 X20 Y20
G1 F1800 X43.778 Y52.829 E30.56083
M204 S5000
M205 X30 Y30
G0 F3600 X43.212 Y52.829
M204 S500
M205 X20 Y20
G1 F1800 X35.169 Y44.786 E30.93915
M204 S5000
M205 X30 Y30
G0 F3600 X35.169 Y45.351
M204 S500
M205 X20 Y20
G1 F1800 X42.647 Y52.829 E31.29089
M204 S5000
M205 X30 Y30
G0 F3600 X42.081 Y52.829
M204 S500
M205 X20 Y20
G1 F1800 X35.169 Y45.917 E31.61601
M204 S5000
M205 X30 Y30
G0 F3600 X35.169 Y46.483
M204 S500
M205 X20 Y20
G1 F1800 X41.515 Y52.829 E31.91451
M204 S5000
M205 X30 Y30
G0 F3600 X40.949 Y52.829
M204 S500
M205 X20 Y20
G1 F1800 X35.169 Y47.048 E32.1864
M204 S5000
M205 X30 Y30
G0 F3600 X35.169 Y47.614
M204 S500
M205 X20 Y20
G1 F1800 X40.384 Y52.829 E32.4317
M204 S5000
M205 X30 Y30
G0 F3600 X39.818 Y52.829
M204 S500
M205 X20 Y20
G1 F1800 X35.169 Y48.18 E32.65038
M204 S5000
M205 X30 Y30
G0 F3600 X35.169 Y48.745
M204 S500
M205 X20 Y20
G1 F1800 X39.252 Y52.829 E32.84245
M204 S5000
M205 X30 Y30
G0 F3600 X38.687 Y52.829
M204 S500
M205 X20 Y20
G1 F1800 X35.169 Y49.311 E33.00793
M204 S5000
M205 X30 Y30
G0 F3600 X35.169 Y49.877
M204 S500
M205 X20 Y20
G1 F1800 X38.121 Y52.829 E33.14678
M204 S5000
M205 X30 Y30
G0 F3600 X37.555 Y52.829
M204 S500
M205 X20 Y20
G1 F1800 X35.169 Y50.442 E33.25903
M204 S5000
M205 X30 Y30
G0 F3600 X35.169 Y51.008
M204 S500
M205 X20 Y20
G1 F1800 X36.99 Y52.829 E33.34469
M204 S5000
M205 X30 Y30
G0 F3600 X36.424 Y52.829
M204 S500
M205 X20 Y20
G1 F1800 X35.169 Y51.574 E33.40372
M204 S5000
M205 X30 Y30
G0 F3600 X35.169 Y52.139
M204 S500
M205 X20 Y20
G1 F1800 X35.858 Y52.829 E33.43615
M204 S5000
M205 X30 Y30
G0 F3600 X35.293 Y52.829
M204 S500
M205 X20 Y20
G1 F1800 X35.169 Y52.705 E33.44198
M204 S5000
M205 X30 Y30
G1 F2400 E28.44198
G0 F3600 X53.33 Y53.38
G0 X53.33 Y54.665
G0 X53.33 Y108.335
G0 X53.33 Y109.62
G0 X53.33 Y128.33
G0 X53.4 Y128.4
M204 S500
M205 X20 Y20
;TYPE:WALL-INNER
G1 F2400 E33.44198
G1 F1800 X34.6 Y128.4 E34.06727
G1 X34.6 Y109.6 E34.69256
G1 X53.4 Y109.6 E35.31786
G1 X53.4 Y128.4 E35.94315
M204 S5000
M205 X30 Y30
G0 F3600 X53.8 Y128.8
M204 S500
M205 X20 Y20
;TYPE:WALL-OUTER
G1 F1800 X34.2 Y128.8 E36.59504
G1 X34.2 Y109.2 E37.24694
G1 X53.8 Y109.2 E37.89884
G1 X53.8 Y128.8 E38.55074
M204 S5000
M205 X30 Y30
G0 F3600 X53.6 Y128.8
G0 X53.01 Y128.01
M204 S500
M205 X20 Y20
;TYPE:SKIN
G1 F1800 X34.99 Y128.01 E39.15009
G1 X34.99 Y109.99 E39.74944
G1 X53.01 Y109.99 E40.34878
G1 X53.01 Y128.01 E40.94813
M204 S5000
M205 X30 Y30
G0 F3600 X52.83 Y110.529
M204 S500
M205 X20 Y20
G1 F1800 X52.469 Y110.169 E40.96509
M204 S5000
M205 X30 Y30
G0 F3600 X51.903 Y110.169
M204 S500
M205 X20 Y20
G1 F1800 X52.83 Y111.095 E41.00867
M204 S5000
M205 X30 Y30
G0 F3600 X52.83 Y111.661
M204 S500
M205 X20 Y20
G1 F1800 X51.338 Y110.169 E41.07885
M204 S5000
M205 X30 Y30
G0 F3600 X50.772 Y110.169
M204 S500
M205 X20 Y20
G1 F1800 X52.83 Y112.227 E41.17565
M204 S5000
M205 X30 Y30
G0 F3600 X52.83 Y112.792
M204 S500
M205 X20 Y20
G1 F1800 X50.206 Y110.169 E41.29905
M204 S5000
M205 X30 Y30
G0 F3600 X49.641 Y110.169
M204 S500
M205 X20 Y20
G1 F1800 X52.83 Y113.358 E41.44905
M204 S5000
M205 X30 Y30
G0 F3600 X52.83 Y113.924
M204 S500
M205 X20 Y20
G1 F1800 X49.075 Y110.169 E41.62567
M204 S5000
M205 X30 Y30
G0 F3600 X48.509 Y110.169
M204 S500
M205 X20 Y20
G1 F1800 X52.83 Y114.489 E41.8289
M204 S5000
M205 X30 Y30
G0 F3600 X52.83 Y115.055
M204 S500
M205 X20 Y20
G1 F1800 X47.943 Y110.169 E42.05874
M204 S5000
M205 X30 Y30
G0 F3600 X47.378 Y110.169
M204 S500
M205 X20 Y20
G1 F1800 X52.83 Y115.621 E42.31519
M204 S5000
M205 X30 Y30
G0 F3600 X52.83 Y116.186
M204 S500
M205 X20 Y20
G1 F1800 X46.812 Y110.169 E42.59823
M204 S5000
M205 X30 Y30
G0 F3600 X46.246 Y110.169
M204 S500
M205 X20 Y20
G1 F1800 X52.83 Y116.752 E42.9079
M204 S5000
M205 X30 Y30
G0 F3600 X52.83 Y117.318
M204 S500
M205 X20 Y20
G1 F1800 X45.681 Y110.169 E43.24417
M204 S5000
M205 X30 Y30
G0 F3600 X45.115 Y110.169
M204 S500
M205 X20 Y20
G1 F1800 X52.83 Y117.883 E43.60703
M204 S5000
M205 X30 Y30
G0 F3600 X52.83 Y118.449
M204 S500
M205 X20 Y20
G1 F1800 X44.549 Y110.169 E43.99652
M204 S5000
M205 X30 Y30
G0 F3600 X43.984 Y110.169
M204 S500
M205 X20 Y20
G1 F1800 X52.83 Y119.015 E44.41261
M204 S5000
M205 X30 Y30
G0 F3600 X52.83 Y119.58
M204 S500
M205 X20 Y20
G1 F1800 X43.418 Y110.169 E44.8553
M204 S5000
M205 X30 Y30
G0 F3600 X42.852 Y110.169
M204 S500
M205 X20 Y20
G1 F1800 X52.83 Y120.146 E45.32461
M204 S5000
M205 X30 Y30
G0 F3600 X52.83 Y120.712
M204 S500
M205 X20 Y20
G1 F1800 X42.287 Y110.169 E45.82052
M204 S5000
M205 X30 Y30
G0 F3600 X41.721 Y110.169
M204 S500
M205 X20 Y20
G1 F1800 X52.83 Y121.278 E46.34306
M204 S5000
M205 X30 Y30
G0 F3600 X52.83 Y121.843
M204 S500
M205 X20 Y20
G1 F1800 X41.155 Y110.169 E46.89219
M204 S5000
M205 X30 Y30
G0 F3600 X40.59 Y110.169
M204 S500
M205 X20 Y20
G1 F1800 X52.83 Y122.409 E47.46792
M204 S5000
M205 X30 Y30
G0 F3600 X52.83 Y122.975
M204 S500
M205 X20 Y20
G1 F1800 X40.024 Y110.169 E48.07028
M204 S5000
M205 X30 Y30
G0 F3600 X39.458 Y110.169
M204 S500
M205 X20 Y20
G1 F1800 X52.83 Y123.54 E48.69923
M204 S5000
M205 X30 Y30
G0 F3600 X52.83 Y124.106
M204 S500
M205 X20 Y20
G1 F1800 X38.892 Y110.169 E49.35481
M204 S5000
M205 X30 Y30
G0 F3600 X38.327 Y110.169
M204 S500
M205 X20 Y20
G1 F1800 X52.83 Y124.672 E50.03698
M204 S5000
M205 X30 Y30
G0 F3600 X52.83 Y125.237
M204 S500
M205 X20 Y20
G1 F1800 X37.761 Y110.169 E50.74576
M204 S5000
M205 X30 Y30
G0 F3600 X37.195 Y110.169
M204 S500
M205 X20 Y20
G1 F1800 X52.83 Y125.803 E51.48116
M204 S5000
M205 X30 Y30
G0 F3600 X52.83 Y126.369
M204 S500
M205 X20 Y20
G1 F1800 X36.63 Y110.169 E52.24316
M204 S5000
M205 X30 Y30
G0 F3600 X36.064 Y110.169
M204 S500
M205 X20 Y20
G1 F1800 X52.83 Y126.934 E53.03175
M204 S5000
M205 X30 Y30
G0 F3600 X52.83 Y127.5
M204 S500
M205 X20 Y20
G1 F1800 X35.498 Y110.169 E53.84698
M204 S5000
M205 X30 Y30
G0 F3600 X35.169 Y110.405
M204 S500
M205 X20 Y20
G1 F1800 X52.593 Y127.829 E54.66655
M204 S5000
M205 X30 Y30
G0 F3600 X52.027 Y127.829
M204 S500
M205 X20 Y20
G1 F1800 X35.169 Y110.971 E55.4595
M204 S5000
M205 X30 Y30
G0 F3600 X35.169 Y111.536
M204 S500
M205 X20 Y20
G1 F1800 X51.461 Y127.829 E56.22584
M204 S5000
M205 X30 Y30
G0 F3600 X50.896 Y127.829
M204 S500
M205 X20 Y20
G1 F1800 X35.169 Y112.102 E56.96559
M204 S5000
M205 X30 Y30
G0 F3600 X35.169 Y112.668
M204 S500
M205 X20 Y20
G1 F1800 X50.33 Y127.829 E57.67872
M204 S5000
M205 X30 Y30
G0 F3600 X49.764 Y127.829
M204 S500
M205 X20 Y20
G1 F1800 X35.169 Y113.233 E58.36525
M204 S5000
M205 X30 Y30
G0 F3600 X35.169 Y113.799
M204 S500
M205 X20 Y20
G1 F1800 X49.199 Y127.829 E59.02518
M204 S5000
M205 X30 Y30
G0 F3600 X48.633 Y127.829
M204 S500
M205 X20 Y20
G1 F1800 X35.169 Y114.365 E59.65848
M204 S5000
M205 X30 Y30
G0 F3600 X35.169 Y114.931
M204 S500
M205 X20 Y20
G1 F1800 X48.067 Y127.829 E60.26516
M204 S5000
M205 X30 Y30
G0 F3600 X47.502 Y127.829
M204 S500
M205 X20 Y20
G1 F1800 X35.169 Y115.496 E60.84527
M204 S5000
M205 X30 Y30
G0 F3600 X35.169 Y116.062
M204 S500
M205 X20 Y20
G1 F1800 X46.936 Y127.829 E61.39875
M204 S5000
M205 X30 Y30
G0 F3600 X46.37 Y127.829
M204 S500
M205 X20 Y20
G1 F1800 X35.169 Y116.628 E61.92562
M204 S5000
M205 X30 Y30
G0 F3600 X35.169 Y117.193
M204 S500
M205 X20 Y20
G1 F1800 X45.804 Y127.829 E62.42588
M204 S5000
M205 X30 Y30
G0 F3600 X45.239 Y127.829
M204 S500
M205 X20 Y20
G1 F1800 X35.169 Y117.759 E62.89954
M204 S5000
M205 X30 Y30
G0 F3600 X35.169 Y118.325
M204 S500
M205 X20 Y20
G1 F1800 X44.673 Y127.829 E63.34658
M204 S5000
M205 X30 Y30
G0 F3600 X44.107 Y127.829
M204 S500
M205 X20 Y20
G1 F1800 X35.169 Y118.89 E63.76702
M204 S5000
M205 X30 Y30
G0 F3600 X35.169 Y119.456
M204 S500
M205 X20 Y20
G1 F1800 X43.542 Y127.829 E64.16086
M204 S5000
M205 X30 Y30
G0 F3600 X42.976 Y127.829
M204 S500
M205 X20 Y20
G1 F1800 X35.169 Y120.022 E64.52808
M204 S5000
M205 X30 Y30
G0 F3600 X35.169 Y120.587
M204 S500
M205 X20 Y20
G1 F1800 X42.41 Y127.829 E64.86869
M204 S5000
M205 X30 Y30
G0 F3600 X41.845 Y127.829
M204 S500
M205 X20 Y20
G1 F1800 X35.169 Y121.153 E65.18271
M204 S5000
M205 X30 Y30
G0 F3600 X35.169 Y121.719
M204 S500
M205 X20 Y20
G1 F1800 X41.279 Y127.829 E65.47011
M204 S5000
M205 X30 Y30
G0 F3600 X40.713 Y127.829
M204 S500
M205 X20 Y20
G1 F1800 X35.169 Y122.284 E65.7309
M204 S5000
M205 X30 Y30
G0 F3600 X35.169 Y122.85
M204 S500
M205 X20 Y20
G1 F1800 X40.148 Y127.829 E65.9651
M204 S5000
M205 X30 Y30
G0 F3600 X39.582 Y127.829
M204 S500
M205 X20 Y20
G1 F1800 X35.169 Y123.416 E66.17267
M204 S5000
M205 X30 Y30
G0 F3600 X35.169 Y123.981
M204 S500
M205 X20 Y20
G1 F1800 X39.016 Y127.829 E66.35365
M204 S5000
M205 X30 Y30
G0 F3600 X38.451 Y127.829
M204 S500
M205 X20 Y20
G1 F1800 X35.169 Y124.547 E66.50802
M204 S5000
M205 X30 Y30
G0 F3600 X35.169 Y125.113
M204 S500
M205 X20 Y20
G1 F1800 X37.885 Y127.829 E66.63578
M204 S5000
M205 X30 Y30
G0 F3600 X37.319 Y127.829
M204 S500
M205 X20 Y20
G1 F1800 X35.169 Y125.679 E66.73691
M204 S5000
M205 X30 Y30
G0 F3600 X35.169 Y126.244
M204 S500
M205 X20 Y20
G1 F1800 X36.753 Y127.829 E66.81144
M204 S5000
M205 X30 Y30
G0 F3600 X36.188 Y127.829
M204 S500
M205 X20 Y20
G1 F1800 X35.169 Y126.81 E66.85937
M204 S5000
M205 X30 Y30
G0 F3600 X35.169 Y127.376
M204 S500
M205 X20 Y20
G1 F1800 X35.622 Y127.829 E66.88067
M204 S5000
M205 X30 Y30
G1 F2400 E61.88067
G0 F3600 X53.33 Y128.38
G0 X53.33 Y129.665
G0 X53.33 Y183.335
G0 X53.33 Y184.62
G0 X53.33 Y203.33
G0 X53.4 Y203.4
M204 S500
M205 X20 Y20
;TYPE:WALL-INNER
G1 F2400 E66.88067
G1 F1800 X34.6 Y203.4 E67.50596
G1 X34.6 Y184.6 E68.13126
G1 X53.4 Y184.6 E68.75655
G1 X53.4 Y203.4 E69.38184
M204 S5000
M205 X30 Y30
G0 F3600 X53.8 Y203.8
M204 S500
M205 X20 Y20
;TYPE:WALL-OUTER
G1 F1800 X34.2 Y203.8 E70.03374
G1 X34.2 Y184.2 E70.68563
G1 X53.8 Y184.2 E71.33753
G1 X53.8 Y203.8 E71.98943
M204 S5000
M205 X30 Y30
G0 F3600 X53.6 Y203.8
G0 X53.01 Y203.01
M204 S500
M205 X20 Y20
;TYPE:SKIN
G1 F1800 X34.99 Y203.01 E72.58878
G1 X34.99 Y184.99 E73.18813
G1 X53.01 Y184.99 E73.78747
G1 X53.01 Y203.01 E74.38682
M204 S5000
M205 X30 Y30
G0 F3600 X52.83 Y185.766
M204 S500
M205 X20 Y20
