;FLAVOR:Marlin
;TIME:6666
;Filament used: 0m
;Layer height: 0.15

;Generated with Cura_SteamEngine 4.0.0
M140 S60
M105
M190 S60
M104 S200
M105
M109 S200
M82 ;absolute extrusion mode
M140 S60
M105
M190 S60
M104 S200
M105
M109 S200
G28 ; Home all axes
G92 E0 ; Reset Extruder
G1 Z2.0 F3000 ; Move Z Axis up little to prevent scratching of Heat Bed
G1 F1000 E10 ; extrude filament 10 mm
G92 E0
G1 F2400 E-5
;LAYER_COUNT:2
;LAYER:0
M107
M204 S5000
M205 X30 Y30
;MESH:top-col.stl
G0 F3600 X53.4 Y53.4 Z0.2
M204 S500
M205 X20 Y20
;TYPE:WALL-INNER
G1 F2400 E0
G1 F1800 X34.6 Y53.4 E0.62529
G1 X34.6 Y34.6 E1.25058
G1 X53.4 Y34.6 E1.87587
G1 X53.4 Y53.4 E2.50116
M204 S5000
M205 X30 Y30
G0 F3600 X53.8 Y53.8
M204 S500
M205 X20 Y20
;TYPE:WALL-OUTER
G1 F1800 X34.2 Y53.8 E3.15306
G1 X34.2 Y34.2 E3.80496
G1 X53.8 Y34.2 E4.45686
G1 X53.8 Y53.8 E5.10876
M204 S5000
M205 X30 Y30
G0 F3600 X53.6 Y53.8
G0 X53.01 Y53.01
M204 S500
M205 X20 Y20
;TYPE:SKIN
G1 F1800 X34.99 Y53.01 E5.7081
G1 X34.99 Y34.99 E6.30745
G1 X53.01 Y34.99 E6.9068
G1 X53.01 Y53.01 E7.50615
M204 S5000
M205 X30 Y30
G0 F3600 X52.829 Y35.293
M204 S500
M205 X20 Y20
G1 F1800 X52.706 Y35.17 E7.51193
M204 S5000
M205 X30 Y30
G0 F3600 X52.14 Y35.17
M204 S500
M205 X20 Y20
G1 F1800 X52.829 Y35.858 E7.54432
M204 S5000
M205 X30 Y30
G0 F3600 X52.829 Y36.424
M204 S500
M205 X20 Y20
G1 F1800 X51.574 Y35.17 E7.60333
M204 S5000
M205 X30 Y30
G0 F3600 X51.009 Y35.17
M204 S500
M205 X20 Y20
G1 F1800 X52.829 Y36.99 E7.68893
M204 S5000
M205 X30 Y30
G0 F3600 X52.829 Y37.555
M204 S500
M205 X20 Y20
G1 F1800 X50.443 Y35.17 E7.80114
M204 S5000
M205 X30 Y30
G0 F3600 X49.877 Y35.17
M204 S500
M205 X20 Y20
G1 F1800 X52.829 Y38.121 E7.93997
M204 S5000
M205 X30 Y30
G0 F3600 X52.829 Y38.687
M204 S500
M205 X20 Y20
G1 F1800 X49.312 Y35.17 E8.1054
M204 S5000
M205 X30 Y30
G0 F3600 X48.746 Y35.17
M204 S500
M205 X20 Y20
G1 F1800 X52.829 Y39.252 E8.29743
M204 S5000
M205 X30 Y30
G0 F3600 X52.829 Y39.818
M204 S500
M205 X20 Y20
G1 F1800 X48.18 Y35.17 E8.51608
M204 S5000
M205 X30 Y30
G0 F3600 X47.615 Y35.17
M204 S500
M205 X20 Y20
G1 F1800 X52.829 Y40.384 E8.76133
M204 S5000
M205 X30 Y30
G0 F3600 X52.829 Y40.949
M204 S500
M205 X20 Y20
G1 F1800 X47.049 Y35.17 E9.03318
M204 S5000
M205 X30 Y30
G0 F3600 X46.483 Y35.17
M204 S500
M205 X20 Y20
G1 F1800 X52.829 Y41.515 E9.33165
M204 S5000
M205 X30 Y30
G0 F3600 X52.829 Y42.081
M204 S500
M205 X20 Y20
G1 F1800 X45.918 Y35.17 E9.65672
M204 S5000
M205 X30 Y30
G0 F3600 X45.352 Y35.17
M204 S500
M205 X20 Y20
G1 F1800 X52.829 Y42.647 E10.00842
M204 S5000
M205 X30 Y30
G0 F3600 X52.829 Y43.212
M204 S500
M205 X20 Y20
G1 F1800 X44.786 Y35.17 E10.38671
M204 S5000
M205 X30 Y30
G0 F3600 X44.221 Y35.17
M204 S500
M205 X20 Y20
G1 F1800 X52.829 Y43.778 E10.79161
M204 S5000
M205 X30 Y30
G0 F3600 X52.829 Y44.344
M204 S500
M205 X20 Y20
G1 F1800 X43.655 Y35.17 E11.22312
M204 S5000
M205 X30 Y30
G0 F3600 X43.089 Y35.17
M204 S500
M205 X20 Y20
G1 F1800 X52.829 Y44.909 E11.68124
M204 S5000
M205 X30 Y30
G0 F3600 X52.829 Y45.475
M204 S500
M205 X20 Y20
G1 F1800 X42.523 Y35.17 E12.16598
M204 S5000
M205 X30 Y30
G0 F3600 X41.958 Y35.17
M204 S500
M205 X20 Y20
G1 F1800 X52.829 Y46.041 E12.67732
M204 S5000
M205 X30 Y30
G0 F3600 X52.829 Y46.606
M204 S500
M205 X20 Y20
G1 F1800 X41.392 Y35.17 E13.21526
M204 S5000
M205 X30 Y30
G0 F3600 X40.826 Y35.17
M204 S500
M205 X20 Y20
G1 F1800 X52.829 Y47.172 E13.77982
M204 S5000
M205 X30 Y30
G0 F3600 X52.829 Y47.738
M204 S500
M205 X20 Y20
G1 F1800 X40.261 Y35.17 E14.37098
M204 S5000
M205 X30 Y30
G0 F3600 X39.695 Y35.17
M204 S500
M205 X20 Y20
G1 F1800 X52.829 Y48.303 E14.98874
M204 S5000
M205 X30 Y30
G0 F3600 X52.829 Y48.869
M204 S500
M205 X20 Y20
G1 F1800 X39.129 Y35.17 E15.63312
M204 S5000
M205 X30 Y30
G0 F3600 X38.564 Y35.17
M204 S500
M205 X20 Y20
G1 F1800 X52.829 Y49.435 E16.3041
M204 S5000
M205 X30 Y30
G0 F3600 X52.829 Y50
M204 S500
M205 X20 Y20
G1 F1800 X37.998 Y35.17 E17.00168
M204 S5000
M205 X30 Y30
G0 F3600 X37.432 Y35.17
M204 S500
M205 X20 Y20
G1 F1800 X52.829 Y50.566 E17.72589
M204 S5000
M205 X30 Y30
G0 F3600 X52.829 Y51.132
M204 S500
M205 X20 Y20
G1 F1800 X36.867 Y35.17 E18.47669
M204 S5000
M205 X30 Y30
G0 F3600 X36.301 Y35.17
M204 S500
M205 X20 Y20
G1 F1800 X52.829 Y51.697 E19.25409
M204 S5000
M205 X30 Y30
G0 F3600 X52.829 Y52.263
M204 S500
M205 X20 Y20
G1 F1800 X35.735 Y35.17 E20.05812
M204 S5000
M205 X30 Y30
G0 F3600 X35.169 Y35.169
M204 S500
M205 X20 Y20
G1 F1800 X52.829 Y52.829 E20.88879
M204 S5000
M205 X30 Y30
G0 F3600 X52.263 Y52.829
M204 S500
M205 X20 Y20
G1 F1800 X35.169 Y35.735 E21.69284
M204 S5000
M205 X30 Y30
G0 F3600 X35.169 Y36.3
M204 S500
M205 X20 Y20
G1 F1800 X51.697 Y52.829 E22.47029
M204 S5000
M205 X30 Y30
G0 F3600 X51.132 Y52.829
M204 S500
M205 X20 Y20
G1 F1800 X35.169 Y36.866 E23.22114
M204 S5000
M205 X30 Y30
G0 F3600 X35.169 Y37.432
M204 S500
M205 X20 Y20
G1 F1800 X50.566 Y52.829 E23.94537
M204 S5000
M205 X30 Y30
G0 F3600 X50 Y52.829
M204 S500
M205 X20 Y20
G1 F1800 X35.169 Y37.997 E24.643
M204 S5000
M205 X30 Y30
G0 F3600 X35.169 Y38.563
M204 S500
M205 X20 Y20
G1 F1800 X49.435 Y52.829 E25.31402
M204 S5000
M205 X30 Y30
G0 F3600 X48.869 Y52.829
M204 S500
M205 X20 Y20
G1 F1800 X35.169 Y39.129 E25.95843
M204 S5000
M205 X30 Y30
G0 F3600 X35.169 Y39.694
M204 S500
M205 X20 Y20
G1 F1800 X48.303 Y52.829 E26.57624
M204 S5000
M205 X30 Y30
G0 F3600 X47.738 Y52.829
M204 S500
M205 X20 Y20
G1 F1800 X35.169 Y40.26 E27.16744
M204 S5000
M205 X30 Y30
G0 F3600 X35.169 Y40.826
M204 S500
M205 X20 Y20
G1 F1800 X47.172 Y52.829 E27.73203
M204 S5000
M205 X30 Y30
G0 F3600 X46.606 Y52.829
M204 S500
M205 X20 Y20
G1 F1800 X35.169 Y41.391 E28.27001
M204 S5000
M205 X30 Y30
G0 F3600 X35.169 Y41.957
M204 S500
M205 X20 Y20
G1 F1800 X46.041 Y52.829 E28.7814
M204 S5000
M205 X30 Y30
G0 F3600 X45.475 Y52.829
M204 S500
M205 X20 Y20
G1 F1800 X35.169 Y42.523 E29.26616
M204 S5000
M205 X30 Y30
G0 F3600 X35.169 Y43.088
M204 S500
M205 X20 Y20
G1 F1800 X44.909 Y52.829 E29.72433
M204 S5000
M205 X30 Y30
G0 F3600 X44.344 Y52.829
M204 S500
M205 X20 Y20
G1 F1800 X35.169 Y43.654 E30.15589
M204 S5000
M205 X30 Y30
G0 F3600 X35.169 Y44.22
M204 S500
M205 X20 Y20
G1 F1800 X43.778 Y52.829 E30.56083
M204 S5000
M205 X30 Y30
G0 F3600 X43.212 Y52.829
M204 S500
M205 X20 Y20
G1 F1800 X35.169 Y44.786 E30.93915
M204 S5000
M205 X30 Y30
G0 F3600 X35.169 Y45.351
M204 S500
M205 X20 Y20
G1 F1800 X42.647 Y52.829 E31.29089
M204 S5000
M205 X30 Y30
G0 F3600 X42.081 Y52.829
M204 S500
M205 X20 Y20
G1 F1800 X35.169 Y45.917 E31.61601
M204 S5000
M205 X30 Y30
G0 F3600 X35.169 Y46.483
M204 S500
M205 X20 Y20
G1 F1800 X41.515 Y52.829 E31.91451
M204 S5000
M205 X30 Y30
G0 F3600 X40.949 Y52.829
M204 S500
M205 X20 Y20
G1 F1800 X35.169 Y47.048 E32.1864
M204 S5000
M205 X30 Y30
G0 F3600 X35.169 Y47.614
M204 S500
M205 X20 Y20
G1 F1800 X40.384 Y52.829 E32.4317
M204 S5000
M205 X30 Y30
G0 F3600 X39.818 Y52.829
M204 S500
M205 X20 Y20
G1 F1800 X35.169 Y48.18 E32.65038
M204 S5000
M205 X30 Y30
G0 F3600 X35.169 Y48.745
M204 S500
M205 X20 Y20
G1 F1800 X39.252 Y52.829 E32.84245
M204 S5000
M205 X30 Y30
G0 F3600 X38.687 Y52.829
M204 S500
M205 X20 Y20
G1 F1800 X35.169 Y49.311 E33.00793
M204 S5000
M205 X30 Y30
G0 F3600 X35.169 Y49.877
M204 S500
M205 X20 Y20
G1 F1800 X38.121 Y52.829 E33.14678
M204 S5000
M205 X30 Y30
G0 F3600 X37.555 Y52.829
M204 S500
M205 X20 Y20
G1 F1800 X35.169 Y50.442 E33.25903
M204 S5000
M205 X30 Y30
G0 F3600 X35.169 Y51.008
M204 S500
M205 X20 Y20
G1 F1800 X36.99 Y52.829 E33.34469
M204 S5000
M205 X30 Y30
G0 F3600 X36.424 Y52.829
M204 S500
M205 X20 Y20
G1 F1800 X35.169 Y51.574 E33.40372
M204 S5000
M205 X30 Y30
G0 F3600 X35.169 Y52.139
M204 S500
M205 X20 Y20
G1 F1800 X35.858 Y52.829 E33.43615
M204 S5000
M205 X30 Y30
G0 F3600 X35.293 Y52.829
M204 S500
M205 X20 Y20
G1 F1800 X35.169 Y52.705 E33.44198
M204 S5000
M205 X30 Y30
G1 F2400 E28.44198
G0 F3600 X53.38 Y53.33
G0 X54.665 Y53.33
G0 X108.335 Y53.33
G0 X109.62 Y53.33
G0 X128.33 Y53.33
G0 X128.4 Y53.4
M204 S500
M205 X20 Y20
;TYPE:WALL-INNER
G1 F2400 E33.44198
G1 F1800 X109.6 Y53.4 E34.06727
G1 X109.6 Y34.6 E34.69256
G1 X128.4 Y34.6 E35.31786
G1 X128.4 Y53.4 E35.94315
M204 S5000
M205 X30 Y30
G0 F3600 X128.8 Y53.8
M204 S500
M205 X20 Y20
;TYPE:WALL-OUTER
G1 F1800 X109.2 Y53.8 E36.59504
G1 X109.2 Y34.2 E37.24694
G1 X128.8 Y34.2 E37.89884
G1 X128.8 Y53.8 E38.55074
M204 S5000
M205 X30 Y30
G0 F3600 X128.6 Y53.8
G0 X128.01 Y53.01
M204 S500
M205 X20 Y20
;TYPE:SKIN
G1 F1800 X109.99 Y53.01 E39.15009
G1 X109.99 Y34.99 E39.74944
G1 X128.01 Y34.99 E40.34878
G1 X128.01 Y53.01 E40.94813
M204 S5000
M205 X30 Y30
G0 F3600 X127.829 Y35.622
M204 S500
M205 X20 Y20
G1 F1800 X127.376 Y35.17 E40.96942
M204 S5000
M205 X30 Y30
G0 F3600 X126.811 Y35.17
M204 S500
M205 X20 Y20
G1 F1800 X127.829 Y36.188 E41.0173
M204 S5000
M205 X30 Y30
G0 F3600 X127.829 Y36.753
M204 S500
M205 X20 Y20
G1 F1800 X126.245 Y35.17 E41.09178
M204 S5000
M205 X30 Y30
G0 F3600 X125.679 Y35.17
M204 S500
M205 X20 Y20
G1 F1800 X127.829 Y37.319 E41.19289
M204 S5000
M205 X30 Y30
G0 F3600 X127.829 Y37.885
M204 S500
M205 X20 Y20
G1 F1800 X125.114 Y35.17 E41.32059
M204 S5000
M205 X30 Y30
G0 F3600 X124.548 Y35.17
M204 S500
M205 X20 Y20
G1 F1800 X127.829 Y38.451 E41.47492
M204 S5000
M205 X30 Y30
G0 F3600 X127.829 Y39.016
M204 S500
M205 X20 Y20
G1 F1800 X123.982 Y35.17 E41.65585
M204 S5000
M205 X30 Y30
G0 F3600 X123.417 Y35.17
M204 S500
M205 X20 Y20
G1 F1800 X127.829 Y39.582 E41.86338
M204 S5000
M205 X30 Y30
G0 F3600 X127.829 Y40.148
M204 S500
M205 X20 Y20
G1 F1800 X122.851 Y35.17 E42.09753
M204 S5000
M205 X30 Y30
G0 F3600 X122.285 Y35.17
M204 S500
M205 X20 Y20
G1 F1800 X127.829 Y40.713 E42.35827
M204 S5000
M205 X30 Y30
G0 F3600 X127.829 Y41.279
M204 S500
M205 X20 Y20
G1 F1800 X121.719 Y35.17 E42.64565
M204 S5000
M205 X30 Y30
G0 F3600 X121.154 Y35.17
M204 S500
M205 X20 Y20
G1 F1800 X127.829 Y41.845 E42.95962
M204 S5000
M205 X30 Y30
G0 F3600 X127.829 Y42.41
M204 S500
M205 X20 Y20
G1 F1800 X120.588 Y35.17 E43.30019
M204 S5000
M205 X30 Y30
G0 F3600 X120.022 Y35.17
M204 S500
M205 X20 Y20
G1 F1800 X127.829 Y42.976 E43.66738
M204 S5000
M205 X30 Y30
G0 F3600 X127.829 Y43.542
M204 S500
M205 X20 Y20
G1 F1800 X119.457 Y35.17 E44.06118
M204 S5000
M205 X30 Y30
G0 F3600 X118.891 Y35.17
M204 S500
M205 X20 Y20
G1 F1800 X127.829 Y44.107 E44.48157
M204 S5000
M205 X30 Y30
G0 F3600 X127.829 Y44.673
M204 S500
M205 X20 Y20
G1 F1800 X118.325 Y35.17 E44.92858
M204 S5000
M205 X30 Y30
G0 F3600 X117.76 Y35.17
M204 S500
M205 X20 Y20
G1 F1800 X127.829 Y45.239 E45.4022
M204 S5000
M205 X30 Y30
G0 F3600 X127.829 Y45.804
M204 S500
M205 X20 Y20
G1 F1800 X117.194 Y35.17 E45.90241
M204 S5000
M205 X30 Y30
G0 F3600 X116.628 Y35.17
M204 S500
M205 X20 Y20
G1 F1800 X127.829 Y46.37 E46.42925
M204 S5000
M205 X30 Y30
G0 F3600 X127.829 Y46.936
M204 S500
M205 X20 Y20
G1 F1800 X116.063 Y35.17 E46.98269
M204 S5000
M205 X30 Y30
G0 F3600 X115.497 Y35.17
M204 S500
M205 X20 Y20
G1 F1800 X127.829 Y47.502 E47.56275
M204 S5000
M205 X30 Y30
G0 F3600 X127.829 Y48.067
M204 S500
M205 X20 Y20
G1 F1800 X114.931 Y35.17 E48.16941
M204 S5000
M205 X30 Y30
G0 F3600 X114.366 Y35.17
M204 S500
M205 X20 Y20
G1 F1800 X127.829 Y48.633 E48.80266
M204 S5000
M205 X30 Y30
G0 F3600 X127.829 Y49.199
M204 S500
M205 X20 Y20
G1 F1800 X113.8 Y35.17 E49.46254
M204 S5000
M205 X30 Y30
G0 F3600 X113.234 Y35.17
M204 S500
M205 X20 Y20
G1 F1800 X127.829 Y49.764 E50.14903
M204 S5000
M205 X30 Y30
G0 F3600 X127.829 Y50.33
M204 S500
M205 X20 Y20
G1 F1800 X112.668 Y35.17 E50.86213
M204 S5000
M205 X30 Y30
G0 F3600 X112.103 Y35.17
M204 S500
M205 X20 Y20
G1 F1800 X127.829 Y50.896 E51.60183
M204 S5000
M205 X30 Y30
G0 F3600 X127.829 Y51.461
M204 S500
M205 X20 Y20
G1 F1800 X111.537 Y35.17 E52.36813
M204 S5000
M205 X30 Y30
G0 F3600 X110.971 Y35.17
M204 S500
M205 X20 Y20
G1 F1800 X127.829 Y52.027 E53.16106
M204 S5000
M205 X30 Y30
G0 F3600 X127.829 Y52.593
M204 S500
M205 X20 Y20
G1 F1800 X110.406 Y35.17 E53.98058
M204 S5000
M205 X30 Y30
G0 F3600 X110.169 Y35.498
M204 S500
M205 X20 Y20
G1 F1800 X127.499 Y52.829 E54.79576
M204 S5000
M205 X30 Y30
G0 F3600 X126.934 Y52.829
M204 S500
M205 X20 Y20
G1 F1800 X110.169 Y36.064 E55.58433
M204 S5000
M205 X30 Y30
G0 F3600 X110.169 Y36.63
M204 S500
M205 X20 Y20
G1 F1800 X126.368 Y52.829 E56.34628
M204 S5000
M205 X30 Y30
G0 F3600 X125.802 Y52.829
M204 S500
M205 X20 Y20
G1 F1800 X110.169 Y37.195 E57.08163
M204 S5000
M205 X30 Y30
G0 F3600 X110.169 Y37.761
M204 S500
M205 X20 Y20
G1 F1800 X125.237 Y52.829 E57.79039
M204 S5000
M205 X30 Y30
G0 F3600 X124.671 Y52.829
M204 S500
M205 X20 Y20
G1 F1800 X110.169 Y38.327 E58.47252
M204 S5000
M205 X30 Y30
G0 F3600 X110.169 Y38.892
M204 S500
M205 X20 Y20
G1 F1800 X124.105 Y52.829 E59.12805
M204 S5000
M205 X30 Y30
G0 F3600 X123.54 Y52.829
M204 S500
M205 X20 Y20
G1 F1800 X110.169 Y39.458 E59.75698
M204 S5000
M205 X30 Y30
G0 F3600 X110.169 Y40.024
M204 S500
M205 X20 Y20
G1 F1800 X122.974 Y52.829 E60.35929
M204 S5000
M205 X30 Y30
G0 F3600 X122.408 Y52.829
M204 S500
M205 X20 Y20
G1 F1800 X110.169 Y40.59 E60.93497
M204 S5000
M205 X30 Y30
G0 F3600 X110.169 Y41.155
M204 S500
M205 X20 Y20
G1 F1800 X121.842 Y52.829 E61.48406
M204 S5000
M205 X30 Y30
G0 F3600 X121.277 Y52.829
M204 S500
M205 X20 Y20
G1 F1800 X110.169 Y41.721 E62.00654
M204 S5000
M205 X30 Y30
G0 F3600 X110.169 Y42.287
M204 S500
M205 X20 Y20
G1 F1800 X120.711 Y52.829 E62.50241
M204 S5000
M205 X30 Y30
G0 F3600 X120.145 Y52.829
M204 S500
M205 X20 Y20
G1 F1800 X110.169 Y42.852 E62.97167
M204 S5000
M205 X30 Y30
G0 F3600 X110.169 Y43.418
M204 S500
M205 X20 Y20
G1 F1800 X119.58 Y52.829 E63.41433
M204 S5000
M205 X30 Y30
G0 F3600 X119.014 Y52.829
M204 S500
M205 X20 Y20
G1 F1800 X110.169 Y43.984 E63.83038
M204 S5000
M205 X30 Y30
G0 F3600 X110.169 Y44.549
M204 S500
M205 X20 Y20
G1 F1800 X118.448 Y52.829 E64.21982
M204 S5000
M205 X30 Y30
G0 F3600 X117.883 Y52.829
M204 S500
M205 X20 Y20
G1 F1800 X110.169 Y45.115 E64.58266
M204 S5000
M205 X30 Y30
G0 F3600 X110.169 Y45.681
M204 S500
M205 X20 Y20
G1 F1800 X117.317 Y52.829 E64.91888
M204 S5000
M205 X30 Y30
G0 F3600 X116.751 Y52.829
M204 S500
M205 X20 Y20
G1 F1800 X110.169 Y46.246 E65.2285
M204 S5000
M205 X30 Y30
G0 F3600 X110.169 Y46.812
M204 S500
M205 X20 Y20
G1 F1800 X116.186 Y52.829 E65.51152
M204 S5000
M205 X30 Y30
G0 F3600 X115.62 Y52.829
M204 S500
M205 X20 Y20
G1 F1800 X110.169 Y47.378 E65.76792
M204 S5000
M205 X30 Y30
G0 F3600 X110.169 Y47.943
M204 S500
M205 X20 Y20
G1 F1800 X115.054 Y52.829 E65.99772
M204 S5000
M205 X30 Y30
G0 F3600 X114.489 Y52.829
M204 S500
M205 X20 Y20
G1 F1800 X110.169 Y48.509 E66.20092
M204 S5000
M205 X30 Y30
G0 F3600 X110.169 Y49.075
M204 S500
M205 X20 Y20
G1 F1800 X113.923 Y52.829 E66.3775
M204 S5000
M205 X30 Y30
G0 F3600 X113.357 Y52.829
M204 S500
M205 X20 Y20
G1 F1800 X110.169 Y49.641 E66.52745
M204 S5000
M205 X30 Y30
G0 F3600 X110.169 Y50.206
M204 S500
M205 X20 Y20
G1 F1800 X112.792 Y52.829 E66.65083
M204 S5000
M205 X30 Y30
G0 F3600 X112.226 Y52.829
M204 S500
M205 X20 Y20
G1 F1800 X110.169 Y50.772 E66.74758
M204 S5000
M205 X30 Y30
G0 F3600 X110.169 Y51.338
M204 S500
M205 X20 Y20
G1 F1800 X111.66 Y52.829 E66.81772
M204 S5000
M205 X30 Y30
G0 F3600 X111.094 Y52.829
M204 S500
M205 X20 Y20
G1 F1800 X110.169 Y51.903 E66.86125
M204 S5000
M205 X30 Y30
G0 F3600 X110.169 Y52.469
M204 S500
M205 X20 Y20
G1 F1800 X110.529 Y52.829 E66.87818
M204 S5000
M205 X30 Y30
G1 F2400 E61.87818
G0 F3600 X128.38 Y53.33
G0 X129.665 Y53.33
G0 X183.335 Y53.33
G0 X184.62 Y53.33
G0 X203.33 Y53.33
G0 X203.4 Y53.4
M204 S500
M205 X20 Y20
;TYPE:WALL-INNER
G1 F2400 E66.87818
G1 F1800 X184.6 Y53.4 E67.50347
G1 X184.6 Y34.6 E68.12876
G1 X203.4 Y34.6 E68.75405
G1 X203.4 Y53.4 E69.37934
M204 S5000
M205 X30 Y30
G0 F3600 X203.8 Y53.8
M204 S500
M205 X20 Y20
;TYPE:WALL-OUTER
G1 F1800 X184.2 Y53.8 E70.03124
G1 X184.2 Y34.2 E70.68314
G1 X203.8 Y34.2 E71.33504
G1 X203.8 Y53.8 E71.98694
M204 S5000
M205 X30 Y30
G0 F3600 X203.6 Y53.8
G0 X203.01 Y53.01
M204 S500
M205 X20 Y20
;TYPE:SKIN
G1 F1800 X184.99 Y53.01 E72.58629
G1 X184.99 Y34.99 E73.18563
G1 X203.01 Y34.99 E73.78498
G1 X203.01 Y53.01 E74.38433
M204 S5000
M205 X30 Y30
G0 F3600 X202.829 Y35.386
M204 S500
M205 X20 Y20
