;FLAVOR:Marlin
;TIME:6666
;Filament used: 0m
;Layer height: 0.15

;Generated with Cura_SteamEngine 4.0.0
M140 S60
M105
M190 S60
M104 S200
M105
M109 S200
M82 ;absolute extrusion mode
M140 S60
M105
M190 S60
M104 S200
M105
M109 S200
G28 ; Home all axes
G92 E0 ; Reset Extruder
G1 Z2.0 F3000 ; Move Z Axis up little to prevent scratching of Heat Bed
G1 F1000 E10 ; extrude filament 10 mm
G92 E0
G1 F2400 E-5
;LAYER_COUNT:2
;LAYER:0
M107
M204 S5000
M205 X30 Y30
;MESH:top-right.stl
G0 F3600 X203.4 Y53.4 Z0.2
M204 S500
M205 X20 Y20
;TYPE:WALL-INNER
G1 F2400 E0
G1 F1800 X184.6 Y53.4 E0.62529
G1 X184.6 Y34.6 E1.25058
G1 X203.4 Y34.6 E1.87587
G1 X203.4 Y53.4 E2.50116
M204 S5000
M205 X30 Y30
G0 F3600 X203.8 Y53.8
M204 S500
M205 X20 Y20
;TYPE:WALL-OUTER
G1 F1800 X184.2 Y53.8 E3.15306
G1 X184.2 Y34.2 E3.80496
G1 X203.8 Y34.2 E4.45686
G1 X203.8 Y53.8 E5.10876
M204 S5000
M205 X30 Y30
G0 F3600 X203.6 Y53.8
G0 X203.01 Y53.01
M204 S500
M205 X20 Y20
;TYPE:SKIN
G1 F1800 X184.99 Y53.01 E5.7081
G1 X184.99 Y34.99 E6.30745
G1 X203.01 Y34.99 E6.9068
G1 X203.01 Y53.01 E7.50615
M204 S5000
M205 X30 Y30
G0 F3600 X202.829 Y35.386
M204 S500
M205 X20 Y20
G1 F1800 X202.612 Y35.17 E7.51633
M204 S5000
M205 X30 Y30
G0 F3600 X202.047 Y35.17
M204 S500
M205 X20 Y20
G1 F1800 X202.829 Y35.952 E7.55311
M204 S5000
M205 X30 Y30
G0 F3600 X202.829 Y36.517
M204 S500
M205 X20 Y20
G1 F1800 X201.481 Y35.17 E7.6165
M204 S5000
M205 X30 Y30
G0 F3600 X200.915 Y35.17
M204 S500
M205 X20 Y20
G1 F1800 X202.829 Y37.083 E7.7065
M204 S5000
M205 X30 Y30
G0 F3600 X202.829 Y37.649
M204 S500
M205 X20 Y20
G1 F1800 X200.35 Y35.17 E7.82311
M204 S5000
M205 X30 Y30
G0 F3600 X199.784 Y35.17
M204 S500
M205 X20 Y20
G1 F1800 X202.829 Y38.214 E7.96631
M204 S5000
M205 X30 Y30
G0 F3600 X202.829 Y38.78
M204 S500
M205 X20 Y20
G1 F1800 X199.218 Y35.17 E8.13614
M204 S5000
M205 X30 Y30
G0 F3600 X198.653 Y35.17
M204 S500
M205 X20 Y20
G1 F1800 X202.829 Y39.346 E8.33256
M204 S5000
M205 X30 Y30
G0 F3600 X202.829 Y39.911
M204 S500
M205 X20 Y20
G1 F1800 X198.087 Y35.17 E8.55559
M204 S5000
M205 X30 Y30
G0 F3600 X197.521 Y35.17
M204 S500
M205 X20 Y20
G1 F1800 X202.829 Y40.477 E8.80524
M204 S5000
M205 X30 Y30
G0 F3600 X202.829 Y41.043
M204 S500
M205 X20 Y20
G1 F1800 X196.956 Y35.17 E9.08148
M204 S5000
M205 X30 Y30
G0 F3600 X196.39 Y35.17
M204 S500
M205 X20 Y20
G1 F1800 X202.829 Y41.608 E9.38433
M204 S5000
M205 X30 Y30
G0 F3600 X202.829 Y42.174
M204 S500
M205 X20 Y20
G1 F1800 X195.824 Y35.17 E9.7138
M204 S5000
M205 X30 Y30
G0 F3600 X195.259 Y35.17
M204 S500
M205 X20 Y20
G1 F1800 X202.829 Y42.74 E10.06987
M204 S5000
M205 X30 Y30
G0 F3600 X202.829 Y43.306
M204 S500
M205 X20 Y20
G1 F1800 X194.693 Y35.17 E10.45256
M204 S5000
M205 X30 Y30
G0 F3600 X194.127 Y35.17
M204 S500
M205 X20 Y20
G1 F1800 X202.829 Y43.871 E10.86186
M204 S5000
M205 X30 Y30
G0 F3600 X202.829 Y44.437
M204 S500
M205 X20 Y20
G1 F1800 X193.561 Y35.17 E11.29777
M204 S5000
M205 X30 Y30
G0 F3600 X192.996 Y35.17
M204 S500
M205 X20 Y20
G1 F1800 X202.829 Y45.003 E11.76029
M204 S5000
M205 X30 Y30
G0 F3600 X202.829 Y45.568
M204 S500
M205 X20 Y20
G1 F1800 X192.43 Y35.17 E12.2494
M204 S5000
M205 X30 Y30
G0 F3600 X191.864 Y35.17
M204 S500
M205 X20 Y20
G1 F1800 X202.829 Y46.134 E12.76514
M204 S5000
M205 X30 Y30
G0 F3600 X202.829 Y46.7
M204 S500
M205 X20 Y20
G1 F1800 X191.299 Y35.17 E13.30747
M204 S5000
M205 X30 Y30
G0 F3600 X190.733 Y35.17
M204 S500
M205 X20 Y20
G1 F1800 X202.829 Y47.265 E13.87641
M204 S5000
M205 X30 Y30
G0 F3600 X202.829 Y47.831
M204 S500
M205 X20 Y20
G1 F1800 X190.167 Y35.17 E14.47196
M204 S5000
M205 X30 Y30
G0 F3600 X189.602 Y35.17
M204 S500
M205 X20 Y20
G1 F1800 X202.829 Y48.397 E15.09412
M204 S5000
M205 X30 Y30
G0 F3600 X202.829 Y48.962
M204 S500
M205 X20 Y20
G1 F1800 X189.036 Y35.17 E15.74288
M204 S5000
M205 X30 Y30
G0 F3600 X188.47 Y35.17
M204 S500
M205 X20 Y20
G1 F1800 X202.829 Y49.528 E16.41826
M204 S5000
M205 X30 Y30
G0 F3600 X202.829 Y50.094
M204 S500
M205 X20 Y20
G1 F1800 X187.905 Y35.17 E17.12024
M204 S5000
M205 X30 Y30
G0 F3600 X187.339 Y35.17
M204 S500
M205 X20 Y20
G1 F1800 X202.829 Y50.659 E17.84882
M204 S5000
M205 X30 Y30
G0 F3600 X202.829 Y51.225
M204 S500
M205 X20 Y20
G1 F1800 X186.773 Y35.17 E18.60402
M204 S5000
M205 X30 Y30
G0 F3600 X186.208 Y35.17
M204 S500
M205 X20 Y20
G1 F1800 X202.829 Y51.791 E19.38582
M204 S5000
M205 X30 Y30
G0 F3600 X202.829 Y52.357
M204 S500
M205 X20 Y20
G1 F1800 X185.642 Y35.17 E20.19424
M204 S5000
M205 X30 Y30
G0 F3600 X185.169 Y35.262
M204 S500
M205 X20 Y20
G1 F1800 X202.735 Y52.829 E21.02052
M204 S5000
M205 X30 Y30
G0 F3600 X202.17 Y52.829
M204 S500
M205 X20 Y20
G1 F1800 X185.169 Y35.828 E21.82019
M204 S5000
M205 X30 Y30
G0 F3600 X185.169 Y36.394
M204 S500
M205 X20 Y20
G1 F1800 X201.604 Y52.829 E22.59324
M204 S5000
M205 X30 Y30
G0 F3600 X201.038 Y52.829
M204 S500
M205 X20 Y20
G1 F1800 X185.169 Y36.959 E23.3397
M204 S5000
M205 X30 Y30
G0 F3600 X185.169 Y37.525
M204 S500
M205 X20 Y20
G1 F1800 X200.473 Y52.829 E24.05955
M204 S5000
M205 X30 Y30
G0 F3600 X199.907 Y52.829
M204 S500
M205 X20 Y20
G1 F1800 X185.169 Y38.091 E24.75278
M204 S5000
M205 X30 Y30
G0 F3600 X185.169 Y38.656
M204 S500
M205 X20 Y20
G1 F1800 X199.341 Y52.829 E25.41941
M204 S5000
M205 X30 Y30
G0 F3600 X198.776 Y52.829
M204 S500
M205 X20 Y20
G1 F1800 X185.169 Y39.222 E26.05944
M204 S5000
M205 X30 Y30
G0 F3600 X185.169 Y39.788
M204 S500
M205 X20 Y20
G1 F1800 X198.21 Y52.829 E26.67285
M204 S5000
M205 X30 Y30
G0 F3600 X197.644 Y52.829
M204 S500
M205 X20 Y20
G1 F1800 X185.169 Y40.353 E27.25966
M204 S5000
M205 X30 Y30
G0 F3600 X185.169 Y40.919
M204 S500
M205 X20 Y20
G1 F1800 X197.079 Y52.829 E27.81987
M204 S5000
M205 X30 Y30
G0 F3600 X196.513 Y52.829
M204 S500
M205 X20 Y20
G1 F1800 X185.169 Y41.485 E28.35346
M204 S5000
M205 X30 Y30
G0 F3600 X185.169 Y42.05
M204 S500
M205 X20 Y20
G1 F1800 X195.947 Y52.829 E28.86045
M204 S5000
M205 X30 Y30
G0 F3600 X195.382 Y52.829
M204 S500
M205 X20 Y20
G1 F1800 X185.169 Y42.616 E29.34083
M204 S5000
M205 X30 Y30
G0 F3600 X185.169 Y43.182
M204 S500
M205 X20 Y20
G1 F1800 X194.816 Y52.829 E29.7946
M204 S5000
M205 X30 Y30
G0 F3600 X194.25 Y52.829
M204 S500
M205 X20 Y20
G1 F1800 X185.169 Y43.747 E30.22176
M204 S5000
M205 X30 Y30
G0 F3600 X185.169 Y44.313
M204 S500
M205 X20 Y20
G1 F1800 X193.685 Y52.829 E30.62233
M204 S5000
M205 X30 Y30
G0 F3600 X193.119 Y52.829
M204 S500
M205 X20 Y20
G1 F1800 X185.169 Y44.879 E30.99627
M204 S5000
M205 X30 Y30
G0 F3600 X185.169 Y45.445
M204 S500
M205 X20 Y20
G1 F1800 X192.553 Y52.829 E31.3436
M204 S5000
M205 X30 Y30
G0 F3600 X191.987 Y52.829
M204 S500
M205 X20 Y20
G1 F1800 X185.169 Y46.01 E31.66432
M204 S5000
M205 X30 Y30
G0 F3600 X185.169 Y46.576
M204 S500
M205 X20 Y20
G1 F1800 X191.422 Y52.829 E31.95844
M204 S5000
M205 X30 Y30
G0 F3600 X190.856 Y52.829
M204 S500
M205 X20 Y20
G1 F1800 X185.169 Y47.142 E32.22594
M204 S5000
M205 X30 Y30
G0 F3600 X185.169 Y47.707
M204 S500
M205 X20 Y20
G1 F1800 X190.29 Y52.829 E32.46684
M204 S5000
M205 X30 Y30
G0 F3600 X189.725 Y52.829
M204 S500
M205 X20 Y20
G1 F1800 X185.169 Y48.273 E32.68114
M204 S5000
M205 X30 Y30
G0 F3600 X185.169 Y48.839
M204 S500
M205 X20 Y20
G1 F1800 X189.159 Y52.829 E32.86881
M204 S5000
M205 X30 Y30
G0 F3600 X188.593 Y52.829
M204 S500
M205 X20 Y20
G1 F1800 X185.169 Y49.404 E33.02989
M204 S5000
M205 X30 Y30
G0 F3600 X185.169 Y49.97
M204 S500
M205 X20 Y20
G1 F1800 X188.028 Y52.829 E33.16437
M204 S5000
M205 X30 Y30
G0 F3600 X187.462 Y52.829
M204 S500
M205 X20 Y20
G1 F1800 X185.169 Y50.536 E33.27223
M204 S5000
M205 X30 Y30
G0 F3600 X185.169 Y51.101
M204 S500
M205 X20 Y20
G1 F1800 X186.896 Y52.829 E33.35348
M204 S5000
M205 X30 Y30
G0 F3600 X186.331 Y52.829
M204 S500
M205 X20 Y20
G1 F1800 X185.169 Y51.667 E33.40814
M204 S5000
M205 X30 Y30
G0 F3600 X185.169 Y52.233
M204 S500
M205 X20 Y20
G1 F1800 X185.765 Y52.829 E33.43617
G1 X185.835 Y52.899
;TIME_ELAPSED:44.586388
G1 F2400 E28.43617
M204 S4000
; Ender 3 Custom End G-code
G4 ; Wait
M220 S100 ; Reset Speed factor override percentage to default (100%)
M221 S100 ; Reset Extrude factor override percentage to default (100%)
G91 ; Set coordinates to relative
G1 F1800 E-3 ; Retract filament 3 mm to prevent oozing
G1 F3000 Z20 ; Move Z Axis up 20 mm to allow filament ooze freely
G90 ; Set coordinates to absolute
G1 X0 Y235 F1000 ; Move Heat Bed to the front for easy print removal
M84 ; Disable stepper motors
; End of custom end GCode
M82 ;absolute extrusion mode
;End of Gcode
