;FLAVOR:Marlin
;TIME:6666
;Filament used: 0m
;Layer height: 0.15

;Generated with Cura_SteamEngine 4.0.0
M140 S60
M105
M190 S60
M104 S200
M105
M109 S200
M82 ;absolute extrusion mode
M140 S60
M105
M190 S60
M104 S200
M105
M109 S200
G28 ; Home all axes
G92 E0 ; Reset Extruder
G1 Z2.0 F3000 ; Move Z Axis up little to prevent scratching of Heat Bed
G1 F1000 E10 ; extrude filament 10 mm
G92 E0
G1 F2400 E-5
;LAYER_COUNT:2
;LAYER:0
M107
M204 S5000
M205 X30 Y30
;MESH:top-left.stl
G0 F3600 X53.4 Y53.4 Z0.2
M204 S500
M205 X20 Y20
;TYPE:WALL-INNER
G1 F2400 E0
G1 F1800 X34.6 Y53.4 E0.62529
G1 X34.6 Y34.6 E1.25058
G1 X53.4 Y34.6 E1.87587
G1 X53.4 Y53.4 E2.50116
M204 S5000
M205 X30 Y30
G0 F3600 X53.8 Y53.8
M204 S500
M205 X20 Y20
;TYPE:WALL-OUTER
G1 F1800 X34.2 Y53.8 E3.15306
G1 X34.2 Y34.2 E3.80496
G1 X53.8 Y34.2 E4.45686
G1 X53.8 Y53.8 E5.10876
M204 S5000
M205 X30 Y30
G0 F3600 X53.6 Y53.8
G0 X53.01 Y53.01
M204 S500
M205 X20 Y20
;TYPE:SKIN
G1 F1800 X34.99 Y53.01 E5.7081
G1 X34.99 Y34.99 E6.30745
G1 X53.01 Y34.99 E6.9068
G1 X53.01 Y53.01 E7.50615
M204 S5000
M205 X30 Y30
G0 F3600 X52.829 Y35.293
M204 S500
M205 X20 Y20
G1 F1800 X52.706 Y35.17 E7.51193
M204 S5000
M205 X30 Y30
G0 F3600 X52.14 Y35.17
M204 S500
M205 X20 Y20
G1 F1800 X52.829 Y35.858 E7.54432
M204 S5000
M205 X30 Y30
G0 F3600 X52.829 Y36.424
M204 S500
M205 X20 Y20
G1 F1800 X51.574 Y35.17 E7.60333
M204 S5000
M205 X30 Y30
G0 F3600 X51.009 Y35.17
M204 S500
M205 X20 Y20
G1 F1800 X52.829 Y36.99 E7.68893
M204 S5000
M205 X30 Y30
G0 F3600 X52.829 Y37.555
M204 S500
M205 X20 Y20
G1 F1800 X50.443 Y35.17 E7.80114
M204 S5000
M205 X30 Y30
G0 F3600 X49.877 Y35.17
M204 S500
M205 X20 Y20
G1 F1800 X52.829 Y38.121 E7.93997
M204 S5000
M205 X30 Y30
G0 F3600 X52.829 Y38.687
M204 S500
M205 X20 Y20
G1 F1800 X49.312 Y35.17 E8.1054
M204 S5000
M205 X30 Y30
G0 F3600 X48.746 Y35.17
M204 S500
M205 X20 Y20
G1 F1800 X52.829 Y39.252 E8.29743
M204 S5000
M205 X30 Y30
G0 F3600 X52.829 Y39.818
M204 S500
M205 X20 Y20
G1 F1800 X48.18 Y35.17 E8.51608
M204 S5000
M205 X30 Y30
G0 F3600 X47.615 Y35.17
M204 S500
M205 X20 Y20
G1 F1800 X52.829 Y40.384 E8.76133
M204 S5000
M205 X30 Y30
G0 F3600 X52.829 Y40.949
M204 S500
M205 X20 Y20
G1 F1800 X47.049 Y35.17 E9.03318
M204 S5000
M205 X30 Y30
G0 F3600 X46.483 Y35.17
M204 S500
M205 X20 Y20
G1 F1800 X52.829 Y41.515 E9.33165
M204 S5000
M205 X30 Y30
G0 F3600 X52.829 Y42.081
M204 S500
M205 X20 Y20
G1 F1800 X45.918 Y35.17 E9.65672
M204 S5000
M205 X30 Y30
G0 F3600 X45.352 Y35.17
M204 S500
M205 X20 Y20
G1 F1800 X52.829 Y42.647 E10.00842
M204 S5000
M205 X30 Y30
G0 F3600 X52.829 Y43.212
M204 S500
M205 X20 Y20
G1 F1800 X44.786 Y35.17 E10.38671
M204 S5000
M205 X30 Y30
G0 F3600 X44.221 Y35.17
M204 S500
M205 X20 Y20
G1 F1800 X52.829 Y43.778 E10.79161
M204 S5000
M205 X30 Y30
G0 F3600 X52.829 Y44.344
M204 S500
M205 X20 Y20
G1 F1800 X43.655 Y35.17 E11.22312
M204 S5000
M205 X30 Y30
G0 F3600 X43.089 Y35.17
M204 S500
M205 X20 Y20
G1 F1800 X52.829 Y44.909 E11.68124
M204 S5000
M205 X30 Y30
G0 F3600 X52.829 Y45.475
M204 S500
M205 X20 Y20
G1 F1800 X42.523 Y35.17 E12.16598
M204 S5000
M205 X30 Y30
G0 F3600 X41.958 Y35.17
M204 S500
M205 X20 Y20
G1 F1800 X52.829 Y46.041 E12.67732
M204 S5000
M205 X30 Y30
G0 F3600 X52.829 Y46.606
M204 S500
M205 X20 Y20
G1 F1800 X41.392 Y35.17 E13.21526
M204 S5000
M205 X30 Y30
G0 F3600 X40.826 Y35.17
M204 S500
M205 X20 Y20
G1 F1800 X52.829 Y47.172 E13.77982
M204 S5000
M205 X30 Y30
G0 F3600 X52.829 Y47.738
M204 S500
M205 X20 Y20
G1 F1800 X40.261 Y35.17 E14.37098
M204 S5000
M205 X30 Y30
G0 F3600 X39.695 Y35.17
M204 S500
M205 X20 Y20
G1 F1800 X52.829 Y48.303 E14.98874
M204 S5000
M205 X30 Y30
G0 F3600 X52.829 Y48.869
M204 S500
M205 X20 Y20
G1 F1800 X39.129 Y35.17 E15.63312
M204 S5000
M205 X30 Y30
G0 F3600 X38.564 Y35.17
M204 S500
M205 X20 Y20
G1 F1800 X52.829 Y49.435 E16.3041
M204 S5000
M205 X30 Y30
G0 F3600 X52.829 Y50
M204 S500
M205 X20 Y20
G1 F1800 X37.998 Y35.17 E17.00168
M204 S5000
M205 X30 Y30
G0 F3600 X37.432 Y35.17
M204 S500
M205 X20 Y20
G1 F1800 X52.829 Y50.566 E17.72589
M204 S5000
M205 X30 Y30
G0 F3600 X52.829 Y51.132
M204 S500
M205 X20 Y20
G1 F1800 X36.867 Y35.17 E18.47669
M204 S5000
M205 X30 Y30
G0 F3600 X36.301 Y35.17
M204 S500
M205 X20 Y20
G1 F1800 X52.829 Y51.697 E19.25409
M204 S5000
M205 X30 Y30
G0 F3600 X52.829 Y52.263
M204 S500
M205 X20 Y20
G1 F1800 X35.735 Y35.17 E20.05812
M204 S5000
M205 X30 Y30
G0 F3600 X35.169 Y35.169
M204 S500
M205 X20 Y20
G1 F1800 X52.829 Y52.829 E20.88879
M204 S5000
M205 X30 Y30
G0 F3600 X52.263 Y52.829
M204 S500
M205 X20 Y20
G1 F1800 X35.169 Y35.735 E21.69284
M204 S5000
M205 X30 Y30
G0 F3600 X35.169 Y36.3
M204 S500
M205 X20 Y20
G1 F1800 X51.697 Y52.829 E22.47029
M204 S5000
M205 X30 Y30
G0 F3600 X51.132 Y52.829
M204 S500
M205 X20 Y20
G1 F1800 X35.169 Y36.866 E23.22114
M204 S5000
M205 X30 Y30
G0 F3600 X35.169 Y37.432
M204 S500
M205 X20 Y20
G1 F1800 X50.566 Y52.829 E23.94537
M204 S5000
M205 X30 Y30
G0 F3600 X50 Y52.829
M204 S500
M205 X20 Y20
G1 F1800 X35.169 Y37.997 E24.643
M204 S5000
M205 X30 Y30
G0 F3600 X35.169 Y38.563
M204 S500
M205 X20 Y20
G1 F1800 X49.435 Y52.829 E25.31402
M204 S5000
M205 X30 Y30
G0 F3600 X48.869 Y52.829
M204 S500
M205 X20 Y20
G1 F1800 X35.169 Y39.129 E25.95843
M204 S5000
M205 X30 Y30
G0 F3600 X35.169 Y39.694
M204 S500
M205 X20 Y20
G1 F1800 X48.303 Y52.829 E26.57624
M204 S5000
M205 X30 Y30
G0 F3600 X47.738 Y52.829
M204 S500
M205 X20 Y20
G1 F1800 X35.169 Y40.26 E27.16744
M204 S5000
M205 X30 Y30
G0 F3600 X35.169 Y40.826
M204 S500
M205 X20 Y20
G1 F1800 X47.172 Y52.829 E27.73203
M204 S5000
M205 X30 Y30
G0 F3600 X46.606 Y52.829
M204 S500
M205 X20 Y20
G1 F1800 X35.169 Y41.391 E28.27001
M204 S5000
M205 X30 Y30
G0 F3600 X35.169 Y41.957
M204 S500
M205 X20 Y20
G1 F1800 X46.041 Y52.829 E28.7814
M204 S5000
M205 X30 Y30
G0 F3600 X45.475 Y52.829
M204 S500
M205 X20 Y20
G1 F1800 X35.169 Y42.523 E29.26616
M204 S5000
M205 X30 Y30
G0 F3600 X35.169 Y43.088
M204 S500
M205 X20 Y20
G1 F1800 X44.909 Y52.829 E29.72433
M204 S5000
M205 X30 Y30
G0 F3600 X44.344 Y52.829
M204 S500
M205 X20 Y20
G1 F1800 X35.169 Y43.654 E30.15589
M204 S5000
M205 X30 Y30
G0 F3600 X35.169 Y44.22
M204 S500
M205 X20 Y20
G1 F1800 X43.778 Y52.829 E30.56083
M204 S5000
M205 X30 Y30
G0 F3600 X43.212 Y52.829
M204 S500
M205 X20 Y20
G1 F1800 X35.169 Y44.786 E30.93915
M204 S5000
M205 X30 Y30
G0 F3600 X35.169 Y45.351
M204 S500
M205 X20 Y20
G1 F1800 X42.647 Y52.829 E31.29089
M204 S5000
M205 X30 Y30
G0 F3600 X42.081 Y52.829
M204 S500
M205 X20 Y20
G1 F1800 X35.169 Y45.917 E31.61601
M204 S5000
M205 X30 Y30
G0 F3600 X35.169 Y46.483
M204 S500
M205 X20 Y20
G1 F1800 X41.515 Y52.829 E31.91451
M204 S5000
M205 X30 Y30
G0 F3600 X40.949 Y52.829
M204 S500
M205 X20 Y20
G1 F1800 X35.169 Y47.048 E32.1864
M204 S5000
M205 X30 Y30
G0 F3600 X35.169 Y47.614
M204 S500
M205 X20 Y20
G1 F1800 X40.384 Y52.829 E32.4317
M204 S5000
M205 X30 Y30
G0 F3600 X39.818 Y52.829
M204 S500
M205 X20 Y20
G1 F1800 X35.169 Y48.18 E32.65038
M204 S5000
M205 X30 Y30
G0 F3600 X35.169 Y48.745
M204 S500
M205 X20 Y20
G1 F1800 X39.252 Y52.829 E32.84245
M204 S5000
M205 X30 Y30
G0 F3600 X38.687 Y52.829
M204 S500
M205 X20 Y20
G1 F1800 X35.169 Y49.311 E33.00793
M204 S5000
M205 X30 Y30
G0 F3600 X35.169 Y49.877
M204 S500
M205 X20 Y20
G1 F1800 X38.121 Y52.829 E33.14678
M204 S5000
M205 X30 Y30
G0 F3600 X37.555 Y52.829
M204 S500
M205 X20 Y20
G1 F1800 X35.169 Y50.442 E33.25903
M204 S5000
M205 X30 Y30
G0 F3600 X35.169 Y51.008
M204 S500
M205 X20 Y20
G1 F1800 X36.99 Y52.829 E33.34469
M204 S5000
M205 X30 Y30
G0 F3600 X36.424 Y52.829
M204 S500
M205 X20 Y20
G1 F1800 X35.169 Y51.574 E33.40372
M204 S5000
M205 X30 Y30
G0 F3600 X35.169 Y52.139
M204 S500
M205 X20 Y20
G1 F1800 X35.858 Y52.829 E33.43615
M204 S5000
M205 X30 Y30
G0 F3600 X35.293 Y52.829
M204 S500
M205 X20 Y20
G1 F1800 X35.169 Y52.705 E33.44198
;TIME_ELAPSED:44.289933
G1 F2400 E28.44198
M204 S4000
; Ender 3 Custom End G-code
G4 ; Wait
M220 S100 ; Reset Speed factor override percentage to default (100%)
M221 S100 ; Reset Extrude factor override percentage to default (100%)
G91 ; Set coordinates to relative
G1 F1800 E-3 ; Retract filament 3 mm to prevent oozing
G1 F3000 Z20 ; Move Z Axis up 20 mm to allow filament ooze freely
G90 ; Set coordinates to absolute
G1 X0 Y235 F1000 ; Move Heat Bed to the front for easy print removal
M84 ; Disable stepper motors
; End of custom end GCode
M82 ;absolute extrusion mode
;End of Gcode
