;FLAVOR:Marlin
;TIME:6666
;Filament used: 0m
;Layer height: 0.15

;Generated with Cura_SteamEngine 4.0.0
M140 S60
M105
M190 S60
M104 S200
M105
M109 S200
M82 ;absolute extrusion mode
M140 S60
M105
M190 S60
M104 S200
M105
M109 S200
G28 ; Home all axes
G92 E0 ; Reset Extruder
G1 Z2.0 F3000 ; Move Z Axis up little to prevent scratching of Heat Bed
G1 F1000 E10 ; extrude filament 10 mm
G92 E0
G1 F2400 E-5
;LAYER_COUNT:2
;LAYER:0
M107
M204 S5000
M205 X30 Y30
;MESH:top-mid.stl
G0 F3600 X128.4 Y53.4 Z0.2
M204 S500
M205 X20 Y20
;TYPE:WALL-INNER
G1 F2400 E0
G1 F1800 X109.6 Y53.4 E0.62529
G1 X109.6 Y34.6 E1.25058
G1 X128.4 Y34.6 E1.87587
G1 X128.4 Y53.4 E2.50116
M204 S5000
M205 X30 Y30
G0 F3600 X128.8 Y53.8
M204 S500
M205 X20 Y20
;TYPE:WALL-OUTER
G1 F1800 X109.2 Y53.8 E3.15306
G1 X109.2 Y34.2 E3.80496
G1 X128.8 Y34.2 E4.45686
G1 X128.8 Y53.8 E5.10876
M204 S5000
M205 X30 Y30
G0 F3600 X128.6 Y53.8
G0 X128.01 Y53.01
M204 S500
M205 X20 Y20
;TYPE:SKIN
G1 F1800 X109.99 Y53.01 E5.7081
G1 X109.99 Y34.99 E6.30745
G1 X128.01 Y34.99 E6.9068
G1 X128.01 Y53.01 E7.50615
M204 S5000
M205 X30 Y30
G0 F3600 X127.829 Y35.622
M204 S500
M205 X20 Y20
G1 F1800 X127.376 Y35.17 E7.52743
M204 S5000
M205 X30 Y30
G0 F3600 X126.811 Y35.17
M204 S500
M205 X20 Y20
G1 F1800 X127.829 Y36.188 E7.57532
M204 S5000
M205 X30 Y30
G0 F3600 X127.829 Y36.753
M204 S500
M205 X20 Y20
G1 F1800 X126.245 Y35.17 E7.6498
M204 S5000
M205 X30 Y30
G0 F3600 X125.679 Y35.17
M204 S500
M205 X20 Y20
G1 F1800 X127.829 Y37.319 E7.7509
M204 S5000
M205 X30 Y30
G0 F3600 X127.829 Y37.885
M204 S500
M205 X20 Y20
G1 F1800 X125.114 Y35.17 E7.87861
M204 S5000
M205 X30 Y30
G0 F3600 X124.548 Y35.17
M204 S500
M205 X20 Y20
G1 F1800 X127.829 Y38.451 E8.03294
M204 S5000
M205 X30 Y30
G0 F3600 X127.829 Y39.016
M204 S500
M205 X20 Y20
G1 F1800 X123.982 Y35.17 E8.21387
M204 S5000
M205 X30 Y30
G0 F3600 X123.417 Y35.17
M204 S500
M205 X20 Y20
G1 F1800 X127.829 Y39.582 E8.42139
M204 S5000
M205 X30 Y30
G0 F3600 X127.829 Y40.148
M204 S500
M205 X20 Y20
G1 F1800 X122.851 Y35.17 E8.65554
M204 S5000
M205 X30 Y30
G0 F3600 X122.285 Y35.17
M204 S500
M205 X20 Y20
G1 F1800 X127.829 Y40.713 E8.91629
M204 S5000
M205 X30 Y30
G0 F3600 X127.829 Y41.279
M204 S500
M205 X20 Y20
G1 F1800 X121.719 Y35.17 E9.20366
M204 S5000
M205 X30 Y30
G0 F3600 X121.154 Y35.17
M204 S500
M205 X20 Y20
G1 F1800 X127.829 Y41.845 E9.51763
M204 S5000
M205 X30 Y30
G0 F3600 X127.829 Y42.41
M204 S500
M205 X20 Y20
G1 F1800 X120.588 Y35.17 E9.85821
M204 S5000
M205 X30 Y30
G0 F3600 X120.022 Y35.17
M204 S500
M205 X20 Y20
G1 F1800 X127.829 Y42.976 E10.2254
M204 S5000
M205 X30 Y30
G0 F3600 X127.829 Y43.542
M204 S500
M205 X20 Y20
G1 F1800 X119.457 Y35.17 E10.61919
M204 S5000
M205 X30 Y30
G0 F3600 X118.891 Y35.17
M204 S500
M205 X20 Y20
G1 F1800 X127.829 Y44.107 E11.03959
M204 S5000
M205 X30 Y30
G0 F3600 X127.829 Y44.673
M204 S500
M205 X20 Y20
G1 F1800 X118.325 Y35.17 E11.4866
M204 S5000
M205 X30 Y30
G0 F3600 X117.76 Y35.17
M204 S500
M205 X20 Y20
G1 F1800 X127.829 Y45.239 E11.96022
M204 S5000
M205 X30 Y30
G0 F3600 X127.829 Y45.804
M204 S500
M205 X20 Y20
G1 F1800 X117.194 Y35.17 E12.46043
M204 S5000
M205 X30 Y30
G0 F3600 X116.628 Y35.17
M204 S500
M205 X20 Y20
G1 F1800 X127.829 Y46.37 E12.98727
M204 S5000
M205 X30 Y30
G0 F3600 X127.829 Y46.936
M204 S500
M205 X20 Y20
G1 F1800 X116.063 Y35.17 E13.5407
M204 S5000
M205 X30 Y30
G0 F3600 X115.497 Y35.17
M204 S500
M205 X20 Y20
G1 F1800 X127.829 Y47.502 E14.12076
M204 S5000
M205 X30 Y30
G0 F3600 X127.829 Y48.067
M204 S500
M205 X20 Y20
G1 F1800 X114.931 Y35.17 E14.72742
M204 S5000
M205 X30 Y30
G0 F3600 X114.366 Y35.17
M204 S500
M205 X20 Y20
G1 F1800 X127.829 Y48.633 E15.36068
M204 S5000
M205 X30 Y30
G0 F3600 X127.829 Y49.199
M204 S500
M205 X20 Y20
G1 F1800 X113.8 Y35.17 E16.02056
M204 S5000
M205 X30 Y30
G0 F3600 X113.234 Y35.17
M204 S500
M205 X20 Y20
G1 F1800 X127.829 Y49.764 E16.70704
M204 S5000
M205 X30 Y30
G0 F3600 X127.829 Y50.33
M204 S500
M205 X20 Y20
G1 F1800 X112.668 Y35.17 E17.42015
M204 S5000
M205 X30 Y30
G0 F3600 X112.103 Y35.17
M204 S500
M205 X20 Y20
G1 F1800 X127.829 Y50.896 E18.15985
M204 S5000
M205 X30 Y30
G0 F3600 X127.829 Y51.461
M204 S500
M205 X20 Y20
G1 F1800 X111.537 Y35.17 E18.92615
M204 S5000
M205 X30 Y30
G0 F3600 X110.971 Y35.17
M204 S500
M205 X20 Y20
G1 F1800 X127.829 Y52.027 E19.71908
M204 S5000
M205 X30 Y30
G0 F3600 X127.829 Y52.593
M204 S500
M205 X20 Y20
G1 F1800 X110.406 Y35.17 E20.5386
M204 S5000
M205 X30 Y30
G0 F3600 X110.169 Y35.498
M204 S500
M205 X20 Y20
G1 F1800 X127.499 Y52.829 E21.35377
M204 S5000
M205 X30 Y30
G0 F3600 X126.934 Y52.829
M204 S500
M205 X20 Y20
G1 F1800 X110.169 Y36.064 E22.14235
M204 S5000
M205 X30 Y30
G0 F3600 X110.169 Y36.63
M204 S500
M205 X20 Y20
G1 F1800 X126.368 Y52.829 E22.9043
M204 S5000
M205 X30 Y30
G0 F3600 X125.802 Y52.829
M204 S500
M205 X20 Y20
G1 F1800 X110.169 Y37.195 E23.63965
M204 S5000
M205 X30 Y30
G0 F3600 X110.169 Y37.761
M204 S500
M205 X20 Y20
G1 F1800 X125.237 Y52.829 E24.3484
M204 S5000
M205 X30 Y30
G0 F3600 X124.671 Y52.829
M204 S500
M205 X20 Y20
G1 F1800 X110.169 Y38.327 E25.03053
M204 S5000
M205 X30 Y30
G0 F3600 X110.169 Y38.892
M204 S500
M205 X20 Y20
G1 F1800 X124.105 Y52.829 E25.68606
M204 S5000
M205 X30 Y30
G0 F3600 X123.54 Y52.829
M204 S500
M205 X20 Y20
G1 F1800 X110.169 Y39.458 E26.31499
M204 S5000
M205 X30 Y30
G0 F3600 X110.169 Y40.024
M204 S500
M205 X20 Y20
G1 F1800 X122.974 Y52.829 E26.9173
M204 S5000
M205 X30 Y30
G0 F3600 X122.408 Y52.829
M204 S500
M205 X20 Y20
G1 F1800 X110.169 Y40.59 E27.49299
M204 S5000
M205 X30 Y30
G0 F3600 X110.169 Y41.155
M204 S500
M205 X20 Y20
G1 F1800 X121.842 Y52.829 E28.04207
M204 S5000
M205 X30 Y30
G0 F3600 X121.277 Y52.829
M204 S500
M205 X20 Y20
G1 F1800 X110.169 Y41.721 E28.56456
M204 S5000
M205 X30 Y30
G0 F3600 X110.169 Y42.287
M204 S500
M205 X20 Y20
G1 F1800 X120.711 Y52.829 E29.06042
M204 S5000
M205 X30 Y30
G0 F3600 X120.145 Y52.829
M204 S500
M205 X20 Y20
G1 F1800 X110.169 Y42.852 E29.52969
M204 S5000
M205 X30 Y30
G0 F3600 X110.169 Y43.418
M204 S500
M205 X20 Y20
G1 F1800 X119.58 Y52.829 E29.97235
M204 S5000
M205 X30 Y30
G0 F3600 X119.014 Y52.829
M204 S500
M205 X20 Y20
G1 F1800 X110.169 Y43.984 E30.38839
M204 S5000
M205 X30 Y30
G0 F3600 X110.169 Y44.549
M204 S500
M205 X20 Y20
G1 F1800 X118.448 Y52.829 E30.77784
M204 S5000
M205 X30 Y30
G0 F3600 X117.883 Y52.829
M204 S500
M205 X20 Y20
G1 F1800 X110.169 Y45.115 E31.14068
M204 S5000
M205 X30 Y30
G0 F3600 X110.169 Y45.681
M204 S500
M205 X20 Y20
G1 F1800 X117.317 Y52.829 E31.4769
M204 S5000
M205 X30 Y30
G0 F3600 X116.751 Y52.829
M204 S500
M205 X20 Y20
G1 F1800 X110.169 Y46.246 E31.78652
M204 S5000
M205 X30 Y30
G0 F3600 X110.169 Y46.812
M204 S500
M205 X20 Y20
G1 F1800 X116.186 Y52.829 E32.06954
M204 S5000
M205 X30 Y30
G0 F3600 X115.62 Y52.829
M204 S500
M205 X20 Y20
G1 F1800 X110.169 Y47.378 E32.32594
M204 S5000
M205 X30 Y30
G0 F3600 X110.169 Y47.943
M204 S500
M205 X20 Y20
G1 F1800 X115.054 Y52.829 E32.55574
M204 S5000
M205 X30 Y30
G0 F3600 X114.489 Y52.829
M204 S500
M205 X20 Y20
G1 F1800 X110.169 Y48.509 E32.75894
M204 S5000
M205 X30 Y30
G0 F3600 X110.169 Y49.075
M204 S500
M205 X20 Y20
G1 F1800 X113.923 Y52.829 E32.93551
M204 S5000
M205 X30 Y30
G0 F3600 X113.357 Y52.829
M204 S500
M205 X20 Y20
G1 F1800 X110.169 Y49.641 E33.08547
M204 S5000
M205 X30 Y30
G0 F3600 X110.169 Y50.206
M204 S500
M205 X20 Y20
G1 F1800 X112.792 Y52.829 E33.20884
M204 S5000
M205 X30 Y30
G0 F3600 X112.226 Y52.829
M204 S500
M205 X20 Y20
G1 F1800 X110.169 Y50.772 E33.3056
M204 S5000
M205 X30 Y30
G0 F3600 X110.169 Y51.338
M204 S500
M205 X20 Y20
G1 F1800 X111.66 Y52.829 E33.37573
M204 S5000
M205 X30 Y30
G0 F3600 X111.094 Y52.829
M204 S500
M205 X20 Y20
G1 F1800 X110.169 Y51.903 E33.41926
M204 S5000
M205 X30 Y30
G0 F3600 X110.169 Y52.469
M204 S500
M205 X20 Y20
G1 F1800 X110.529 Y52.829 E33.4362
;TIME_ELAPSED:44.404034
G1 F2400 E28.4362
M204 S4000
; Ender 3 Custom End G-code
G4 ; Wait
M220 S100 ; Reset Speed factor override percentage to default (100%)
M221 S100 ; Reset Extrude factor override percentage to default (100%)
G91 ; Set coordinates to relative
G1 F1800 E-3 ; Retract filament 3 mm to prevent oozing
G1 F3000 Z20 ; Move Z Axis up 20 mm to allow filament ooze freely
G90 ; Set coordinates to absolute
G1 X0 Y235 F1000 ; Move Heat Bed to the front for easy print removal
M84 ; Disable stepper motors
; End of custom end GCode
M82 ;absolute extrusion mode
;End of Gcode
